(.../Documents/elec/Eagle/ulp/pcb-gcode.ulp)
(Copyright 2005 - 2009 by John Johnson)
(See readme.txt for licensing terms.)
(This file generated from the board:)
(.../GitHub/Bleuette/pcb/sensor.brd)
(Current profile is .../elec/Eagle/ulp/profiles/emc.pp  )
(This file generated 2/17/13 2:37 PM)
(Settings from pcb-machine.h)
(  Tool Size)
(0.1778 )
(Z Axis Settings)
(  High     Up        Down     Drill)
(12.7000 	2.5400 	-0.1000 	-0.8128 )
(spindle on time = 3.0000)
(milling depth = -0.2540)
(text depth = -0.1270)
(tool change at 0.0000 0.0000 0.0000 )
(feed rate xy = F508.00 )
(feed rate z  = F254.00 )
(Settings from pcb-defaults.h)
(Default isolate = 0.0254)
(isolate max = 0.5080)
(isolate step = 0.1270)
(Generated top outlines, top drill, )
(Unit of measure: mm)
(Metric Mode)
G21
(Absolute Coordinates)
G90
G00 X0.0000 Y0.0000 
M03
G04 P3.000000
G00 Z2.5400 
G00 X42.7749 Y1.5621 
G01 Z-0.1000 F254.00 
G01 X42.1613 Y2.1757 F508.00 
G01 X42.2275 Y2.1757 
G01 X42.2275 Y2.1455 
G01 X42.7855 Y1.5875 
G01 X42.8157 Y1.5875 
G01 X42.8157 Y1.5621 
G01 X42.7749 Y1.5621 
G00 Z2.5400 
G00 X41.5925 Y2.9345 
G01 Z-0.1000 F254.00 
G01 X41.0345 Y3.4925 F508.00 
G01 X41.0043 Y3.4925 
G01 X41.0043 Y3.5179 
G01 X41.0451 Y3.5179 
G01 X41.6569 Y2.9061 
G01 X41.5925 Y2.9043 
G01 X41.5925 Y2.9345 
G00 Z2.5400 
G00 X41.6559 Y2.1730 
G01 Z-0.1000 F254.00 
G01 X41.0451 Y1.5621 F508.00 
G01 X41.0043 Y1.5621 
G01 X41.0043 Y1.5875 
G01 X41.0345 Y1.5875 
G01 X41.5925 Y2.1455 
G01 X41.5925 Y2.1757 
G01 X41.6587 Y2.1757 
G01 X41.6559 Y2.1730 
G00 Z2.5400 
G00 X42.1641 Y2.9070 
G01 Z-0.1000 F254.00 
G01 X42.7749 Y3.5179 F508.00 
G01 X42.8157 Y3.5179 
G01 X42.8157 Y3.4925 
G01 X42.7855 Y3.4925 
G01 X42.2275 Y2.9345 
G01 X42.2275 Y2.9043 
G01 X42.1613 Y2.9043 
G01 X42.1641 Y2.9070 
G00 Z2.5400 
G00 X25.7718 Y16.9826 
G01 Z-0.1000 F254.00 
G01 X25.8552 Y17.0974 F508.00 
G01 X25.9556 Y17.1978 
G01 X26.0704 Y17.2812 
G01 X26.1969 Y17.3456 
G01 X26.3318 Y17.3895 
G01 X26.4720 Y17.4117 
G01 X26.9367 Y17.4117 
G01 X26.9367 Y17.3863 
G01 X26.4567 Y17.3863 
G01 X26.2874 Y17.3526 
G01 X26.1279 Y17.2866 
G01 X25.9844 Y17.1907 
G01 X25.8623 Y17.0686 
G01 X25.7664 Y16.9251 
G01 X25.7471 Y16.8783 
G01 X25.7187 Y16.8783 
G01 X25.7718 Y16.9826 
G00 Z2.5400 
G00 X61.8882 Y26.2299 
G01 Z-0.1000 F254.00 
G01 X61.7273 Y26.2554 F508.00 
G01 X61.5723 Y26.3058 
G01 X61.4272 Y26.3797 
G01 X61.2953 Y26.4755 
G01 X61.1802 Y26.5907 
G01 X61.0844 Y26.7225 
G01 X61.0183 Y26.8522 
G01 X61.0478 Y26.8522 
G01 X61.0749 Y26.7868 
G01 X61.1854 Y26.6214 
G01 X61.3260 Y26.4808 
G01 X61.4914 Y26.3703 
G01 X61.6751 Y26.2942 
G01 X61.8702 Y26.2553 
G01 X62.4522 Y26.2553 
G01 X62.4522 Y26.2299 
G01 X61.8882 Y26.2299 
G00 Z2.5400 
G00 X63.8418 Y28.3000 
G01 Z-0.1000 F254.00 
G01 X64.0027 Y28.2746 F508.00 
G01 X64.1577 Y28.2242 
G01 X64.3028 Y28.1503 
G01 X64.4346 Y28.0545 
G01 X64.5498 Y27.9393 
G01 X64.6456 Y27.8075 
G01 X64.7117 Y27.6777 
G01 X64.6822 Y27.6777 
G01 X64.6551 Y27.7432 
G01 X64.5446 Y27.9086 
G01 X64.4040 Y28.0492 
G01 X64.2386 Y28.1597 
G01 X64.0549 Y28.2358 
G01 X63.8598 Y28.2746 
G01 X63.2777 Y28.2746 
G01 X63.2777 Y28.3000 
G01 X63.8418 Y28.3000 
G00 Z2.5400 
G00 X61.2953 Y28.0545 
G01 Z-0.1000 F254.00 
G01 X61.4272 Y28.1503 F508.00 
G01 X61.5723 Y28.2242 
G01 X61.7273 Y28.2746 
G01 X61.8882 Y28.3000 
G01 X62.4522 Y28.3000 
G01 X62.4522 Y28.2746 
G01 X61.8702 Y28.2746 
G01 X61.6751 Y28.2358 
G01 X61.4914 Y28.1597 
G01 X61.3260 Y28.0492 
G01 X61.1854 Y27.9086 
G01 X61.0749 Y27.7432 
G01 X61.0478 Y27.6777 
G01 X61.0183 Y27.6777 
G01 X61.0844 Y27.8075 
G01 X61.1802 Y27.9393 
G01 X61.2953 Y28.0545 
G00 Z2.5400 
G00 X64.6456 Y26.7225 
G01 Z-0.1000 F254.00 
G01 X64.5498 Y26.5907 F508.00 
G01 X64.4346 Y26.4755 
G01 X64.3028 Y26.3797 
G01 X64.1577 Y26.3058 
G01 X64.0027 Y26.2554 
G01 X63.8418 Y26.2299 
G01 X63.2777 Y26.2299 
G01 X63.2777 Y26.2553 
G01 X63.8598 Y26.2553 
G01 X64.0549 Y26.2942 
G01 X64.2386 Y26.3703 
G01 X64.4040 Y26.4808 
G01 X64.5446 Y26.6214 
G01 X64.6551 Y26.7868 
G01 X64.6822 Y26.8522 
G01 X64.7117 Y26.8522 
G01 X64.6456 Y26.7225 
G00 Z2.5400 
G00 X37.8567 Y12.4026 
G01 Z-0.1000 F254.00 
G01 X37.3814 Y11.9273 F508.00 
G01 X36.7993 Y11.5913 
G01 X36.1501 Y11.4173 
G01 X35.4779 Y11.4173 
G01 X34.8287 Y11.5913 
G01 X34.2466 Y11.9273 
G01 X33.7713 Y12.4026 
G01 X33.4353 Y12.9847 
G01 X33.2613 Y13.6339 
G01 X33.2613 Y14.3061 
G01 X33.4353 Y14.9553 
G01 X33.7713 Y15.5374 
G01 X34.2466 Y16.0127 
G01 X34.8287 Y16.3487 
G01 X35.4779 Y16.5227 
G01 X36.1501 Y16.5227 
G01 X36.7993 Y16.3487 
G01 X37.3814 Y16.0127 
G01 X37.8567 Y15.5374 
G01 X38.1927 Y14.9553 
G01 X38.3667 Y14.3061 
G01 X38.3667 Y13.6339 
G01 X38.1927 Y12.9847 
G01 X37.8567 Y12.4026 
G00 Z2.5400 
G00 X52.5216 Y5.8803 
G01 Z-0.1000 F254.00 
G01 X52.4861 Y5.8898 F508.00 
G01 X52.4542 Y5.9082 
G01 X52.4282 Y5.9342 
G01 X52.4098 Y5.9661 
G01 X52.4003 Y6.0016 
G01 X52.4003 Y6.2307 
G01 X52.4257 Y6.2307 
G01 X52.4257 Y5.9973 
G01 X52.4431 Y5.9553 
G01 X52.4753 Y5.9231 
G01 X52.5173 Y5.9057 
G01 X52.9007 Y5.9057 
G01 X52.9007 Y5.8803 
G01 X52.5216 Y5.8803 
G00 Z2.5400 
G00 X54.2797 Y6.0016 
G01 Z-0.1000 F254.00 
G01 X54.2702 Y5.9661 F508.00 
G01 X54.2518 Y5.9342 
G01 X54.2258 Y5.9082 
G01 X54.1939 Y5.8898 
G01 X54.1584 Y5.8803 
G01 X53.7793 Y5.8803 
G01 X53.7793 Y5.9057 
G01 X54.1627 Y5.9057 
G01 X54.2047 Y5.9231 
G01 X54.2369 Y5.9553 
G01 X54.2543 Y5.9973 
G01 X54.2543 Y6.2307 
G01 X54.2797 Y6.2307 
G01 X54.2797 Y6.0016 
G00 Z2.5400 
G00 X55.0223 Y16.9612 
G01 Z-0.1000 F254.00 
G01 X54.9181 Y17.1172 F508.00 
G01 X54.7854 Y17.2499 
G01 X54.6294 Y17.3541 
G01 X54.4560 Y17.4259 
G01 X54.2720 Y17.4625 
G01 X53.7337 Y17.4625 
G01 X53.7337 Y17.4879 
G01 X54.2552 Y17.4879 
G01 X54.4072 Y17.4638 
G01 X54.5536 Y17.4163 
G01 X54.6907 Y17.3464 
G01 X54.8153 Y17.2559 
G01 X54.9241 Y17.1471 
G01 X55.0146 Y17.0225 
G01 X55.0751 Y16.9037 
G01 X55.0461 Y16.9037 
G01 X55.0223 Y16.9612 
G00 Z2.5400 
G00 X52.4080 Y17.4625 
G01 Z-0.1000 F254.00 
G01 X52.2240 Y17.4259 F508.00 
G01 X52.0506 Y17.3541 
G01 X51.8946 Y17.2499 
G01 X51.7619 Y17.1172 
G01 X51.6577 Y16.9612 
G01 X51.6339 Y16.9037 
G01 X51.6049 Y16.9037 
G01 X51.6654 Y17.0225 
G01 X51.7559 Y17.1471 
G01 X51.8647 Y17.2559 
G01 X51.9893 Y17.3464 
G01 X52.1264 Y17.4163 
G01 X52.2728 Y17.4638 
G01 X52.4248 Y17.4879 
G01 X52.9463 Y17.4879 
G01 X52.9463 Y17.4625 
G01 X52.4080 Y17.4625 
G00 Z2.5400 
G00 X55.8021 Y18.4248 
G01 Z-0.1000 F254.00 
G01 X55.7648 Y18.3988 F508.00 
G01 X55.7255 Y18.3760 
G01 X55.6842 Y18.3568 
G01 X55.6415 Y18.3413 
G01 X55.5976 Y18.3295 
G01 X55.5528 Y18.3216 
G01 X55.5075 Y18.3176 
G01 X49.9306 Y18.3176 
G01 X49.8853 Y18.3216 
G01 X49.8405 Y18.3295 
G01 X49.7966 Y18.3413 
G01 X49.7539 Y18.3568 
G01 X49.7127 Y18.3760 
G01 X49.6733 Y18.3988 
G01 X49.6361 Y18.4248 
G01 X49.6012 Y18.4541 
G01 X49.5691 Y18.4862 
G01 X49.5398 Y18.5211 
G01 X49.5138 Y18.5583 
G01 X49.4910 Y18.5977 
G01 X49.4718 Y18.6389 
G01 X49.4563 Y18.6816 
G01 X49.4445 Y18.7255 
G01 X49.4366 Y18.7703 
G01 X49.4326 Y18.8156 
G01 X49.4326 Y23.0944 
G01 X49.4366 Y23.1397 
G01 X49.4445 Y23.1845 
G01 X49.4563 Y23.2284 
G01 X49.4718 Y23.2711 
G01 X49.4910 Y23.3123 
G01 X49.5138 Y23.3517 
G01 X49.5398 Y23.3889 
G01 X49.5691 Y23.4238 
G01 X49.6012 Y23.4559 
G01 X49.6361 Y23.4852 
G01 X49.6733 Y23.5112 
G01 X49.7127 Y23.5340 
G01 X49.7539 Y23.5532 
G01 X49.7966 Y23.5687 
G01 X49.8405 Y23.5805 
G01 X49.8853 Y23.5884 
G01 X49.9306 Y23.5924 
G01 X55.5075 Y23.5924 
G01 X55.5528 Y23.5884 
G01 X55.5976 Y23.5805 
G01 X55.6415 Y23.5687 
G01 X55.6842 Y23.5532 
G01 X55.7255 Y23.5340 
G01 X55.7648 Y23.5112 
G01 X55.8021 Y23.4852 
G01 X55.8369 Y23.4559 
G01 X55.8690 Y23.4238 
G01 X55.8983 Y23.3889 
G01 X55.9244 Y23.3517 
G01 X55.9471 Y23.3123 
G01 X55.9663 Y23.2711 
G01 X55.9819 Y23.2284 
G01 X55.9936 Y23.1845 
G01 X56.0015 Y23.1397 
G01 X56.0055 Y23.0944 
G01 X56.0055 Y18.8156 
G01 X56.0015 Y18.7703 
G01 X55.9936 Y18.7255 
G01 X55.9819 Y18.6816 
G01 X55.9663 Y18.6389 
G01 X55.9471 Y18.5977 
G01 X55.9244 Y18.5583 
G01 X55.8983 Y18.5211 
G01 X55.8690 Y18.4862 
G01 X55.8369 Y18.4541 
G01 X55.8021 Y18.4248 
G00 Z2.5400 
G00 X55.5991 Y18.8233 
G01 Z-0.1000 F254.00 
G01 X55.5991 Y23.0867 F508.00 
G01 X55.5913 Y23.1158 
G01 X55.5763 Y23.1418 
G01 X55.5550 Y23.1631 
G01 X55.5289 Y23.1782 
G01 X55.4998 Y23.1860 
G01 X49.9383 Y23.1860 
G01 X49.9092 Y23.1782 
G01 X49.8832 Y23.1631 
G01 X49.8619 Y23.1418 
G01 X49.8468 Y23.1158 
G01 X49.8390 Y23.0867 
G01 X49.8390 Y18.8233 
G01 X49.8468 Y18.7942 
G01 X49.8619 Y18.7682 
G01 X49.8832 Y18.7469 
G01 X49.9092 Y18.7318 
G01 X49.9383 Y18.7240 
G01 X55.4998 Y18.7240 
G01 X55.5289 Y18.7318 
G01 X55.5550 Y18.7469 
G01 X55.5763 Y18.7682 
G01 X55.5913 Y18.7942 
G01 X55.5991 Y18.8233 
G00 Z2.5400 
G00 X31.8877 Y9.3343 
G01 Z-0.1000 F254.00 
G01 X31.5543 Y9.3343 F508.00 
G01 X31.5543 Y9.3597 
G01 X31.8834 Y9.3597 
G01 X31.9189 Y9.3502 
G01 X31.9508 Y9.3318 
G01 X31.9768 Y9.3058 
G01 X31.9952 Y9.2739 
G01 X32.0047 Y9.2384 
G01 X32.0047 Y9.0093 
G01 X31.9793 Y9.0093 
G01 X31.9793 Y9.2427 
G01 X31.9619 Y9.2847 
G01 X31.9297 Y9.3169 
G01 X31.8877 Y9.3343 
G00 Z2.5400 
G00 X30.3423 Y9.3343 
G01 Z-0.1000 F254.00 
G01 X30.3003 Y9.3169 F508.00 
G01 X30.2681 Y9.2847 
G01 X30.2507 Y9.2427 
G01 X30.2507 Y9.0093 
G01 X30.2253 Y9.0093 
G01 X30.2253 Y9.2384 
G01 X30.2348 Y9.2739 
G01 X30.2532 Y9.3058 
G01 X30.2792 Y9.3318 
G01 X30.3111 Y9.3502 
G01 X30.3466 Y9.3597 
G01 X30.6757 Y9.3597 
G01 X30.6757 Y9.3343 
G01 X30.3423 Y9.3343 
G00 Z2.5400 
G00 X41.0843 Y34.7873 
G01 Z-0.1000 F254.00 
G01 X41.0843 Y35.1207 F508.00 
G01 X41.1097 Y35.1207 
G01 X41.1097 Y34.7916 
G01 X41.1002 Y34.7561 
G01 X41.0818 Y34.7242 
G01 X41.0558 Y34.6982 
G01 X41.0239 Y34.6798 
G01 X40.9884 Y34.6703 
G01 X40.7593 Y34.6703 
G01 X40.7593 Y34.6957 
G01 X40.9927 Y34.6957 
G01 X41.0347 Y34.7131 
G01 X41.0669 Y34.7453 
G01 X41.0843 Y34.7873 
G00 Z2.5400 
G00 X41.0843 Y36.3327 
G01 Z-0.1000 F254.00 
G01 X41.0669 Y36.3747 F508.00 
G01 X41.0347 Y36.4069 
G01 X40.9927 Y36.4243 
G01 X40.7593 Y36.4243 
G01 X40.7593 Y36.4497 
G01 X40.9884 Y36.4497 
G01 X41.0239 Y36.4402 
G01 X41.0558 Y36.4218 
G01 X41.0818 Y36.3958 
G01 X41.1002 Y36.3639 
G01 X41.1097 Y36.3284 
G01 X41.1097 Y35.9993 
G01 X41.0843 Y35.9993 
G01 X41.0843 Y36.3327 
G00 Z2.5400 
G00 X21.5016 Y20.7899 
G01 Z-0.1000 F254.00 
G01 X21.3772 Y20.8096 F508.00 
G01 X21.2575 Y20.8485 
G01 X21.1452 Y20.9057 
G01 X21.0434 Y20.9797 
G01 X20.9543 Y21.0688 
G01 X20.8803 Y21.1706 
G01 X20.8284 Y21.2725 
G01 X20.8576 Y21.2725 
G01 X20.8781 Y21.2230 
G01 X20.9628 Y21.0962 
G01 X21.0708 Y20.9883 
G01 X21.1976 Y20.9035 
G01 X21.3386 Y20.8451 
G01 X21.4883 Y20.8153 
G01 X21.9075 Y20.8153 
G01 X21.9075 Y20.7899 
G01 X21.5016 Y20.7899 
G00 Z2.5400 
G00 X44.9875 Y1.1774 
G01 Z-0.1000 F254.00 
G01 X44.9875 Y1.2610 F508.00 
G01 X44.9659 Y1.3417 
G01 X44.9241 Y1.4141 
G01 X44.8650 Y1.4733 
G01 X44.4347 Y1.9036 
G01 X44.3755 Y1.9627 
G01 X44.3302 Y1.9888 
G01 X44.3031 Y2.0045 
G01 X44.2224 Y2.0261 
G01 X44.1388 Y2.0261 
G01 X44.0580 Y2.0045 
G01 X43.9856 Y1.9627 
G01 X43.5851 Y1.5621 
G01 X43.5443 Y1.5621 
G01 X43.5443 Y1.5875 
G01 X43.5745 Y1.5875 
G01 X44.1325 Y2.1455 
G01 X44.1325 Y2.9345 
G01 X43.5745 Y3.4925 
G01 X43.5443 Y3.4925 
G01 X43.5443 Y3.5179 
G01 X43.5851 Y3.5179 
G01 X43.9856 Y3.1173 
G01 X44.0559 Y3.0768 
G01 X44.1388 Y3.0539 
G01 X44.2224 Y3.0539 
G01 X44.3031 Y3.0755 
G01 X44.3291 Y3.0905 
G01 X44.3755 Y3.1173 
G01 X44.4347 Y3.1764 
G01 X45.1571 Y3.8989 
G01 X46.2829 Y3.8989 
G01 X47.0789 Y3.1029 
G01 X47.0789 Y1.9771 
G01 X46.5159 Y1.4141 
G01 X46.4741 Y1.3417 
G01 X46.4525 Y1.2610 
G01 X46.4525 Y1.1774 
G01 X46.4583 Y1.1557 
G01 X44.9817 Y1.1557 
G01 X44.9875 Y1.1774 
G00 Z2.5400 
G00 X46.6725 Y2.1455 
G01 Z-0.1000 F254.00 
G01 X46.6725 Y2.9345 F508.00 
G01 X46.1145 Y3.4925 
G01 X45.3255 Y3.4925 
G01 X44.7675 Y2.9345 
G01 X44.7675 Y2.1455 
G01 X45.3255 Y1.5875 
G01 X46.1145 Y1.5875 
G01 X46.6725 Y2.1455 
G00 Z2.5400 
G00 X18.5034 Y42.7101 
G01 Z-0.1000 F254.00 
G01 X18.6278 Y42.6904 F508.00 
G01 X18.7475 Y42.6515 
G01 X18.8597 Y42.5943 
G01 X18.9616 Y42.5203 
G01 X19.0507 Y42.4312 
G01 X19.1247 Y42.3293 
G01 X19.1766 Y42.2275 
G01 X19.1474 Y42.2275 
G01 X19.1269 Y42.2770 
G01 X19.0421 Y42.4038 
G01 X18.9342 Y42.5117 
G01 X18.8074 Y42.5965 
G01 X18.6664 Y42.6549 
G01 X18.5167 Y42.6847 
G01 X18.0975 Y42.6847 
G01 X18.0975 Y42.7101 
G01 X18.5034 Y42.7101 
G00 Z2.5400 
G00 X31.2293 Y46.8811 
G01 Z-0.1000 F254.00 
G01 X31.2293 Y47.0989 F508.00 
G01 X31.1952 Y47.3142 
G01 X31.1279 Y47.5214 
G01 X31.0290 Y47.7155 
G01 X30.9009 Y47.8918 
G01 X30.7468 Y48.0459 
G01 X30.5705 Y48.1740 
G01 X30.3764 Y48.2729 
G01 X30.1692 Y48.3402 
G01 X29.9539 Y48.3743 
G01 X29.7361 Y48.3743 
G01 X29.5208 Y48.3402 
G01 X29.3136 Y48.2729 
G01 X29.1195 Y48.1740 
G01 X28.9432 Y48.0459 
G01 X28.7891 Y47.8918 
G01 X28.6610 Y47.7155 
G01 X28.5621 Y47.5214 
G01 X28.4948 Y47.3142 
G01 X28.4607 Y47.0989 
G01 X28.4607 Y46.8811 
G01 X28.4948 Y46.6658 
G01 X28.5621 Y46.4586 
G01 X28.6610 Y46.2645 
G01 X28.7891 Y46.0882 
G01 X28.9432 Y45.9341 
G01 X29.1195 Y45.8060 
G01 X29.3136 Y45.7071 
G01 X29.3243 Y45.7036 
G01 X29.3243 Y42.1393 
G01 X29.1748 Y42.1393 
G01 X29.1328 Y42.1219 
G01 X29.1006 Y42.0897 
G01 X29.0832 Y42.0477 
G01 X29.0832 Y40.5023 
G01 X29.1006 Y40.4603 
G01 X29.1328 Y40.4281 
G01 X29.1748 Y40.4107 
G01 X29.3243 Y40.4107 
G01 X29.3243 Y40.1447 
G01 X29.1083 Y40.1447 
G01 X28.9586 Y40.1149 
G01 X28.8176 Y40.0565 
G01 X28.6908 Y39.9717 
G01 X28.5829 Y39.8638 
G01 X28.4981 Y39.7370 
G01 X28.4397 Y39.5960 
G01 X28.4099 Y39.4463 
G01 X28.4099 Y39.2937 
G01 X28.4397 Y39.1440 
G01 X28.4981 Y39.0030 
G01 X28.5829 Y38.8762 
G01 X28.6908 Y38.7683 
G01 X28.8176 Y38.6835 
G01 X28.9586 Y38.6251 
G01 X29.1083 Y38.5953 
G01 X30.5183 Y38.5953 
G01 X32.4993 Y36.6143 
G01 X32.4993 Y36.1264 
G01 X32.5348 Y35.9940 
G01 X32.6033 Y35.8753 
G01 X33.2383 Y35.2403 
G01 X33.3353 Y35.1433 
G01 X33.4203 Y35.0943 
G01 X33.4823 Y35.0014 
G01 X33.6044 Y34.8793 
G01 X33.7479 Y34.7834 
G01 X33.9074 Y34.7174 
G01 X34.0767 Y34.6837 
G01 X35.7733 Y34.6837 
G01 X35.9426 Y34.7174 
G01 X36.1021 Y34.7834 
G01 X36.2456 Y34.8793 
G01 X36.3677 Y35.0014 
G01 X36.3930 Y35.0393 
G01 X37.6557 Y35.0393 
G01 X37.6557 Y34.7873 
G01 X37.6731 Y34.7453 
G01 X37.7053 Y34.7131 
G01 X37.7473 Y34.6957 
G01 X39.0927 Y34.6957 
G01 X39.1347 Y34.7131 
G01 X39.1669 Y34.7453 
G01 X39.1843 Y34.7873 
G01 X39.1843 Y36.3327 
G01 X39.1669 Y36.3747 
G01 X39.1347 Y36.4069 
G01 X39.0927 Y36.4243 
G01 X37.7473 Y36.4243 
G01 X37.7053 Y36.4069 
G01 X37.6731 Y36.3747 
G01 X37.6557 Y36.3327 
G01 X37.6557 Y36.0807 
G01 X36.3930 Y36.0807 
G01 X36.3677 Y36.1186 
G01 X36.2456 Y36.2407 
G01 X36.1021 Y36.3366 
G01 X35.9426 Y36.4026 
G01 X35.7733 Y36.4363 
G01 X34.0767 Y36.4363 
G01 X33.9074 Y36.4026 
G01 X33.7479 Y36.3366 
G01 X33.6681 Y36.2833 
G01 X33.5407 Y36.4107 
G01 X33.5407 Y36.8986 
G01 X33.5052 Y37.0310 
G01 X33.4367 Y37.1497 
G01 X33.3397 Y37.2467 
G01 X31.2801 Y39.3063 
G01 X31.2801 Y39.4463 
G01 X31.2503 Y39.5960 
G01 X31.1919 Y39.7370 
G01 X31.1071 Y39.8638 
G01 X30.9992 Y39.9717 
G01 X30.8724 Y40.0565 
G01 X30.7314 Y40.1149 
G01 X30.5817 Y40.1447 
G01 X30.3682 Y40.1447 
G01 X30.3682 Y40.4107 
G01 X30.5202 Y40.4107 
G01 X30.5622 Y40.4281 
G01 X30.5944 Y40.4603 
G01 X30.6118 Y40.5023 
G01 X30.6118 Y42.0477 
G01 X30.5944 Y42.0897 
G01 X30.5622 Y42.1219 
G01 X30.5202 Y42.1393 
G01 X30.3657 Y42.1393 
G01 X30.3657 Y45.7036 
G01 X30.3764 Y45.7071 
G01 X30.5705 Y45.8060 
G01 X30.7468 Y45.9341 
G01 X30.9009 Y46.0882 
G01 X31.0290 Y46.2645 
G01 X31.1279 Y46.4586 
G01 X31.1952 Y46.6658 
G01 X31.2293 Y46.8811 
G00 Z2.5400 
G00 X23.3978 Y40.4332 
G01 Z-0.1000 F254.00 
G01 X23.4181 Y40.4278 F508.00 
G01 X23.4375 Y40.4197 
G01 X23.4583 Y40.4170 
G01 X23.4786 Y40.4115 
G01 X23.4996 Y40.4115 
G01 X23.5204 Y40.4088 
G01 X23.5412 Y40.4115 
G01 X23.5622 Y40.4115 
G01 X23.5825 Y40.4170 
G01 X23.6033 Y40.4197 
G01 X23.6227 Y40.4278 
G01 X23.6430 Y40.4332 
G01 X23.6611 Y40.4437 
G01 X23.6805 Y40.4517 
G01 X23.6972 Y40.4645 
G01 X23.7153 Y40.4750 
G01 X23.7302 Y40.4898 
G01 X23.7468 Y40.5026 
G01 X23.7596 Y40.5193 
G01 X23.7745 Y40.5341 
G01 X23.7850 Y40.5523 
G01 X23.7977 Y40.5689 
G01 X23.8058 Y40.5883 
G01 X23.8163 Y40.6065 
G01 X23.8217 Y40.6268 
G01 X23.8297 Y40.6462 
G01 X23.8325 Y40.6670 
G01 X23.8379 Y40.6872 
G01 X23.8379 Y40.7082 
G01 X23.8406 Y40.7290 
G01 X23.8379 Y40.7499 
G01 X23.8379 Y43.3413 
G01 X23.8163 Y43.4220 
G01 X23.7745 Y43.4944 
G01 X23.7153 Y43.5535 
G01 X23.1744 Y44.0945 
G01 X23.1020 Y44.1363 
G01 X23.0213 Y44.1579 
G01 X20.1356 Y44.1579 
G01 X19.7948 Y44.2990 
G01 X18.0100 Y46.0838 
G01 X17.8689 Y46.4246 
G01 X17.8689 Y49.7156 
G01 X17.8473 Y49.7964 
G01 X17.8055 Y49.8688 
G01 X17.7463 Y49.9279 
G01 X17.4371 Y50.2371 
G01 X17.4371 Y51.3629 
G01 X18.0001 Y51.9259 
G01 X18.0419 Y51.9982 
G01 X18.0635 Y52.0790 
G01 X18.0635 Y52.1626 
G01 X18.0419 Y52.2433 
G01 X18.0001 Y52.3157 
G01 X17.9410 Y52.3749 
G01 X17.8686 Y52.4167 
G01 X17.7878 Y52.4383 
G01 X1.1774 Y52.4383 
G01 X1.0966 Y52.4167 
G01 X1.0242 Y52.3749 
G01 X0.9651 Y52.3157 
G01 X0.9233 Y52.2433 
G01 X0.9017 Y52.1626 
G01 X0.9017 Y1.1774 
G01 X0.9233 Y1.0966 
G01 X0.9651 Y1.0242 
G01 X1.0242 Y0.9651 
G01 X1.0966 Y0.9233 
G01 X1.1774 Y0.9017 
G01 X26.3019 Y0.9017 
G01 X26.8883 Y0.3153 
G01 X26.9853 Y0.2183 
G01 X27.1040 Y0.1498 
G01 X27.2364 Y0.1143 
G01 X47.0586 Y0.1143 
G01 X47.1910 Y0.1498 
G01 X47.3097 Y0.2183 
G01 X47.8407 Y0.7493 
G01 X49.5986 Y0.7493 
G01 X49.7310 Y0.7848 
G01 X49.8497 Y0.8533 
G01 X49.9467 Y0.9503 
G01 X49.9693 Y0.9894 
G01 X50.0041 Y1.0242 
G01 X50.0453 Y1.0957 
G01 X50.0675 Y1.1774 
G01 X50.0675 Y1.2610 
G01 X50.0507 Y1.3238 
G01 X50.0507 Y1.3386 
G01 X50.0152 Y1.4710 
G01 X49.9467 Y1.5897 
G01 X49.8497 Y1.6867 
G01 X49.7310 Y1.7552 
G01 X49.6381 Y1.7801 
G01 X49.4411 Y1.9771 
G01 X49.4411 Y3.1029 
G01 X50.2371 Y3.8989 
G01 X51.3629 Y3.8989 
G01 X51.8169 Y3.4449 
G01 X51.8751 Y3.3867 
G01 X51.9204 Y3.3606 
G01 X51.9474 Y3.3449 
G01 X52.0282 Y3.3233 
G01 X52.1118 Y3.3233 
G01 X52.1926 Y3.3449 
G01 X52.2649 Y3.3867 
G01 X52.3241 Y3.4458 
G01 X52.7771 Y3.8989 
G01 X53.9029 Y3.8989 
G01 X54.4150 Y3.3867 
G01 X54.4874 Y3.3449 
G01 X54.5682 Y3.3233 
G01 X54.6518 Y3.3233 
G01 X54.7325 Y3.3449 
G01 X54.7585 Y3.3599 
G01 X54.8049 Y3.3867 
G01 X54.8641 Y3.4458 
G01 X55.3171 Y3.8989 
G01 X56.4429 Y3.8989 
G01 X56.9550 Y3.3867 
G01 X57.0274 Y3.3449 
G01 X57.1082 Y3.3233 
G01 X57.1918 Y3.3233 
G01 X57.2725 Y3.3449 
G01 X57.2985 Y3.3599 
G01 X57.3449 Y3.3867 
G01 X57.4041 Y3.4458 
G01 X57.8571 Y3.8989 
G01 X58.9829 Y3.8989 
G01 X59.4950 Y3.3867 
G01 X59.5674 Y3.3449 
G01 X59.6482 Y3.3233 
G01 X59.7318 Y3.3233 
G01 X59.8125 Y3.3449 
G01 X59.8385 Y3.3599 
G01 X59.8849 Y3.3867 
G01 X59.9441 Y3.4458 
G01 X60.3971 Y3.8989 
G01 X61.5229 Y3.8989 
G01 X62.0350 Y3.3867 
G01 X62.1074 Y3.3449 
G01 X62.1882 Y3.3233 
G01 X62.2718 Y3.3233 
G01 X62.3525 Y3.3449 
G01 X62.3785 Y3.3599 
G01 X62.4249 Y3.3867 
G01 X62.4841 Y3.4458 
G01 X62.9371 Y3.8989 
G01 X64.0629 Y3.8989 
G01 X64.8983 Y3.0634 
G01 X64.9707 Y3.0216 
G01 X65.0515 Y3.0000 
G01 X65.1351 Y3.0000 
G01 X65.2158 Y3.0216 
G01 X65.2882 Y3.0634 
G01 X65.3473 Y3.1225 
G01 X67.6149 Y5.3901 
G01 X67.6567 Y5.4625 
G01 X67.6783 Y5.5432 
G01 X67.6783 Y10.7092 
G01 X67.6567 Y10.7899 
G01 X67.6149 Y10.8623 
G01 X67.5557 Y10.9214 
G01 X67.4843 Y10.9627 
G01 X67.4026 Y10.9849 
G01 X67.3190 Y10.9849 
G01 X67.2382 Y10.9632 
G01 X67.1659 Y10.9214 
G01 X67.1067 Y10.8623 
G01 X66.0996 Y9.8552 
G01 X65.6749 Y9.6793 
G01 X64.7545 Y9.6793 
G01 X64.7337 Y9.6820 
G01 X64.7129 Y9.6793 
G01 X64.6919 Y9.6793 
G01 X64.6716 Y9.6739 
G01 X64.6508 Y9.6711 
G01 X64.6314 Y9.6631 
G01 X64.6112 Y9.6577 
G01 X64.5930 Y9.6472 
G01 X64.0420 Y9.4189 
G01 X61.6880 Y9.4189 
G01 X61.1675 Y9.6345 
G01 X60.7692 Y10.0329 
G01 X60.5536 Y10.5533 
G01 X60.5536 Y11.1167 
G01 X60.7692 Y11.6371 
G01 X61.1675 Y12.0355 
G01 X61.6880 Y12.2510 
G01 X64.0420 Y12.2510 
G01 X64.5930 Y12.0228 
G01 X64.6112 Y12.0123 
G01 X64.6314 Y12.0069 
G01 X64.6508 Y11.9989 
G01 X64.6716 Y11.9961 
G01 X64.6919 Y11.9907 
G01 X64.7129 Y11.9907 
G01 X64.7337 Y11.9880 
G01 X64.7545 Y11.9907 
G01 X64.8766 Y11.9907 
G01 X64.9573 Y12.0123 
G01 X65.0297 Y12.0541 
G01 X65.0888 Y12.1132 
G01 X65.4559 Y12.4803 
G01 X65.4977 Y12.5527 
G01 X65.5193 Y12.6334 
G01 X65.5193 Y14.8666 
G01 X65.4977 Y14.9474 
G01 X65.4559 Y15.0198 
G01 X65.3967 Y15.0789 
G01 X65.3514 Y15.1051 
G01 X65.3244 Y15.1207 
G01 X65.2436 Y15.1423 
G01 X65.1600 Y15.1423 
G01 X65.0792 Y15.1207 
G01 X65.0068 Y15.0789 
G01 X64.5625 Y14.6345 
G01 X64.0420 Y14.4189 
G01 X61.6880 Y14.4189 
G01 X61.1370 Y14.6472 
G01 X61.1188 Y14.6577 
G01 X61.0986 Y14.6631 
G01 X61.0792 Y14.6711 
G01 X61.0584 Y14.6739 
G01 X61.0381 Y14.6793 
G01 X61.0171 Y14.6793 
G01 X60.9963 Y14.6820 
G01 X60.9755 Y14.6793 
G01 X60.2184 Y14.6793 
G01 X60.1377 Y14.6577 
G01 X60.0653 Y14.6159 
G01 X60.0062 Y14.5567 
G01 X58.7799 Y13.3304 
G01 X58.4397 Y12.9902 
G01 X58.0149 Y12.8143 
G01 X55.4404 Y12.8143 
G01 X55.3596 Y12.7927 
G01 X55.2872 Y12.7509 
G01 X55.2290 Y12.6927 
G01 X55.1984 Y12.6403 
G01 X55.1863 Y12.6194 
G01 X55.1765 Y12.5828 
G01 X55.1647 Y12.5386 
G01 X55.1647 Y12.4550 
G01 X55.1863 Y12.3742 
G01 X55.2281 Y12.3018 
G01 X55.3302 Y12.1998 
G01 X55.5371 Y11.7003 
G01 X55.5371 Y11.1597 
G01 X55.3302 Y10.6602 
G01 X54.9480 Y10.2780 
G01 X54.6075 Y10.1369 
G01 X54.5872 Y10.1315 
G01 X54.5690 Y10.1210 
G01 X54.5496 Y10.1130 
G01 X54.5330 Y10.1002 
G01 X54.5148 Y10.0897 
G01 X54.5000 Y10.0749 
G01 X54.4833 Y10.0621 
G01 X54.4705 Y10.0454 
G01 X54.4557 Y10.0306 
G01 X54.4452 Y10.0124 
G01 X54.4324 Y9.9958 
G01 X54.4244 Y9.9764 
G01 X54.4139 Y9.9582 
G01 X54.4084 Y9.9379 
G01 X54.4004 Y9.9185 
G01 X54.3977 Y9.8977 
G01 X54.3922 Y9.8774 
G01 X54.3922 Y9.8565 
G01 X54.3895 Y9.8357 
G01 X54.3922 Y9.8148 
G01 X54.3922 Y9.7938 
G01 X54.3977 Y9.7736 
G01 X54.4004 Y9.7528 
G01 X54.4084 Y9.7334 
G01 X54.4139 Y9.7131 
G01 X54.4244 Y9.6949 
G01 X54.4324 Y9.6755 
G01 X54.4452 Y9.6589 
G01 X54.4557 Y9.6407 
G01 X54.4705 Y9.6259 
G01 X54.4833 Y9.6092 
G01 X54.5000 Y9.5964 
G01 X54.5814 Y9.5150 
G01 X54.6607 Y9.3236 
G01 X54.6607 Y7.8164 
G01 X54.5814 Y7.6250 
G01 X54.4317 Y7.4753 
G01 X54.4204 Y7.4667 
G01 X54.4022 Y7.4562 
G01 X54.3874 Y7.4413 
G01 X54.3708 Y7.4286 
G01 X54.3580 Y7.4119 
G01 X54.3431 Y7.3971 
G01 X54.3326 Y7.3789 
G01 X54.3199 Y7.3622 
G01 X54.3118 Y7.3429 
G01 X54.3013 Y7.3247 
G01 X54.2959 Y7.3044 
G01 X54.2879 Y7.2850 
G01 X54.2851 Y7.2642 
G01 X54.2797 Y7.2439 
G01 X54.2797 Y7.2229 
G01 X54.2770 Y7.2021 
G01 X54.2797 Y7.1813 
G01 X54.2797 Y7.1093 
G01 X54.2543 Y7.1093 
G01 X54.2543 Y7.3427 
G01 X54.2369 Y7.3847 
G01 X54.2047 Y7.4169 
G01 X54.1627 Y7.4343 
G01 X52.5173 Y7.4343 
G01 X52.4753 Y7.4169 
G01 X52.4431 Y7.3847 
G01 X52.4257 Y7.3427 
G01 X52.4257 Y7.1093 
G01 X52.4003 Y7.1093 
G01 X52.4003 Y7.1813 
G01 X52.4030 Y7.2021 
G01 X52.4003 Y7.2229 
G01 X52.4003 Y7.2439 
G01 X52.3949 Y7.2642 
G01 X52.3921 Y7.2850 
G01 X52.3841 Y7.3044 
G01 X52.3787 Y7.3247 
G01 X52.3682 Y7.3429 
G01 X52.3601 Y7.3622 
G01 X52.3474 Y7.3789 
G01 X52.3369 Y7.3971 
G01 X52.3220 Y7.4119 
G01 X52.3092 Y7.4286 
G01 X52.2926 Y7.4413 
G01 X52.2777 Y7.4562 
G01 X52.2596 Y7.4667 
G01 X52.2483 Y7.4753 
G01 X52.0986 Y7.6250 
G01 X52.0193 Y7.8164 
G01 X52.0193 Y9.3236 
G01 X52.0986 Y9.5150 
G01 X52.1800 Y9.5964 
G01 X52.1967 Y9.6092 
G01 X52.2095 Y9.6259 
G01 X52.2243 Y9.6407 
G01 X52.2348 Y9.6589 
G01 X52.2476 Y9.6755 
G01 X52.2556 Y9.6949 
G01 X52.2661 Y9.7131 
G01 X52.2716 Y9.7334 
G01 X52.2796 Y9.7528 
G01 X52.2823 Y9.7736 
G01 X52.2878 Y9.7938 
G01 X52.2878 Y9.8148 
G01 X52.2905 Y9.8357 
G01 X52.2878 Y9.8565 
G01 X52.2878 Y9.8774 
G01 X52.2823 Y9.8977 
G01 X52.2796 Y9.9185 
G01 X52.2716 Y9.9379 
G01 X52.2661 Y9.9582 
G01 X52.2556 Y9.9764 
G01 X52.2476 Y9.9958 
G01 X52.2348 Y10.0124 
G01 X52.2243 Y10.0306 
G01 X52.2095 Y10.0454 
G01 X52.1967 Y10.0621 
G01 X52.1800 Y10.0749 
G01 X52.1652 Y10.0897 
G01 X52.1470 Y10.1002 
G01 X52.1304 Y10.1130 
G01 X52.1110 Y10.1210 
G01 X52.0928 Y10.1315 
G01 X52.0725 Y10.1369 
G01 X51.7320 Y10.2780 
G01 X51.3498 Y10.6602 
G01 X51.1429 Y11.1597 
G01 X51.1429 Y11.7003 
G01 X51.3498 Y12.1998 
G01 X51.6551 Y12.5050 
G01 X51.6969 Y12.5774 
G01 X51.7185 Y12.6582 
G01 X51.7185 Y12.7418 
G01 X51.6969 Y12.8225 
G01 X51.6819 Y12.8485 
G01 X51.6551 Y12.8949 
G01 X51.5960 Y12.9541 
G01 X51.3498 Y13.2002 
G01 X51.1429 Y13.6997 
G01 X51.1429 Y14.2403 
G01 X51.3498 Y14.7398 
G01 X51.7320 Y15.1220 
G01 X51.8209 Y15.1588 
G01 X51.8251 Y15.1595 
G01 X51.8595 Y15.1748 
G01 X51.8942 Y15.1892 
G01 X51.8976 Y15.1918 
G01 X51.9015 Y15.1935 
G01 X51.9307 Y15.2172 
G01 X51.9606 Y15.2401 
G01 X51.9631 Y15.2434 
G01 X51.9664 Y15.2461 
G01 X51.9886 Y15.2766 
G01 X52.0115 Y15.3064 
G01 X52.0131 Y15.3103 
G01 X52.0156 Y15.3137 
G01 X52.0291 Y15.3489 
G01 X52.0435 Y15.3837 
G01 X52.0440 Y15.3878 
G01 X52.0455 Y15.3918 
G01 X52.0495 Y15.4292 
G01 X52.0544 Y15.4665 
G01 X52.0538 Y15.4707 
G01 X52.0543 Y15.4749 
G01 X52.0484 Y15.5122 
G01 X52.0435 Y15.5494 
G01 X52.0418 Y15.5533 
G01 X52.0412 Y15.5575 
G01 X52.0258 Y15.5919 
G01 X52.0115 Y15.6267 
G01 X52.0089 Y15.6300 
G01 X52.0072 Y15.6339 
G01 X51.9835 Y15.6632 
G01 X51.9606 Y15.6930 
G01 X51.9572 Y15.6955 
G01 X51.9546 Y15.6988 
G01 X51.9240 Y15.7210 
G01 X51.8943 Y15.7439 
G01 X51.8904 Y15.7455 
G01 X51.8647 Y15.7641 
G01 X51.7559 Y15.8729 
G01 X51.6654 Y15.9975 
G01 X51.6049 Y16.1163 
G01 X51.6339 Y16.1163 
G01 X51.6577 Y16.0588 
G01 X51.7619 Y15.9028 
G01 X51.8946 Y15.7701 
G01 X52.0506 Y15.6659 
G01 X52.2240 Y15.5941 
G01 X52.4080 Y15.5575 
G01 X54.2720 Y15.5575 
G01 X54.4560 Y15.5941 
G01 X54.6294 Y15.6659 
G01 X54.7854 Y15.7701 
G01 X54.9181 Y15.9028 
G01 X55.0223 Y16.0588 
G01 X55.0461 Y16.1163 
G01 X55.0751 Y16.1163 
G01 X55.0146 Y15.9975 
G01 X54.9241 Y15.8729 
G01 X54.8153 Y15.7641 
G01 X54.7896 Y15.7455 
G01 X54.7857 Y15.7439 
G01 X54.7559 Y15.7210 
G01 X54.7254 Y15.6988 
G01 X54.7228 Y15.6955 
G01 X54.7194 Y15.6930 
G01 X54.6965 Y15.6631 
G01 X54.6728 Y15.6339 
G01 X54.6711 Y15.6300 
G01 X54.6685 Y15.6267 
G01 X54.6541 Y15.5919 
G01 X54.6388 Y15.5575 
G01 X54.6381 Y15.5533 
G01 X54.6365 Y15.5494 
G01 X54.6316 Y15.5122 
G01 X54.6257 Y15.4749 
G01 X54.6262 Y15.4707 
G01 X54.6256 Y15.4665 
G01 X54.6305 Y15.4292 
G01 X54.6345 Y15.3918 
G01 X54.6360 Y15.3878 
G01 X54.6365 Y15.3837 
G01 X54.6509 Y15.3489 
G01 X54.6644 Y15.3137 
G01 X54.6669 Y15.3103 
G01 X54.6685 Y15.3064 
G01 X54.6914 Y15.2766 
G01 X54.7136 Y15.2461 
G01 X54.7169 Y15.2434 
G01 X54.7194 Y15.2401 
G01 X54.7493 Y15.2172 
G01 X54.7785 Y15.1935 
G01 X54.7824 Y15.1918 
G01 X54.7857 Y15.1892 
G01 X54.8205 Y15.1748 
G01 X54.8549 Y15.1595 
G01 X54.8591 Y15.1588 
G01 X54.8797 Y15.1473 
G01 X54.9000 Y15.1419 
G01 X54.9193 Y15.1339 
G01 X54.9401 Y15.1311 
G01 X54.9604 Y15.1257 
G01 X54.9814 Y15.1257 
G01 X55.0022 Y15.1230 
G01 X55.0230 Y15.1257 
G01 X57.2166 Y15.1257 
G01 X57.2973 Y15.1473 
G01 X57.3697 Y15.1891 
G01 X57.4288 Y15.2482 
G01 X58.9953 Y16.8148 
G01 X59.4201 Y16.9907 
G01 X60.9755 Y16.9907 
G01 X60.9963 Y16.9880 
G01 X61.0171 Y16.9907 
G01 X61.0381 Y16.9907 
G01 X61.0584 Y16.9961 
G01 X61.0792 Y16.9989 
G01 X61.0986 Y17.0069 
G01 X61.1188 Y17.0123 
G01 X61.1370 Y17.0228 
G01 X61.6880 Y17.2510 
G01 X64.0420 Y17.2510 
G01 X64.5625 Y17.0355 
G01 X65.0068 Y16.5911 
G01 X65.0792 Y16.5493 
G01 X65.1600 Y16.5277 
G01 X65.2436 Y16.5277 
G01 X65.3244 Y16.5493 
G01 X65.3503 Y16.5643 
G01 X65.3967 Y16.5911 
G01 X65.4559 Y16.6502 
G01 X65.4977 Y16.7226 
G01 X65.5193 Y16.8034 
G01 X65.5193 Y20.3866 
G01 X65.4977 Y20.4673 
G01 X65.4559 Y20.5397 
G01 X65.3967 Y20.5988 
G01 X64.9897 Y21.0059 
G01 X64.9173 Y21.0477 
G01 X64.8366 Y21.0693 
G01 X64.6580 Y21.0693 
G01 X64.6371 Y21.0720 
G01 X64.6163 Y21.0693 
G01 X64.5953 Y21.0693 
G01 X64.5751 Y21.0639 
G01 X64.5543 Y21.0611 
G01 X64.5349 Y21.0531 
G01 X64.5146 Y21.0477 
G01 X64.4964 Y21.0372 
G01 X64.0420 Y20.8489 
G01 X61.6880 Y20.8489 
G01 X61.1675 Y21.0645 
G01 X60.7692 Y21.4629 
G01 X60.5536 Y21.9833 
G01 X60.5536 Y22.5467 
G01 X60.7692 Y23.0671 
G01 X61.1675 Y23.4655 
G01 X61.6880 Y23.6810 
G01 X64.0420 Y23.6810 
G01 X64.5625 Y23.4655 
G01 X64.5838 Y23.4441 
G01 X64.6562 Y23.4023 
G01 X64.7369 Y23.3807 
G01 X64.7783 Y23.3807 
G01 X64.8205 Y23.3807 
G01 X65.6349 Y23.3807 
G01 X66.0597 Y23.2048 
G01 X66.3998 Y22.8646 
G01 X67.1659 Y22.0985 
G01 X67.2382 Y22.0568 
G01 X67.3190 Y22.0351 
G01 X67.4026 Y22.0351 
G01 X67.4834 Y22.0568 
G01 X67.5557 Y22.0985 
G01 X67.6149 Y22.1577 
G01 X67.6567 Y22.2301 
G01 X67.6783 Y22.3108 
G01 X67.6783 Y37.3828 
G01 X67.6567 Y37.4635 
G01 X67.6149 Y37.5359 
G01 X67.5557 Y37.5951 
G01 X65.5443 Y39.6065 
G01 X65.2756 Y39.8752 
G01 X65.1383 Y40.2066 
G01 X65.1383 Y49.7918 
G01 X65.1167 Y49.8726 
G01 X65.0749 Y49.9450 
G01 X65.0157 Y50.0041 
G01 X64.9443 Y50.0453 
G01 X64.8626 Y50.0675 
G01 X64.7790 Y50.0675 
G01 X64.6982 Y50.0459 
G01 X64.6258 Y50.0041 
G01 X64.5667 Y49.9450 
G01 X64.0629 Y49.4411 
G01 X62.9371 Y49.4411 
G01 X62.4831 Y49.8951 
G01 X62.4249 Y49.9533 
G01 X62.3796 Y49.9794 
G01 X62.3525 Y49.9951 
G01 X62.2718 Y50.0167 
G01 X62.1882 Y50.0167 
G01 X62.1074 Y49.9951 
G01 X62.0350 Y49.9533 
G01 X61.9759 Y49.8942 
G01 X61.5229 Y49.4411 
G01 X60.3971 Y49.4411 
G01 X59.9441 Y49.8942 
G01 X59.9049 Y49.9333 
G01 X59.8849 Y49.9533 
G01 X59.8344 Y49.9824 
G01 X59.8125 Y49.9951 
G01 X59.7568 Y50.0100 
G01 X59.7318 Y50.0167 
G01 X59.6904 Y50.0167 
G01 X59.6482 Y50.0167 
G01 X59.6000 Y50.0038 
G01 X59.5674 Y49.9951 
G01 X59.5008 Y49.9566 
G01 X59.4950 Y49.9533 
G01 X59.4531 Y49.9113 
G01 X59.4359 Y49.8942 
G01 X59.4313 Y49.8895 
G01 X59.4105 Y49.8688 
G01 X59.3807 Y49.8171 
G01 X59.3687 Y49.7964 
G01 X59.3535 Y49.7397 
G01 X59.3471 Y49.7156 
G01 X59.3471 Y49.6733 
G01 X59.3471 Y32.2006 
G01 X59.2060 Y31.8598 
G01 X58.9301 Y31.5839 
G01 X58.8709 Y31.5248 
G01 X52.8711 Y25.5249 
G01 X52.5952 Y25.2490 
G01 X52.2544 Y25.1079 
G01 X31.4320 Y25.1079 
G01 X31.4154 Y25.1105 
G01 X31.3904 Y25.1079 
G01 X31.3652 Y25.1079 
G01 X31.3490 Y25.1035 
G01 X31.3322 Y25.1018 
G01 X31.3088 Y25.0928 
G01 X31.2845 Y25.0863 
G01 X31.2699 Y25.0779 
G01 X31.2542 Y25.0718 
G01 X31.2338 Y25.0570 
G01 X31.2121 Y25.0445 
G01 X31.2002 Y25.0326 
G01 X31.1866 Y25.0227 
G01 X31.1707 Y25.0031 
G01 X31.1530 Y24.9853 
G01 X31.1446 Y24.9708 
G01 X31.1340 Y24.9577 
G01 X31.1237 Y24.9347 
G01 X31.1112 Y24.9130 
G01 X31.1068 Y24.8967 
G01 X31.1000 Y24.8813 
G01 X31.0960 Y24.8565 
G01 X31.0895 Y24.8322 
G01 X31.0895 Y24.8154 
G01 X31.0869 Y24.7988 
G01 X31.0895 Y24.7737 
G01 X31.0895 Y24.7486 
G01 X31.0939 Y24.7324 
G01 X31.0956 Y24.7156 
G01 X31.1046 Y24.6921 
G01 X31.1112 Y24.6678 
G01 X31.1196 Y24.6533 
G01 X31.1256 Y24.6376 
G01 X31.1404 Y24.6172 
G01 X31.1530 Y24.5954 
G01 X31.1648 Y24.5836 
G01 X31.1897 Y24.5493 
G01 X31.2416 Y24.4475 
G01 X31.2124 Y24.4475 
G01 X31.1919 Y24.4970 
G01 X31.1071 Y24.6238 
G01 X30.9992 Y24.7317 
G01 X30.8724 Y24.8165 
G01 X30.7314 Y24.8749 
G01 X30.5817 Y24.9047 
G01 X29.1083 Y24.9047 
G01 X28.9586 Y24.8749 
G01 X28.8176 Y24.8165 
G01 X28.6908 Y24.7317 
G01 X28.5829 Y24.6238 
G01 X28.4981 Y24.4970 
G01 X28.4397 Y24.3560 
G01 X28.4099 Y24.2063 
G01 X28.4099 Y24.0537 
G01 X28.4397 Y23.9040 
G01 X28.4981 Y23.7630 
G01 X28.5829 Y23.6362 
G01 X28.6908 Y23.5282 
G01 X28.8176 Y23.4435 
G01 X28.9586 Y23.3851 
G01 X29.1083 Y23.3553 
G01 X30.5817 Y23.3553 
G01 X30.7314 Y23.3851 
G01 X30.8724 Y23.4435 
G01 X30.9992 Y23.5282 
G01 X31.1071 Y23.6362 
G01 X31.1919 Y23.7630 
G01 X31.2124 Y23.8125 
G01 X31.2416 Y23.8125 
G01 X31.1897 Y23.7106 
G01 X31.1157 Y23.6088 
G01 X31.0266 Y23.5197 
G01 X30.9247 Y23.4457 
G01 X30.8125 Y23.3885 
G01 X30.7830 Y23.3789 
G01 X30.7705 Y23.3773 
G01 X30.7434 Y23.3661 
G01 X30.7155 Y23.3570 
G01 X30.7049 Y23.3501 
G01 X30.6932 Y23.3453 
G01 X30.6700 Y23.3274 
G01 X30.6454 Y23.3115 
G01 X30.6369 Y23.3021 
G01 X30.6269 Y23.2944 
G01 X30.6091 Y23.2711 
G01 X30.5894 Y23.2493 
G01 X30.5837 Y23.2381 
G01 X30.5760 Y23.2281 
G01 X30.5648 Y23.2010 
G01 X30.5515 Y23.1749 
G01 X30.5489 Y23.1625 
G01 X30.5440 Y23.1508 
G01 X30.5402 Y23.1218 
G01 X30.5341 Y23.0931 
G01 X30.5348 Y23.0805 
G01 X30.5331 Y23.0679 
G01 X30.5369 Y23.0388 
G01 X30.5385 Y23.0096 
G01 X30.5424 Y22.9976 
G01 X30.5440 Y22.9851 
G01 X30.5552 Y22.9580 
G01 X30.5643 Y22.9301 
G01 X30.5712 Y22.9195 
G01 X30.5760 Y22.9078 
G01 X30.5938 Y22.8846 
G01 X30.6098 Y22.8600 
G01 X30.6192 Y22.8515 
G01 X30.6269 Y22.8415 
G01 X30.6502 Y22.8237 
G01 X30.6720 Y22.8040 
G01 X30.6832 Y22.7983 
G01 X30.6932 Y22.7906 
G01 X30.7203 Y22.7794 
G01 X30.7464 Y22.7661 
G01 X30.7588 Y22.7635 
G01 X31.1744 Y22.5913 
G01 X31.5067 Y22.2590 
G01 X31.6865 Y21.8249 
G01 X31.6865 Y21.3551 
G01 X31.5067 Y20.9210 
G01 X31.2015 Y20.6158 
G01 X31.1597 Y20.5434 
G01 X31.1381 Y20.4627 
G01 X31.1381 Y20.3790 
G01 X31.1597 Y20.2983 
G01 X31.2015 Y20.2259 
G01 X31.2606 Y20.1668 
G01 X31.3631 Y20.0644 
G01 X31.6357 Y19.4062 
G01 X31.6357 Y18.6938 
G01 X31.3631 Y18.0356 
G01 X30.8594 Y17.5319 
G01 X30.2012 Y17.2593 
G01 X29.4888 Y17.2593 
G01 X29.3075 Y17.3344 
G01 X29.2969 Y17.3413 
G01 X29.2690 Y17.3503 
G01 X29.2419 Y17.3616 
G01 X29.2294 Y17.3632 
G01 X29.2174 Y17.3671 
G01 X29.1881 Y17.3686 
G01 X29.1591 Y17.3725 
G01 X29.1465 Y17.3708 
G01 X29.1339 Y17.3715 
G01 X29.1052 Y17.3654 
G01 X29.0762 Y17.3616 
G01 X29.0645 Y17.3567 
G01 X29.0521 Y17.3541 
G01 X29.0260 Y17.3408 
G01 X28.9989 Y17.3296 
G01 X28.9889 Y17.3219 
G01 X28.9777 Y17.3161 
G01 X28.9559 Y17.2965 
G01 X28.9326 Y17.2787 
G01 X28.9249 Y17.2687 
G01 X28.9155 Y17.2602 
G01 X28.8996 Y17.2356 
G01 X28.8817 Y17.2123 
G01 X28.8769 Y17.2007 
G01 X28.8700 Y17.1901 
G01 X28.8610 Y17.1622 
G01 X28.8497 Y17.1351 
G01 X28.8481 Y17.1226 
G01 X28.8442 Y17.1106 
G01 X28.8426 Y17.0813 
G01 X28.8388 Y17.0522 
G01 X28.8405 Y17.0397 
G01 X28.8398 Y17.0271 
G01 X28.8459 Y16.9984 
G01 X28.8497 Y16.9693 
G01 X28.8546 Y16.9577 
G01 X28.8572 Y16.9453 
G01 X28.8705 Y16.9192 
G01 X28.8817 Y16.8921 
G01 X28.8894 Y16.8821 
G01 X28.8913 Y16.8783 
G01 X28.8629 Y16.8783 
G01 X28.8436 Y16.9251 
G01 X28.7477 Y17.0686 
G01 X28.6256 Y17.1907 
G01 X28.4821 Y17.2866 
G01 X28.3226 Y17.3526 
G01 X28.1533 Y17.3863 
G01 X27.6733 Y17.3863 
G01 X27.6733 Y17.4117 
G01 X28.1316 Y17.4117 
G01 X28.1466 Y17.4077 
G01 X28.1634 Y17.4077 
G01 X28.1800 Y17.4050 
G01 X28.2050 Y17.4077 
G01 X28.2302 Y17.4077 
G01 X28.2464 Y17.4120 
G01 X28.2632 Y17.4138 
G01 X28.2866 Y17.4228 
G01 X28.3109 Y17.4293 
G01 X28.3255 Y17.4377 
G01 X28.3412 Y17.4437 
G01 X28.3615 Y17.4585 
G01 X28.3833 Y17.4711 
G01 X28.3952 Y17.4830 
G01 X28.4088 Y17.4929 
G01 X28.4246 Y17.5124 
G01 X28.4425 Y17.5302 
G01 X28.4509 Y17.5448 
G01 X28.4614 Y17.5578 
G01 X28.4717 Y17.5808 
G01 X28.4843 Y17.6026 
G01 X28.4886 Y17.6189 
G01 X28.4954 Y17.6342 
G01 X28.4994 Y17.6591 
G01 X28.5059 Y17.6834 
G01 X28.5059 Y17.7002 
G01 X28.5085 Y17.7168 
G01 X28.5059 Y17.7418 
G01 X28.5059 Y17.7670 
G01 X28.5015 Y17.7832 
G01 X28.4998 Y17.7999 
G01 X28.4908 Y17.8234 
G01 X28.4842 Y17.8477 
G01 X28.4758 Y17.8623 
G01 X28.4698 Y17.8780 
G01 X28.4550 Y17.8983 
G01 X28.4424 Y17.9201 
G01 X28.4306 Y17.9320 
G01 X28.4207 Y17.9456 
G01 X28.4011 Y17.9614 
G01 X28.3269 Y18.0356 
G01 X28.0543 Y18.6938 
G01 X28.0543 Y19.4062 
G01 X28.1334 Y19.5972 
G01 X28.1439 Y19.6154 
G01 X28.1493 Y19.6356 
G01 X28.1574 Y19.6550 
G01 X28.1601 Y19.6759 
G01 X28.1655 Y19.6961 
G01 X28.1655 Y19.7171 
G01 X28.1683 Y19.7379 
G01 X28.1655 Y19.7587 
G01 X28.1655 Y19.7797 
G01 X28.1601 Y19.8000 
G01 X28.1574 Y19.8208 
G01 X28.1493 Y19.8402 
G01 X28.1439 Y19.8605 
G01 X28.1334 Y19.8786 
G01 X28.1254 Y19.8980 
G01 X28.1126 Y19.9147 
G01 X28.1021 Y19.9329 
G01 X28.0873 Y19.9477 
G01 X28.0745 Y19.9644 
G01 X28.0578 Y19.9772 
G01 X28.0430 Y19.9920 
G01 X28.0248 Y20.0025 
G01 X28.0082 Y20.0153 
G01 X27.9888 Y20.0233 
G01 X27.9706 Y20.0338 
G01 X27.9503 Y20.0392 
G01 X27.9309 Y20.0473 
G01 X27.9101 Y20.0500 
G01 X27.8899 Y20.0554 
G01 X27.8689 Y20.0554 
G01 X27.8480 Y20.0582 
G01 X27.8272 Y20.0554 
G01 X27.8062 Y20.0554 
G01 X27.7860 Y20.0500 
G01 X27.7652 Y20.0473 
G01 X27.7458 Y20.0392 
G01 X27.7255 Y20.0338 
G01 X27.7073 Y20.0233 
G01 X27.6879 Y20.0153 
G01 X27.6713 Y20.0025 
G01 X27.6531 Y19.9920 
G01 X27.6383 Y19.9772 
G01 X27.6216 Y19.9644 
G01 X27.6088 Y19.9477 
G01 X24.5446 Y16.8835 
G01 X24.4855 Y16.8244 
G01 X24.4437 Y16.7520 
G01 X24.4221 Y16.6713 
G01 X24.4221 Y13.1737 
G01 X24.4437 Y13.0930 
G01 X24.4855 Y13.0206 
G01 X24.5446 Y12.9615 
G01 X25.0856 Y12.4205 
G01 X25.1580 Y12.3787 
G01 X25.2387 Y12.3571 
G01 X25.5664 Y12.3571 
G01 X25.6471 Y12.3787 
G01 X25.7195 Y12.4205 
G01 X25.7449 Y12.4459 
G01 X25.8040 Y12.5051 
G01 X25.8302 Y12.5504 
G01 X25.8458 Y12.5774 
G01 X25.8675 Y12.6582 
G01 X25.8675 Y12.7418 
G01 X25.8458 Y12.8226 
G01 X25.8040 Y12.8950 
G01 X25.4556 Y13.2434 
G01 X25.2603 Y13.7148 
G01 X25.2603 Y14.2251 
G01 X25.4556 Y14.6966 
G01 X25.8164 Y15.0574 
G01 X26.0463 Y15.1527 
G01 X26.0742 Y15.1617 
G01 X26.0848 Y15.1686 
G01 X26.0965 Y15.1734 
G01 X26.1197 Y15.1913 
G01 X26.1443 Y15.2073 
G01 X26.1528 Y15.2166 
G01 X26.1628 Y15.2243 
G01 X26.1807 Y15.2476 
G01 X26.2003 Y15.2694 
G01 X26.2060 Y15.2806 
G01 X26.2137 Y15.2906 
G01 X26.2249 Y15.3178 
G01 X26.2382 Y15.3439 
G01 X26.2409 Y15.3562 
G01 X26.2457 Y15.3679 
G01 X26.2495 Y15.3970 
G01 X26.2556 Y15.4257 
G01 X26.2549 Y15.4382 
G01 X26.2566 Y15.4508 
G01 X26.2528 Y15.4799 
G01 X26.2512 Y15.5091 
G01 X26.2473 Y15.5211 
G01 X26.2457 Y15.5336 
G01 X26.2345 Y15.5607 
G01 X26.2254 Y15.5886 
G01 X26.2185 Y15.5992 
G01 X26.2137 Y15.6109 
G01 X26.1958 Y15.6341 
G01 X26.1799 Y15.6588 
G01 X26.1705 Y15.6672 
G01 X26.1628 Y15.6772 
G01 X26.1395 Y15.6951 
G01 X26.1177 Y15.7147 
G01 X26.1065 Y15.7204 
G01 X26.0965 Y15.7281 
G01 X26.0701 Y15.7390 
G01 X25.9556 Y15.8222 
G01 X25.8552 Y15.9226 
G01 X25.7718 Y16.0374 
G01 X25.7187 Y16.1417 
G01 X25.7471 Y16.1417 
G01 X25.7664 Y16.0949 
G01 X25.8623 Y15.9514 
G01 X25.9844 Y15.8293 
G01 X26.1279 Y15.7334 
G01 X26.2874 Y15.6674 
G01 X26.4567 Y15.6337 
G01 X28.1533 Y15.6337 
G01 X28.3226 Y15.6674 
G01 X28.4821 Y15.7334 
G01 X28.6256 Y15.8293 
G01 X28.7477 Y15.9514 
G01 X28.8436 Y16.0949 
G01 X28.8629 Y16.1417 
G01 X28.8913 Y16.1417 
G01 X28.8382 Y16.0374 
G01 X28.7548 Y15.9226 
G01 X28.6544 Y15.8222 
G01 X28.5399 Y15.7390 
G01 X28.5135 Y15.7281 
G01 X28.5035 Y15.7204 
G01 X28.4923 Y15.7147 
G01 X28.4705 Y15.6951 
G01 X28.4472 Y15.6772 
G01 X28.4395 Y15.6672 
G01 X28.4301 Y15.6588 
G01 X28.4142 Y15.6342 
G01 X28.3963 Y15.6109 
G01 X28.3915 Y15.5992 
G01 X28.3846 Y15.5886 
G01 X28.3755 Y15.5608 
G01 X28.3643 Y15.5336 
G01 X28.3627 Y15.5211 
G01 X28.3588 Y15.5091 
G01 X28.3572 Y15.4799 
G01 X28.3534 Y15.4508 
G01 X28.3551 Y15.4382 
G01 X28.3544 Y15.4257 
G01 X28.3605 Y15.3970 
G01 X28.3643 Y15.3679 
G01 X28.3691 Y15.3562 
G01 X28.3718 Y15.3439 
G01 X28.3851 Y15.3178 
G01 X28.3963 Y15.2906 
G01 X28.4040 Y15.2806 
G01 X28.4097 Y15.2694 
G01 X28.4293 Y15.2476 
G01 X28.4472 Y15.2243 
G01 X28.4572 Y15.2166 
G01 X28.4657 Y15.2073 
G01 X28.4902 Y15.1913 
G01 X28.5135 Y15.1734 
G01 X28.5252 Y15.1686 
G01 X28.5358 Y15.1617 
G01 X28.5637 Y15.1527 
G01 X28.7936 Y15.0574 
G01 X29.1544 Y14.6966 
G01 X29.3497 Y14.2251 
G01 X29.3497 Y13.7148 
G01 X29.1544 Y13.2434 
G01 X28.8060 Y12.8950 
G01 X28.7642 Y12.8226 
G01 X28.7425 Y12.7418 
G01 X28.7425 Y12.6582 
G01 X28.7642 Y12.5774 
G01 X28.7791 Y12.5515 
G01 X28.8060 Y12.5051 
G01 X28.8651 Y12.4459 
G01 X29.1544 Y12.1566 
G01 X29.3497 Y11.6851 
G01 X29.3497 Y11.1748 
G01 X29.1544 Y10.7034 
G01 X28.8060 Y10.3550 
G01 X28.7642 Y10.2826 
G01 X28.7425 Y10.2018 
G01 X28.7425 Y10.1182 
G01 X28.7642 Y10.0374 
G01 X28.7791 Y10.0115 
G01 X28.8060 Y9.9650 
G01 X28.8651 Y9.9059 
G01 X29.1544 Y9.6166 
G01 X29.3497 Y9.1451 
G01 X29.3497 Y8.6348 
G01 X29.1544 Y8.1634 
G01 X28.8060 Y7.8149 
G01 X28.7642 Y7.7425 
G01 X28.7425 Y7.6618 
G01 X28.7425 Y7.5782 
G01 X28.7642 Y7.4974 
G01 X28.8060 Y7.4250 
G01 X28.8651 Y7.3659 
G01 X28.8905 Y7.3405 
G01 X28.9629 Y7.2987 
G01 X29.0436 Y7.2771 
G01 X29.5507 Y7.2771 
G01 X29.5715 Y7.2744 
G01 X29.5923 Y7.2771 
G01 X29.6133 Y7.2771 
G01 X29.6336 Y7.2825 
G01 X29.6544 Y7.2853 
G01 X29.6738 Y7.2933 
G01 X29.6940 Y7.2987 
G01 X29.7122 Y7.3092 
G01 X29.7316 Y7.3173 
G01 X29.7483 Y7.3300 
G01 X29.7664 Y7.3405 
G01 X29.7813 Y7.3554 
G01 X29.7979 Y7.3681 
G01 X29.8107 Y7.3848 
G01 X29.8255 Y7.3996 
G01 X29.8360 Y7.4178 
G01 X29.8488 Y7.4345 
G01 X29.8568 Y7.4539 
G01 X29.8673 Y7.4720 
G01 X29.8728 Y7.4923 
G01 X29.9236 Y7.6150 
G01 X30.0733 Y7.7646 
G01 X30.0846 Y7.7733 
G01 X30.1027 Y7.7838 
G01 X30.1176 Y7.7987 
G01 X30.1342 Y7.8114 
G01 X30.1470 Y7.8281 
G01 X30.1619 Y7.8429 
G01 X30.1724 Y7.8611 
G01 X30.1851 Y7.8777 
G01 X30.1932 Y7.8971 
G01 X30.2037 Y7.9153 
G01 X30.2091 Y7.9356 
G01 X30.2171 Y7.9550 
G01 X30.2199 Y7.9758 
G01 X30.2253 Y7.9961 
G01 X30.2253 Y8.0171 
G01 X30.2280 Y8.0379 
G01 X30.2253 Y8.0587 
G01 X30.2253 Y8.1307 
G01 X30.2507 Y8.1307 
G01 X30.2507 Y7.8973 
G01 X30.2681 Y7.8553 
G01 X30.3003 Y7.8231 
G01 X30.3423 Y7.8057 
G01 X31.8877 Y7.8057 
G01 X31.9297 Y7.8231 
G01 X31.9619 Y7.8553 
G01 X31.9793 Y7.8973 
G01 X31.9793 Y8.1307 
G01 X32.0047 Y8.1307 
G01 X32.0047 Y8.0587 
G01 X32.0020 Y8.0379 
G01 X32.0047 Y8.0171 
G01 X32.0047 Y7.9961 
G01 X32.0101 Y7.9758 
G01 X32.0129 Y7.9550 
G01 X32.0209 Y7.9356 
G01 X32.0263 Y7.9153 
G01 X32.0368 Y7.8971 
G01 X32.0449 Y7.8777 
G01 X32.0576 Y7.8611 
G01 X32.0681 Y7.8429 
G01 X32.0830 Y7.8281 
G01 X32.0958 Y7.8114 
G01 X32.1124 Y7.7987 
G01 X32.1272 Y7.7838 
G01 X32.1454 Y7.7733 
G01 X32.1567 Y7.7646 
G01 X32.3064 Y7.6150 
G01 X32.3572 Y7.4923 
G01 X32.3627 Y7.4720 
G01 X32.3732 Y7.4539 
G01 X32.3812 Y7.4345 
G01 X32.3940 Y7.4178 
G01 X32.4045 Y7.3996 
G01 X32.4193 Y7.3848 
G01 X32.4321 Y7.3681 
G01 X32.4487 Y7.3554 
G01 X32.4636 Y7.3405 
G01 X32.4817 Y7.3300 
G01 X32.4984 Y7.3173 
G01 X32.5178 Y7.3092 
G01 X32.5360 Y7.2987 
G01 X32.5562 Y7.2933 
G01 X32.5756 Y7.2853 
G01 X32.5964 Y7.2825 
G01 X32.6167 Y7.2771 
G01 X32.6377 Y7.2771 
G01 X32.6585 Y7.2744 
G01 X32.6793 Y7.2771 
G01 X37.0144 Y7.2771 
G01 X37.3552 Y7.1360 
G01 X37.6902 Y6.8009 
G01 X38.6101 Y5.8811 
G01 X38.8860 Y5.6052 
G01 X39.0271 Y5.2644 
G01 X39.0271 Y3.6244 
G01 X39.0487 Y3.5436 
G01 X39.0644 Y3.5166 
G01 X39.0905 Y3.4712 
G01 X39.3853 Y3.1764 
G01 X39.4389 Y3.1228 
G01 X39.4445 Y3.1173 
G01 X39.4741 Y3.1002 
G01 X39.5169 Y3.0755 
G01 X39.5976 Y3.0539 
G01 X39.6812 Y3.0539 
G01 X39.7620 Y3.0755 
G01 X39.8028 Y3.0991 
G01 X39.8344 Y3.1173 
G01 X39.8935 Y3.1764 
G01 X40.2349 Y3.5179 
G01 X40.2757 Y3.5179 
G01 X40.2757 Y3.4925 
G01 X40.2455 Y3.4925 
G01 X39.6875 Y2.9345 
G01 X39.6875 Y2.1455 
G01 X40.2455 Y1.5875 
G01 X40.2757 Y1.5875 
G01 X40.2757 Y1.5621 
G01 X40.2349 Y1.5621 
G01 X39.8344 Y1.9627 
G01 X39.7620 Y2.0045 
G01 X39.6812 Y2.0261 
G01 X39.5976 Y2.0261 
G01 X39.5169 Y2.0045 
G01 X39.4909 Y1.9895 
G01 X39.4445 Y1.9627 
G01 X39.3853 Y1.9036 
G01 X38.8959 Y1.4141 
G01 X38.8541 Y1.3417 
G01 X38.8325 Y1.2610 
G01 X38.8325 Y1.1774 
G01 X38.8383 Y1.1557 
G01 X27.5207 Y1.1557 
G01 X26.5811 Y2.0953 
G01 X26.5811 Y3.1029 
G01 X27.3771 Y3.8989 
G01 X28.5029 Y3.8989 
G01 X28.9569 Y3.4449 
G01 X29.0151 Y3.3867 
G01 X29.0604 Y3.3606 
G01 X29.0874 Y3.3449 
G01 X29.1682 Y3.3233 
G01 X29.2518 Y3.3233 
G01 X29.3326 Y3.3449 
G01 X29.4049 Y3.3867 
G01 X29.4641 Y3.4458 
G01 X29.9171 Y3.8989 
G01 X31.0429 Y3.8989 
G01 X31.4969 Y3.4449 
G01 X31.5551 Y3.3867 
G01 X31.6004 Y3.3606 
G01 X31.6274 Y3.3449 
G01 X31.7082 Y3.3233 
G01 X31.7918 Y3.3233 
G01 X31.8726 Y3.3449 
G01 X31.9449 Y3.3867 
G01 X32.0041 Y3.4458 
G01 X32.4571 Y3.8989 
G01 X33.5829 Y3.8989 
G01 X34.0369 Y3.4449 
G01 X34.0951 Y3.3867 
G01 X34.1404 Y3.3606 
G01 X34.1674 Y3.3449 
G01 X34.2482 Y3.3233 
G01 X34.3318 Y3.3233 
G01 X34.4126 Y3.3449 
G01 X34.4849 Y3.3867 
G01 X34.5441 Y3.4458 
G01 X34.9971 Y3.8989 
G01 X36.1229 Y3.8989 
G01 X36.5759 Y3.4458 
G01 X36.6151 Y3.4067 
G01 X36.6350 Y3.3867 
G01 X36.6856 Y3.3576 
G01 X36.7074 Y3.3449 
G01 X36.7632 Y3.3300 
G01 X36.7882 Y3.3233 
G01 X36.8296 Y3.3233 
G01 X36.8718 Y3.3233 
G01 X36.9200 Y3.3362 
G01 X36.9526 Y3.3449 
G01 X37.0192 Y3.3834 
G01 X37.0249 Y3.3867 
G01 X37.0669 Y3.4287 
G01 X37.0841 Y3.4458 
G01 X37.1095 Y3.4712 
G01 X37.1272 Y3.5019 
G01 X37.1513 Y3.5436 
G01 X37.1620 Y3.5837 
G01 X37.1729 Y3.6244 
G01 X37.1729 Y3.6501 
G01 X37.1729 Y4.6063 
G01 X37.1513 Y4.6870 
G01 X37.1095 Y4.7594 
G01 X37.0503 Y4.8185 
G01 X36.5094 Y5.3595 
G01 X36.4370 Y5.4013 
G01 X36.3563 Y5.4229 
G01 X29.0436 Y5.4229 
G01 X28.9629 Y5.4013 
G01 X28.8905 Y5.3595 
G01 X28.7936 Y5.2626 
G01 X28.3221 Y5.0673 
G01 X26.2878 Y5.0673 
G01 X25.8164 Y5.2626 
G01 X25.7195 Y5.3595 
G01 X25.6471 Y5.4013 
G01 X25.5664 Y5.4229 
G01 X12.5336 Y5.4229 
G01 X12.4529 Y5.4013 
G01 X12.3805 Y5.3595 
G01 X12.3214 Y5.3003 
G01 X12.2836 Y5.2626 
G01 X11.8121 Y5.0673 
G01 X9.7778 Y5.0673 
G01 X9.3064 Y5.2626 
G01 X9.2095 Y5.3595 
G01 X9.1371 Y5.4013 
G01 X9.0564 Y5.4229 
G01 X8.7056 Y5.4229 
G01 X8.3648 Y5.5640 
G01 X7.1099 Y6.8189 
G01 X6.8340 Y7.0948 
G01 X6.6929 Y7.4356 
G01 X6.6929 Y10.3444 
G01 X6.8340 Y10.6852 
G01 X7.3839 Y11.2350 
G01 X7.4257 Y11.3074 
G01 X7.4474 Y11.3882 
G01 X7.4474 Y11.4718 
G01 X7.4257 Y11.5525 
G01 X7.4108 Y11.5785 
G01 X7.3839 Y11.6249 
G01 X7.3248 Y11.6841 
G01 X7.1099 Y11.8989 
G01 X6.8340 Y12.1748 
G01 X6.6929 Y12.5156 
G01 X6.6929 Y15.4244 
G01 X6.8340 Y15.7652 
G01 X7.3839 Y16.3150 
G01 X7.4257 Y16.3874 
G01 X7.4474 Y16.4682 
G01 X7.4474 Y16.5518 
G01 X7.4257 Y16.6325 
G01 X7.4108 Y16.6585 
G01 X7.3839 Y16.7049 
G01 X7.3248 Y16.7641 
G01 X7.1099 Y16.9789 
G01 X6.8340 Y17.2548 
G01 X6.6929 Y17.5956 
G01 X6.6929 Y20.5044 
G01 X6.8340 Y20.8452 
G01 X7.3839 Y21.3950 
G01 X7.4257 Y21.4674 
G01 X7.4474 Y21.5482 
G01 X7.4474 Y21.6318 
G01 X7.4257 Y21.7125 
G01 X7.4108 Y21.7385 
G01 X7.3839 Y21.7849 
G01 X7.3248 Y21.8441 
G01 X7.1099 Y22.0589 
G01 X6.8340 Y22.3348 
G01 X6.6929 Y22.6756 
G01 X6.6929 Y28.1244 
G01 X6.8340 Y28.4652 
G01 X7.3839 Y29.0151 
G01 X7.4257 Y29.0874 
G01 X7.4474 Y29.1682 
G01 X7.4474 Y29.2518 
G01 X7.4257 Y29.3326 
G01 X7.3839 Y29.4049 
G01 X7.3248 Y29.4641 
G01 X7.1099 Y29.6789 
G01 X6.8340 Y29.9548 
G01 X6.6929 Y30.2956 
G01 X6.6929 Y33.2044 
G01 X6.8340 Y33.5452 
G01 X7.3839 Y34.0950 
G01 X7.4257 Y34.1674 
G01 X7.4474 Y34.2482 
G01 X7.4474 Y34.3318 
G01 X7.4257 Y34.4125 
G01 X7.4108 Y34.4385 
G01 X7.3839 Y34.4849 
G01 X7.3248 Y34.5441 
G01 X7.1099 Y34.7589 
G01 X6.8340 Y35.0348 
G01 X6.6929 Y35.3756 
G01 X6.6929 Y38.2844 
G01 X6.8340 Y38.6252 
G01 X7.3839 Y39.1750 
G01 X7.4257 Y39.2474 
G01 X7.4474 Y39.3282 
G01 X7.4474 Y39.4118 
G01 X7.4257 Y39.4925 
G01 X7.4108 Y39.5185 
G01 X7.3839 Y39.5649 
G01 X7.3248 Y39.6241 
G01 X7.1099 Y39.8389 
G01 X6.8340 Y40.1148 
G01 X6.6929 Y40.4556 
G01 X6.6929 Y43.3644 
G01 X6.8340 Y43.7052 
G01 X7.3839 Y44.2550 
G01 X7.4257 Y44.3274 
G01 X7.4474 Y44.4082 
G01 X7.4474 Y44.4918 
G01 X7.4257 Y44.5725 
G01 X7.4108 Y44.5985 
G01 X7.3839 Y44.6449 
G01 X7.3248 Y44.7041 
G01 X7.1099 Y44.9189 
G01 X6.8340 Y45.1948 
G01 X6.6929 Y45.5356 
G01 X6.6929 Y48.4444 
G01 X6.8340 Y48.7852 
G01 X8.0889 Y50.0401 
G01 X8.3648 Y50.3160 
G01 X8.7056 Y50.4571 
G01 X12.2494 Y50.4571 
G01 X12.5902 Y50.3160 
G01 X14.0620 Y48.8441 
G01 X14.1344 Y48.8023 
G01 X14.2151 Y48.7807 
G01 X14.9612 Y48.7807 
G01 X15.6194 Y48.5081 
G01 X16.1231 Y48.0044 
G01 X16.3957 Y47.3462 
G01 X16.3957 Y46.6338 
G01 X16.1231 Y45.9756 
G01 X15.6194 Y45.4719 
G01 X14.9612 Y45.1993 
G01 X14.5378 Y45.1993 
G01 X14.4570 Y45.1777 
G01 X14.3846 Y45.1359 
G01 X14.3255 Y45.0767 
G01 X14.2837 Y45.0044 
G01 X14.2621 Y44.9236 
G01 X14.2621 Y44.2887 
G01 X14.2837 Y44.2080 
G01 X14.3255 Y44.1356 
G01 X14.3846 Y44.0765 
G01 X15.6909 Y42.7702 
G01 X16.0155 Y42.4456 
G01 X16.0226 Y42.4385 
G01 X16.0746 Y42.3865 
G01 X16.0956 Y42.3743 
G01 X16.1471 Y42.3447 
G01 X16.1929 Y42.3324 
G01 X16.2278 Y42.3230 
G01 X16.3114 Y42.3230 
G01 X16.3922 Y42.3447 
G01 X16.4446 Y42.3749 
G01 X16.4645 Y42.3865 
G01 X16.5237 Y42.4456 
G01 X16.5984 Y42.5203 
G01 X16.7002 Y42.5943 
G01 X16.8125 Y42.6515 
G01 X16.9322 Y42.6904 
G01 X17.0566 Y42.7101 
G01 X17.4625 Y42.7101 
G01 X17.4625 Y42.6847 
G01 X17.0433 Y42.6847 
G01 X16.8936 Y42.6549 
G01 X16.7526 Y42.5965 
G01 X16.6258 Y42.5117 
G01 X16.5178 Y42.4038 
G01 X16.4331 Y42.2770 
G01 X16.3747 Y42.1360 
G01 X16.3449 Y41.9863 
G01 X16.3449 Y41.8337 
G01 X16.3747 Y41.6840 
G01 X16.4331 Y41.5430 
G01 X16.5178 Y41.4162 
G01 X16.6258 Y41.3083 
G01 X16.7526 Y41.2235 
G01 X16.8936 Y41.1651 
G01 X17.0433 Y41.1353 
G01 X18.5167 Y41.1353 
G01 X18.6664 Y41.1651 
G01 X18.8074 Y41.2235 
G01 X18.9342 Y41.3083 
G01 X19.0421 Y41.4162 
G01 X19.1269 Y41.5430 
G01 X19.1474 Y41.5925 
G01 X19.1766 Y41.5925 
G01 X19.1247 Y41.4906 
G01 X19.0507 Y41.3888 
G01 X18.9616 Y41.2997 
G01 X18.8597 Y41.2257 
G01 X18.7475 Y41.1685 
G01 X18.7180 Y41.1589 
G01 X18.7055 Y41.1573 
G01 X18.6784 Y41.1461 
G01 X18.6505 Y41.1370 
G01 X18.6399 Y41.1301 
G01 X18.6282 Y41.1253 
G01 X18.6050 Y41.1074 
G01 X18.5804 Y41.0915 
G01 X18.5719 Y41.0821 
G01 X18.5619 Y41.0744 
G01 X18.5441 Y41.0511 
G01 X18.5244 Y41.0293 
G01 X18.5187 Y41.0181 
G01 X18.5110 Y41.0081 
G01 X18.4998 Y40.9810 
G01 X18.4865 Y40.9549 
G01 X18.4839 Y40.9425 
G01 X18.4790 Y40.9308 
G01 X18.4752 Y40.9017 
G01 X18.4691 Y40.8731 
G01 X18.4698 Y40.8605 
G01 X18.4681 Y40.8479 
G01 X18.4719 Y40.8188 
G01 X18.4735 Y40.7896 
G01 X18.4774 Y40.7776 
G01 X18.4790 Y40.7651 
G01 X18.4902 Y40.7380 
G01 X18.4993 Y40.7101 
G01 X18.5062 Y40.6995 
G01 X18.5110 Y40.6878 
G01 X18.5288 Y40.6646 
G01 X18.5448 Y40.6400 
G01 X18.5542 Y40.6315 
G01 X18.5619 Y40.6215 
G01 X18.5852 Y40.6037 
G01 X18.6070 Y40.5840 
G01 X18.6182 Y40.5783 
G01 X18.6282 Y40.5706 
G01 X18.6553 Y40.5594 
G01 X18.6814 Y40.5461 
G01 X18.6938 Y40.5434 
G01 X19.1094 Y40.3713 
G01 X19.1202 Y40.3605 
G01 X19.1274 Y40.3563 
G01 X19.1926 Y40.3187 
G01 X19.2339 Y40.3077 
G01 X19.2733 Y40.2971 
G01 X19.3147 Y40.2971 
G01 X19.3569 Y40.2971 
G01 X20.6481 Y40.2971 
G01 X20.6894 Y40.2971 
G01 X20.7317 Y40.2971 
G01 X20.7697 Y40.3073 
G01 X20.8124 Y40.3187 
G01 X20.8757 Y40.3553 
G01 X20.8848 Y40.3605 
G01 X20.8956 Y40.3713 
G01 X21.3297 Y40.5511 
G01 X23.1203 Y40.5511 
G01 X23.3797 Y40.4437 
G01 X23.3978 Y40.4332 
G00 Z2.5400 
G00 X20.6629 Y17.9644 
G01 Z-0.1000 F254.00 
G01 X20.8040 Y18.3052 F508.00 
G01 X22.7172 Y20.2183 
G01 X22.7445 Y20.2456 
G01 X22.7763 Y20.2775 
G01 X22.8181 Y20.3498 
G01 X22.8398 Y20.4306 
G01 X22.8398 Y20.5142 
G01 X22.8181 Y20.5950 
G01 X22.7763 Y20.6673 
G01 X22.7172 Y20.7265 
G01 X22.6448 Y20.7683 
G01 X22.5641 Y20.7899 
G01 X22.5425 Y20.7899 
G01 X22.5425 Y20.8153 
G01 X22.9617 Y20.8153 
G01 X23.1114 Y20.8451 
G01 X23.2524 Y20.9035 
G01 X23.3792 Y20.9883 
G01 X23.4871 Y21.0962 
G01 X23.5719 Y21.2230 
G01 X23.5962 Y21.2816 
G01 X23.6430 Y21.2941 
G01 X23.7153 Y21.3359 
G01 X23.7745 Y21.3950 
G01 X23.8163 Y21.4674 
G01 X23.8379 Y21.5482 
G01 X23.8379 Y21.6318 
G01 X23.8163 Y21.7126 
G01 X23.7745 Y21.7850 
G01 X23.7153 Y21.8441 
G01 X23.6430 Y21.8859 
G01 X23.5962 Y21.8984 
G01 X23.5719 Y21.9570 
G01 X23.4871 Y22.0838 
G01 X23.3792 Y22.1917 
G01 X23.2524 Y22.2765 
G01 X23.1114 Y22.3349 
G01 X22.9617 Y22.3647 
G01 X22.5425 Y22.3647 
G01 X22.5425 Y22.6732 
G01 X22.5209 Y22.7539 
G01 X22.4791 Y22.8263 
G01 X22.4200 Y22.8855 
G01 X22.3476 Y22.9273 
G01 X22.2668 Y22.9489 
G01 X22.1832 Y22.9489 
G01 X22.1024 Y22.9273 
G01 X22.0300 Y22.8855 
G01 X21.9709 Y22.8263 
G01 X21.9291 Y22.7539 
G01 X21.9075 Y22.6732 
G01 X21.9075 Y22.3647 
G01 X21.4883 Y22.3647 
G01 X21.3386 Y22.3349 
G01 X21.1976 Y22.2765 
G01 X21.0708 Y22.1917 
G01 X20.9628 Y22.0838 
G01 X20.8781 Y21.9570 
G01 X20.8576 Y21.9075 
G01 X20.8284 Y21.9075 
G01 X20.8803 Y22.0093 
G01 X20.9543 Y22.1112 
G01 X21.0434 Y22.2003 
G01 X21.1452 Y22.2743 
G01 X21.2575 Y22.3315 
G01 X21.2870 Y22.3411 
G01 X21.2995 Y22.3427 
G01 X21.3266 Y22.3539 
G01 X21.3545 Y22.3630 
G01 X21.3651 Y22.3699 
G01 X21.3768 Y22.3747 
G01 X21.4000 Y22.3925 
G01 X21.4246 Y22.4085 
G01 X21.4331 Y22.4179 
G01 X21.4431 Y22.4256 
G01 X21.4609 Y22.4489 
G01 X21.4806 Y22.4707 
G01 X21.4863 Y22.4819 
G01 X21.4940 Y22.4919 
G01 X21.5052 Y22.5190 
G01 X21.5185 Y22.5451 
G01 X21.5211 Y22.5575 
G01 X21.5260 Y22.5692 
G01 X21.5298 Y22.5982 
G01 X21.5359 Y22.6269 
G01 X21.5352 Y22.6395 
G01 X21.5369 Y22.6521 
G01 X21.5331 Y22.6811 
G01 X21.5315 Y22.7104 
G01 X21.5276 Y22.7224 
G01 X21.5260 Y22.7349 
G01 X21.5147 Y22.7620 
G01 X21.5057 Y22.7899 
G01 X21.4988 Y22.8005 
G01 X21.4940 Y22.8122 
G01 X21.4761 Y22.8354 
G01 X21.4602 Y22.8600 
G01 X21.4508 Y22.8685 
G01 X21.4431 Y22.8785 
G01 X21.4198 Y22.8963 
G01 X21.3980 Y22.9160 
G01 X21.3868 Y22.9217 
G01 X21.3768 Y22.9294 
G01 X21.3497 Y22.9406 
G01 X21.3236 Y22.9539 
G01 X21.3112 Y22.9565 
G01 X20.8956 Y23.1287 
G01 X20.8848 Y23.1395 
G01 X20.8124 Y23.1813 
G01 X20.7317 Y23.2029 
G01 X19.2733 Y23.2029 
G01 X19.1926 Y23.1813 
G01 X19.1202 Y23.1395 
G01 X19.0611 Y23.0803 
G01 X19.0357 Y23.0549 
G01 X18.9939 Y22.9825 
G01 X18.9722 Y22.9018 
G01 X18.9722 Y22.8182 
G01 X18.9939 Y22.7374 
G01 X19.0357 Y22.6651 
G01 X19.0948 Y22.6059 
G01 X19.4417 Y22.2590 
G01 X19.6215 Y21.8249 
G01 X19.6215 Y21.3551 
G01 X19.4417 Y20.9210 
G01 X19.1956 Y20.6749 
G01 X19.1424 Y20.6217 
G01 X19.1365 Y20.6158 
G01 X19.0947 Y20.5434 
G01 X19.0791 Y20.4852 
G01 X19.0731 Y20.4627 
G01 X19.0731 Y20.3790 
G01 X19.0947 Y20.2983 
G01 X19.1250 Y20.2459 
G01 X19.1365 Y20.2259 
G01 X19.1956 Y20.1668 
G01 X19.2981 Y20.0643 
G01 X19.5707 Y19.4062 
G01 X19.5707 Y18.6938 
G01 X19.2981 Y18.0356 
G01 X18.7705 Y17.5081 
G01 X18.7287 Y17.4357 
G01 X18.7071 Y17.3550 
G01 X18.7071 Y9.9756 
G01 X18.5660 Y9.6348 
G01 X18.2309 Y9.2998 
G01 X17.0352 Y8.1040 
G01 X16.6944 Y7.9629 
G01 X12.5750 Y7.9629 
G01 X12.5336 Y7.9629 
G01 X12.5086 Y7.9562 
G01 X12.4529 Y7.9413 
G01 X12.4310 Y7.9286 
G01 X12.3805 Y7.8995 
G01 X12.3590 Y7.8780 
G01 X12.3551 Y7.8741 
G01 X12.3386 Y7.8575 
G01 X12.2960 Y7.8150 
G01 X12.2933 Y7.8104 
G01 X12.2542 Y7.7426 
G01 X12.2459 Y7.7118 
G01 X12.2325 Y7.6618 
G01 X12.2325 Y7.6205 
G01 X12.2325 Y7.5782 
G01 X12.2390 Y7.5541 
G01 X12.2541 Y7.4975 
G01 X12.2661 Y7.4767 
G01 X12.2959 Y7.4251 
G01 X12.3153 Y7.4057 
G01 X12.3551 Y7.3659 
G01 X12.3805 Y7.3405 
G01 X12.4529 Y7.2987 
G01 X12.5336 Y7.2771 
G01 X25.5664 Y7.2771 
G01 X25.6471 Y7.2987 
G01 X25.7195 Y7.3405 
G01 X25.7786 Y7.3996 
G01 X25.8040 Y7.4250 
G01 X25.8458 Y7.4974 
G01 X25.8675 Y7.5782 
G01 X25.8675 Y7.6618 
G01 X25.8458 Y7.7425 
G01 X25.8040 Y7.8149 
G01 X25.7449 Y7.8741 
G01 X25.7195 Y7.8995 
G01 X25.6471 Y7.9413 
G01 X25.5664 Y7.9629 
G01 X23.9456 Y7.9629 
G01 X23.6048 Y8.1040 
G01 X21.0799 Y10.6289 
G01 X20.8040 Y10.9048 
G01 X20.6629 Y11.2456 
G01 X20.6629 Y17.5742 
G01 X20.6629 Y17.9644 
G00 Z2.5400 
G00 X51.7525 Y2.1455 
G01 Z-0.1000 F254.00 
G01 X51.7525 Y2.9345 F508.00 
G01 X51.1945 Y3.4925 
G01 X50.4055 Y3.4925 
G01 X49.8475 Y2.9345 
G01 X49.8475 Y2.1455 
G01 X50.4055 Y1.5875 
G01 X51.1945 Y1.5875 
G01 X51.7525 Y2.1455 
G00 Z2.5400 
G00 X59.3725 Y50.4055 
G01 Z-0.1000 F254.00 
G01 X59.3725 Y51.1945 F508.00 
G01 X58.8145 Y51.7525 
G01 X58.0255 Y51.7525 
G01 X57.4675 Y51.1945 
G01 X57.4675 Y50.4055 
G01 X57.8993 Y49.9737 
G01 X57.8993 Y32.6007 
G01 X51.8543 Y26.5557 
G01 X31.3307 Y26.5557 
G01 X31.2801 Y26.6063 
G01 X31.2801 Y26.7463 
G01 X31.2503 Y26.8960 
G01 X31.1919 Y27.0370 
G01 X31.1071 Y27.1638 
G01 X30.9992 Y27.2717 
G01 X30.8724 Y27.3565 
G01 X30.7314 Y27.4149 
G01 X30.5817 Y27.4447 
G01 X29.1083 Y27.4447 
G01 X28.9586 Y27.4149 
G01 X28.8176 Y27.3565 
G01 X28.6908 Y27.2717 
G01 X28.5829 Y27.1638 
G01 X28.4981 Y27.0370 
G01 X28.4397 Y26.8960 
G01 X28.4099 Y26.7463 
G01 X28.4099 Y26.5937 
G01 X28.4397 Y26.4440 
G01 X28.4981 Y26.3030 
G01 X28.5829 Y26.1762 
G01 X28.6908 Y26.0683 
G01 X28.8176 Y25.9835 
G01 X28.9586 Y25.9251 
G01 X29.1083 Y25.8953 
G01 X30.5183 Y25.8953 
G01 X30.7953 Y25.6183 
G01 X30.9140 Y25.5498 
G01 X31.0464 Y25.5143 
G01 X52.1386 Y25.5143 
G01 X52.2710 Y25.5498 
G01 X52.3897 Y25.6183 
G01 X52.4867 Y25.7153 
G01 X58.8367 Y32.0653 
G01 X58.9052 Y32.1840 
G01 X58.9407 Y32.3164 
G01 X58.9407 Y49.9737 
G01 X59.3725 Y50.4055 
G00 Z2.5400 
G00 X61.9125 Y50.4055 
G01 Z-0.1000 F254.00 
G01 X61.9125 Y51.1945 F508.00 
G01 X61.3545 Y51.7525 
G01 X60.5655 Y51.7525 
G01 X60.0075 Y51.1945 
G01 X60.0075 Y50.4055 
G01 X60.5655 Y49.8475 
G01 X61.3545 Y49.8475 
G01 X61.9125 Y50.4055 
G00 Z2.5400 
G00 X64.4525 Y50.4055 
G01 Z-0.1000 F254.00 
G01 X64.4525 Y51.1945 F508.00 
G01 X63.8945 Y51.7525 
G01 X63.1055 Y51.7525 
G01 X62.5475 Y51.1945 
G01 X62.5475 Y50.4055 
G01 X63.1055 Y49.8475 
G01 X63.8945 Y49.8475 
G01 X64.4525 Y50.4055 
G00 Z2.5400 
G00 X51.7525 Y50.4055 
G01 Z-0.1000 F254.00 
G01 X51.7525 Y51.1945 F508.00 
G01 X51.1945 Y51.7525 
G01 X50.4055 Y51.7525 
G01 X49.8475 Y51.1945 
G01 X49.8475 Y50.4055 
G01 X50.2793 Y49.9737 
G01 X50.2793 Y34.5057 
G01 X48.6793 Y32.9057 
G01 X32.6007 Y32.9057 
G01 X31.2801 Y34.2263 
G01 X31.2801 Y34.3663 
G01 X31.2503 Y34.5160 
G01 X31.1919 Y34.6570 
G01 X31.1071 Y34.7838 
G01 X30.9992 Y34.8917 
G01 X30.8724 Y34.9765 
G01 X30.7314 Y35.0349 
G01 X30.5817 Y35.0647 
G01 X29.1083 Y35.0647 
G01 X28.9586 Y35.0349 
G01 X28.8176 Y34.9765 
G01 X28.6908 Y34.8917 
G01 X28.5829 Y34.7838 
G01 X28.4981 Y34.6570 
G01 X28.4397 Y34.5160 
G01 X28.4099 Y34.3663 
G01 X28.4099 Y34.2137 
G01 X28.4397 Y34.0640 
G01 X28.4981 Y33.9230 
G01 X28.5829 Y33.7962 
G01 X28.6908 Y33.6883 
G01 X28.8176 Y33.6035 
G01 X28.9586 Y33.5451 
G01 X29.1083 Y33.5153 
G01 X30.5183 Y33.5153 
G01 X31.9683 Y32.0653 
G01 X32.0653 Y31.9683 
G01 X32.1840 Y31.8998 
G01 X32.3164 Y31.8643 
G01 X48.9636 Y31.8643 
G01 X49.0960 Y31.8998 
G01 X49.2147 Y31.9683 
G01 X51.1197 Y33.8733 
G01 X51.2167 Y33.9703 
G01 X51.2852 Y34.0890 
G01 X51.3207 Y34.2214 
G01 X51.3207 Y49.9737 
G01 X51.7525 Y50.4055 
G00 Z2.5400 
G00 X46.6725 Y50.4055 
G01 Z-0.1000 F254.00 
G01 X46.6725 Y51.1945 F508.00 
G01 X46.1145 Y51.7525 
G01 X45.3255 Y51.7525 
G01 X44.7675 Y51.1945 
G01 X44.7675 Y50.4055 
G01 X45.1993 Y49.9737 
G01 X45.1993 Y45.3007 
G01 X43.5993 Y43.7007 
G01 X36.3930 Y43.7007 
G01 X36.3677 Y43.7386 
G01 X36.2456 Y43.8607 
G01 X36.1021 Y43.9566 
G01 X35.9426 Y44.0226 
G01 X35.7733 Y44.0563 
G01 X34.0767 Y44.0563 
G01 X33.9074 Y44.0226 
G01 X33.7479 Y43.9566 
G01 X33.6044 Y43.8607 
G01 X33.4823 Y43.7386 
G01 X33.3864 Y43.5951 
G01 X33.3204 Y43.4356 
G01 X33.2867 Y43.2663 
G01 X33.2867 Y43.0937 
G01 X33.3204 Y42.9244 
G01 X33.3864 Y42.7649 
G01 X33.4823 Y42.6214 
G01 X33.6044 Y42.4993 
G01 X33.7479 Y42.4034 
G01 X33.9074 Y42.3374 
G01 X34.0767 Y42.3037 
G01 X35.7733 Y42.3037 
G01 X35.9426 Y42.3374 
G01 X36.1021 Y42.4034 
G01 X36.2456 Y42.4993 
G01 X36.3677 Y42.6214 
G01 X36.3930 Y42.6593 
G01 X43.8835 Y42.6593 
G01 X44.0160 Y42.6948 
G01 X44.1347 Y42.7633 
G01 X44.2317 Y42.8603 
G01 X46.1367 Y44.7653 
G01 X46.2052 Y44.8840 
G01 X46.2407 Y45.0164 
G01 X46.2407 Y49.9737 
G01 X46.6725 Y50.4055 
G00 Z2.5400 
G00 X42.6085 Y50.4055 
G01 Z-0.1000 F254.00 
G01 X42.6085 Y51.1945 F508.00 
G01 X42.0505 Y51.7525 
G01 X41.2615 Y51.7525 
G01 X40.7035 Y51.1945 
G01 X40.7035 Y50.4055 
G01 X41.2615 Y49.8475 
G01 X42.0505 Y49.8475 
G01 X42.6085 Y50.4055 
G00 Z2.5400 
G00 X40.0685 Y50.4055 
G01 Z-0.1000 F254.00 
G01 X40.0685 Y51.1945 F508.00 
G01 X39.5105 Y51.7525 
G01 X38.7215 Y51.7525 
G01 X38.1635 Y51.1945 
G01 X38.1635 Y50.4055 
G01 X38.7215 Y49.8475 
G01 X39.5105 Y49.8475 
G01 X40.0685 Y50.4055 
G00 Z2.5400 
G00 X37.5285 Y50.4055 
G01 Z-0.1000 F254.00 
G01 X37.5285 Y51.1945 F508.00 
G01 X36.9705 Y51.7525 
G01 X36.1815 Y51.7525 
G01 X35.6235 Y51.1945 
G01 X35.6235 Y50.4055 
G01 X36.1815 Y49.8475 
G01 X36.9705 Y49.8475 
G01 X37.5285 Y50.4055 
G00 Z2.5400 
G00 X34.9885 Y50.4055 
G01 Z-0.1000 F254.00 
G01 X34.9885 Y51.1945 F508.00 
G01 X34.4305 Y51.7525 
G01 X33.6415 Y51.7525 
G01 X33.0835 Y51.1945 
G01 X33.0835 Y50.4055 
G01 X33.6415 Y49.8475 
G01 X34.4305 Y49.8475 
G01 X34.9885 Y50.4055 
G00 Z2.5400 
G00 X32.4485 Y50.4055 
G01 Z-0.1000 F254.00 
G01 X32.4485 Y51.1945 F508.00 
G01 X31.8905 Y51.7525 
G01 X31.1015 Y51.7525 
G01 X30.5435 Y51.1945 
G01 X30.5435 Y50.4055 
G01 X31.1015 Y49.8475 
G01 X31.8905 Y49.8475 
G01 X32.4485 Y50.4055 
G00 Z2.5400 
G00 X29.9085 Y50.4055 
G01 Z-0.1000 F254.00 
G01 X29.9085 Y51.1945 F508.00 
G01 X29.3505 Y51.7525 
G01 X28.5615 Y51.7525 
G01 X28.0035 Y51.1945 
G01 X28.0035 Y50.4055 
G01 X28.5615 Y49.8475 
G01 X29.3505 Y49.8475 
G01 X29.9085 Y50.4055 
G00 Z2.5400 
G00 X24.8285 Y50.4055 
G01 Z-0.1000 F254.00 
G01 X24.8285 Y51.1945 F508.00 
G01 X24.2705 Y51.7525 
G01 X23.4815 Y51.7525 
G01 X22.9235 Y51.1945 
G01 X22.9235 Y50.4055 
G01 X23.4815 Y49.8475 
G01 X24.2705 Y49.8475 
G01 X24.8285 Y50.4055 
G00 Z2.5400 
G00 X54.2925 Y2.1455 
G01 Z-0.1000 F254.00 
G01 X54.2925 Y2.9345 F508.00 
G01 X53.7345 Y3.4925 
G01 X52.9455 Y3.4925 
G01 X52.3875 Y2.9345 
G01 X52.3875 Y2.1455 
G01 X52.9455 Y1.5875 
G01 X53.7345 Y1.5875 
G01 X54.2925 Y2.1455 
G00 Z2.5400 
G00 X56.8325 Y2.1455 
G01 Z-0.1000 F254.00 
G01 X56.8325 Y2.9345 F508.00 
G01 X56.2745 Y3.4925 
G01 X55.4855 Y3.4925 
G01 X54.9275 Y2.9345 
G01 X54.9275 Y2.1455 
G01 X55.4855 Y1.5875 
G01 X56.2745 Y1.5875 
G01 X56.8325 Y2.1455 
G00 Z2.5400 
G00 X59.3725 Y2.1455 
G01 Z-0.1000 F254.00 
G01 X59.3725 Y2.9345 F508.00 
G01 X58.8145 Y3.4925 
G01 X58.0255 Y3.4925 
G01 X57.4675 Y2.9345 
G01 X57.4675 Y2.1455 
G01 X58.0255 Y1.5875 
G01 X58.8145 Y1.5875 
G01 X59.3725 Y2.1455 
G00 Z2.5400 
G00 X61.9125 Y2.1455 
G01 Z-0.1000 F254.00 
G01 X61.9125 Y2.9345 F508.00 
G01 X61.3545 Y3.4925 
G01 X60.5655 Y3.4925 
G01 X60.0075 Y2.9345 
G01 X60.0075 Y2.1455 
G01 X60.5655 Y1.5875 
G01 X61.3545 Y1.5875 
G01 X61.9125 Y2.1455 
G00 Z2.5400 
G00 X64.4525 Y2.1455 
G01 Z-0.1000 F254.00 
G01 X64.4525 Y2.9345 F508.00 
G01 X63.8945 Y3.4925 
G01 X63.1055 Y3.4925 
G01 X62.5475 Y2.9345 
G01 X62.5475 Y2.1455 
G01 X63.1055 Y1.5875 
G01 X63.8945 Y1.5875 
G01 X64.4525 Y2.1455 
G00 Z2.5400 
G00 X36.5125 Y2.1455 
G01 Z-0.1000 F254.00 
G01 X36.5125 Y2.9345 F508.00 
G01 X35.9545 Y3.4925 
G01 X35.1655 Y3.4925 
G01 X34.6075 Y2.9345 
G01 X34.6075 Y2.1455 
G01 X35.1655 Y1.5875 
G01 X35.9545 Y1.5875 
G01 X36.5125 Y2.1455 
G00 Z2.5400 
G00 X33.9725 Y2.1455 
G01 Z-0.1000 F254.00 
G01 X33.9725 Y2.9345 F508.00 
G01 X33.4145 Y3.4925 
G01 X32.6255 Y3.4925 
G01 X32.0675 Y2.9345 
G01 X32.0675 Y2.1455 
G01 X32.6255 Y1.5875 
G01 X33.4145 Y1.5875 
G01 X33.9725 Y2.1455 
G00 Z2.5400 
G00 X19.7485 Y50.4055 
G01 Z-0.1000 F254.00 
G01 X19.7485 Y51.1945 F508.00 
G01 X19.1905 Y51.7525 
G01 X18.4015 Y51.7525 
G01 X17.8435 Y51.1945 
G01 X17.8435 Y50.4055 
G01 X18.2753 Y49.9737 
G01 X18.2753 Y46.5404 
G01 X18.3108 Y46.4080 
G01 X18.3793 Y46.2893 
G01 X20.0003 Y44.6683 
G01 X20.1190 Y44.5998 
G01 X20.2514 Y44.5643 
G01 X23.2793 Y44.5643 
G01 X24.2443 Y43.5993 
G01 X24.2443 Y21.1707 
G01 X21.1733 Y18.0997 
G01 X21.1048 Y17.9810 
G01 X21.0693 Y17.8485 
G01 X21.0693 Y11.3614 
G01 X21.1048 Y11.2290 
G01 X21.1733 Y11.1103 
G01 X21.2703 Y11.0133 
G01 X23.8103 Y8.4733 
G01 X23.9290 Y8.4048 
G01 X24.0614 Y8.3693 
G01 X25.8370 Y8.3693 
G01 X25.8623 Y8.3314 
G01 X25.9844 Y8.2093 
G01 X26.1279 Y8.1134 
G01 X26.2874 Y8.0474 
G01 X26.4567 Y8.0137 
G01 X28.1533 Y8.0137 
G01 X28.3226 Y8.0474 
G01 X28.4821 Y8.1134 
G01 X28.6256 Y8.2093 
G01 X28.7477 Y8.3314 
G01 X28.8436 Y8.4749 
G01 X28.9096 Y8.6344 
G01 X28.9433 Y8.8037 
G01 X28.9433 Y8.9763 
G01 X28.9096 Y9.1456 
G01 X28.8436 Y9.3051 
G01 X28.7477 Y9.4486 
G01 X28.6256 Y9.5707 
G01 X28.4821 Y9.6666 
G01 X28.3226 Y9.7326 
G01 X28.1533 Y9.7663 
G01 X26.4567 Y9.7663 
G01 X26.2874 Y9.7326 
G01 X26.1279 Y9.6666 
G01 X25.9844 Y9.5707 
G01 X25.8623 Y9.4486 
G01 X25.8370 Y9.4107 
G01 X24.3457 Y9.4107 
G01 X22.1107 Y11.6457 
G01 X22.1107 Y17.5643 
G01 X25.1817 Y20.6353 
G01 X25.2502 Y20.7540 
G01 X25.2857 Y20.8864 
G01 X25.2857 Y43.8835 
G01 X25.2502 Y44.0160 
G01 X25.1817 Y44.1347 
G01 X23.9117 Y45.4047 
G01 X23.8147 Y45.5017 
G01 X23.6960 Y45.5702 
G01 X23.5636 Y45.6057 
G01 X20.5357 Y45.6057 
G01 X19.3167 Y46.8247 
G01 X19.3167 Y49.9737 
G01 X19.7485 Y50.4055 
G00 Z2.5400 
G00 X31.4325 Y2.1455 
G01 Z-0.1000 F254.00 
G01 X31.4325 Y2.9345 F508.00 
G01 X30.8745 Y3.4925 
G01 X30.0855 Y3.4925 
G01 X29.5275 Y2.9345 
G01 X29.5275 Y2.1455 
G01 X30.0855 Y1.5875 
G01 X30.8745 Y1.5875 
G01 X31.4325 Y2.1455 
G00 Z2.5400 
G00 X28.8925 Y2.1455 
G01 Z-0.1000 F254.00 
G01 X28.8925 Y2.9345 F508.00 
G01 X28.3345 Y3.4925 
G01 X27.5455 Y3.4925 
G01 X26.9875 Y2.9345 
G01 X26.9875 Y2.1455 
G01 X27.5455 Y1.5875 
G01 X28.3345 Y1.5875 
G01 X28.8925 Y2.1455 
G00 Z2.5400 
G00 X18.5167 Y35.0647 
G01 Z-0.1000 F254.00 
G01 X17.0433 Y35.0647 F508.00 
G01 X16.8936 Y35.0349 
G01 X16.7526 Y34.9765 
G01 X16.6258 Y34.8917 
G01 X16.5447 Y34.8107 
G01 X14.1857 Y34.8107 
G01 X13.8557 Y35.1407 
G01 X13.8557 Y36.2636 
G01 X13.8202 Y36.3960 
G01 X13.7517 Y36.5147 
G01 X13.1167 Y37.1497 
G01 X13.0197 Y37.2467 
G01 X12.9010 Y37.3152 
G01 X12.7686 Y37.3507 
G01 X12.2630 Y37.3507 
G01 X12.2377 Y37.3886 
G01 X12.1156 Y37.5107 
G01 X11.9721 Y37.6066 
G01 X11.8126 Y37.6726 
G01 X11.6433 Y37.7063 
G01 X9.9467 Y37.7063 
G01 X9.7774 Y37.6726 
G01 X9.6179 Y37.6066 
G01 X9.4744 Y37.5107 
G01 X9.3523 Y37.3886 
G01 X9.2564 Y37.2451 
G01 X9.1904 Y37.0856 
G01 X9.1567 Y36.9163 
G01 X9.1567 Y36.7437 
G01 X9.1904 Y36.5744 
G01 X9.2564 Y36.4149 
G01 X9.3523 Y36.2714 
G01 X9.4744 Y36.1493 
G01 X9.6179 Y36.0534 
G01 X9.7774 Y35.9874 
G01 X9.9467 Y35.9537 
G01 X11.6433 Y35.9537 
G01 X11.8126 Y35.9874 
G01 X11.9721 Y36.0534 
G01 X12.1156 Y36.1493 
G01 X12.2377 Y36.2714 
G01 X12.2630 Y36.3093 
G01 X12.4843 Y36.3093 
G01 X12.8143 Y35.9793 
G01 X12.8143 Y34.8564 
G01 X12.8498 Y34.7240 
G01 X12.9183 Y34.6053 
G01 X13.0153 Y34.5083 
G01 X13.5533 Y33.9703 
G01 X13.6503 Y33.8733 
G01 X13.7690 Y33.8048 
G01 X13.9014 Y33.7693 
G01 X16.5447 Y33.7693 
G01 X16.6258 Y33.6883 
G01 X16.7526 Y33.6035 
G01 X16.8936 Y33.5451 
G01 X17.0433 Y33.5153 
G01 X18.5167 Y33.5153 
G01 X18.6664 Y33.5451 
G01 X18.8074 Y33.6035 
G01 X18.9342 Y33.6883 
G01 X19.0153 Y33.7693 
G01 X20.9897 Y33.7693 
G01 X21.0708 Y33.6883 
G01 X21.1976 Y33.6035 
G01 X21.3386 Y33.5451 
G01 X21.4883 Y33.5153 
G01 X22.9617 Y33.5153 
G01 X23.1114 Y33.5451 
G01 X23.2524 Y33.6035 
G01 X23.3792 Y33.6883 
G01 X23.4871 Y33.7962 
G01 X23.5719 Y33.9230 
G01 X23.6303 Y34.0640 
G01 X23.6601 Y34.2137 
G01 X23.6601 Y34.3663 
G01 X23.6303 Y34.5160 
G01 X23.5719 Y34.6570 
G01 X23.4871 Y34.7838 
G01 X23.3792 Y34.8917 
G01 X23.2524 Y34.9765 
G01 X23.1114 Y35.0349 
G01 X22.9617 Y35.0647 
G01 X21.4883 Y35.0647 
G01 X21.3386 Y35.0349 
G01 X21.1976 Y34.9765 
G01 X21.0708 Y34.8917 
G01 X20.9897 Y34.8107 
G01 X19.0153 Y34.8107 
G01 X18.9342 Y34.8917 
G01 X18.8074 Y34.9765 
G01 X18.6664 Y35.0349 
G01 X18.5167 Y35.0647 
G00 Z2.5400 
G00 X18.5167 Y22.3647 
G01 Z-0.1000 F254.00 
G01 X17.0433 Y22.3647 F508.00 
G01 X16.8936 Y22.3349 
G01 X16.7526 Y22.2765 
G01 X16.6258 Y22.1917 
G01 X16.5178 Y22.0838 
G01 X16.4331 Y21.9570 
G01 X16.3747 Y21.8160 
G01 X16.3449 Y21.6663 
G01 X16.3449 Y21.5137 
G01 X16.3747 Y21.3640 
G01 X16.4331 Y21.2230 
G01 X16.5178 Y21.0962 
G01 X16.6258 Y20.9883 
G01 X16.7526 Y20.9035 
G01 X16.8936 Y20.8451 
G01 X17.0433 Y20.8153 
G01 X17.2593 Y20.8153 
G01 X17.2593 Y20.3363 
G01 X17.2486 Y20.3329 
G01 X17.0545 Y20.2340 
G01 X16.8782 Y20.1059 
G01 X16.7241 Y19.9518 
G01 X16.5960 Y19.7755 
G01 X16.4971 Y19.5814 
G01 X16.4298 Y19.3742 
G01 X16.3957 Y19.1589 
G01 X16.3957 Y18.9411 
G01 X16.4298 Y18.7258 
G01 X16.4971 Y18.5186 
G01 X16.5960 Y18.3245 
G01 X16.7241 Y18.1482 
G01 X16.8782 Y17.9941 
G01 X17.0545 Y17.8660 
G01 X17.2486 Y17.7671 
G01 X17.2593 Y17.7636 
G01 X17.2593 Y10.3757 
G01 X16.2943 Y9.4107 
G01 X12.2630 Y9.4107 
G01 X12.2377 Y9.4486 
G01 X12.1156 Y9.5707 
G01 X11.9721 Y9.6666 
G01 X11.8126 Y9.7326 
G01 X11.6433 Y9.7663 
G01 X9.9467 Y9.7663 
G01 X9.7774 Y9.7326 
G01 X9.6179 Y9.6666 
G01 X9.4744 Y9.5707 
G01 X9.3523 Y9.4486 
G01 X9.2564 Y9.3051 
G01 X9.1904 Y9.1456 
G01 X9.1567 Y8.9763 
G01 X9.1567 Y8.8037 
G01 X9.1904 Y8.6344 
G01 X9.2564 Y8.4749 
G01 X9.3523 Y8.3314 
G01 X9.4744 Y8.2093 
G01 X9.6179 Y8.1134 
G01 X9.7774 Y8.0474 
G01 X9.9467 Y8.0137 
G01 X11.6433 Y8.0137 
G01 X11.8126 Y8.0474 
G01 X11.9721 Y8.1134 
G01 X12.1156 Y8.2093 
G01 X12.2377 Y8.3314 
G01 X12.2630 Y8.3693 
G01 X16.5785 Y8.3693 
G01 X16.7110 Y8.4048 
G01 X16.8297 Y8.4733 
G01 X16.9267 Y8.5703 
G01 X18.0997 Y9.7433 
G01 X18.1967 Y9.8403 
G01 X18.2652 Y9.9590 
G01 X18.3007 Y10.0914 
G01 X18.3007 Y17.7636 
G01 X18.3114 Y17.7671 
G01 X18.5055 Y17.8660 
G01 X18.6818 Y17.9941 
G01 X18.8359 Y18.1482 
G01 X18.9640 Y18.3245 
G01 X19.0629 Y18.5186 
G01 X19.1302 Y18.7258 
G01 X19.1643 Y18.9411 
G01 X19.1643 Y19.1589 
G01 X19.1302 Y19.3742 
G01 X19.0629 Y19.5814 
G01 X18.9640 Y19.7755 
G01 X18.8359 Y19.9518 
G01 X18.6818 Y20.1059 
G01 X18.5055 Y20.2340 
G01 X18.3114 Y20.3329 
G01 X18.3007 Y20.3363 
G01 X18.3007 Y20.8153 
G01 X18.5167 Y20.8153 
G01 X18.6664 Y20.8451 
G01 X18.8074 Y20.9035 
G01 X18.9342 Y20.9883 
G01 X19.0421 Y21.0962 
G01 X19.1269 Y21.2230 
G01 X19.1853 Y21.3640 
G01 X19.2151 Y21.5137 
G01 X19.2151 Y21.6663 
G01 X19.1853 Y21.8160 
G01 X19.1269 Y21.9570 
G01 X19.0421 Y22.0838 
G01 X18.9342 Y22.1917 
G01 X18.8074 Y22.2765 
G01 X18.6664 Y22.3349 
G01 X18.5167 Y22.3647 
G00 Z2.5400 
G00 X9.9467 Y46.1137 
G01 Z-0.1000 F254.00 
G01 X11.5699 Y46.1137 F508.00 
G01 X12.8143 Y44.8693 
G01 X12.8143 Y43.7464 
G01 X12.8498 Y43.6140 
G01 X12.9183 Y43.4953 
G01 X14.7193 Y41.6943 
G01 X14.7193 Y39.9364 
G01 X14.7548 Y39.8040 
G01 X14.8233 Y39.6853 
G01 X15.4583 Y39.0503 
G01 X15.5553 Y38.9533 
G01 X15.6740 Y38.8848 
G01 X15.8064 Y38.8493 
G01 X16.5447 Y38.8493 
G01 X16.6258 Y38.7683 
G01 X16.7526 Y38.6835 
G01 X16.8936 Y38.6251 
G01 X17.0433 Y38.5953 
G01 X18.5167 Y38.5953 
G01 X18.6664 Y38.6251 
G01 X18.8074 Y38.6835 
G01 X18.9342 Y38.7683 
G01 X19.0153 Y38.8493 
G01 X20.9897 Y38.8493 
G01 X21.0708 Y38.7683 
G01 X21.1976 Y38.6835 
G01 X21.3386 Y38.6251 
G01 X21.4883 Y38.5953 
G01 X22.9617 Y38.5953 
G01 X23.1114 Y38.6251 
G01 X23.2524 Y38.6835 
G01 X23.3792 Y38.7683 
G01 X23.4871 Y38.8762 
G01 X23.5719 Y39.0030 
G01 X23.6303 Y39.1440 
G01 X23.6601 Y39.2937 
G01 X23.6601 Y39.4463 
G01 X23.6303 Y39.5960 
G01 X23.5719 Y39.7370 
G01 X23.4871 Y39.8638 
G01 X23.3792 Y39.9717 
G01 X23.2524 Y40.0565 
G01 X23.1114 Y40.1149 
G01 X22.9617 Y40.1447 
G01 X21.4883 Y40.1447 
G01 X21.3386 Y40.1149 
G01 X21.1976 Y40.0565 
G01 X21.0708 Y39.9717 
G01 X20.9897 Y39.8907 
G01 X19.0153 Y39.8907 
G01 X18.9342 Y39.9717 
G01 X18.8074 Y40.0565 
G01 X18.6664 Y40.1149 
G01 X18.5167 Y40.1447 
G01 X17.0433 Y40.1447 
G01 X16.8936 Y40.1149 
G01 X16.7526 Y40.0565 
G01 X16.6258 Y39.9717 
G01 X16.5447 Y39.8907 
G01 X16.0907 Y39.8907 
G01 X15.7607 Y40.2207 
G01 X15.7607 Y41.9785 
G01 X15.7252 Y42.1110 
G01 X15.6567 Y42.2297 
G01 X15.5597 Y42.3267 
G01 X13.8557 Y44.0307 
G01 X13.8557 Y45.1536 
G01 X13.8202 Y45.2860 
G01 X13.7517 Y45.4047 
G01 X13.6547 Y45.5017 
G01 X12.4033 Y46.7530 
G01 X12.4333 Y46.9037 
G01 X12.4333 Y47.0763 
G01 X12.3996 Y47.2456 
G01 X12.3336 Y47.4051 
G01 X12.2377 Y47.5486 
G01 X12.1156 Y47.6707 
G01 X11.9721 Y47.7666 
G01 X11.8126 Y47.8326 
G01 X11.6433 Y47.8663 
G01 X9.9467 Y47.8663 
G01 X9.7774 Y47.8326 
G01 X9.6179 Y47.7666 
G01 X9.4744 Y47.6707 
G01 X9.3523 Y47.5486 
G01 X9.2564 Y47.4051 
G01 X9.1904 Y47.2456 
G01 X9.1567 Y47.0763 
G01 X9.1567 Y46.9037 
G01 X9.1904 Y46.7344 
G01 X9.2564 Y46.5749 
G01 X9.3523 Y46.4314 
G01 X9.4744 Y46.3093 
G01 X9.6179 Y46.2134 
G01 X9.7774 Y46.1474 
G01 X9.9467 Y46.1137 
G00 Z2.5400 
G00 X9.9467 Y41.0337 
G01 Z-0.1000 F254.00 
G01 X11.6433 Y41.0337 F508.00 
G01 X11.8126 Y41.0674 
G01 X11.9721 Y41.1334 
G01 X12.1156 Y41.2293 
G01 X12.2212 Y41.3349 
G01 X13.1318 Y40.4243 
G01 X13.1318 Y38.0314 
G01 X13.1673 Y37.8990 
G01 X13.2358 Y37.7803 
G01 X13.3328 Y37.6833 
G01 X14.5058 Y36.5103 
G01 X14.6028 Y36.4133 
G01 X14.7215 Y36.3448 
G01 X14.8539 Y36.3093 
G01 X16.5447 Y36.3093 
G01 X16.6258 Y36.2283 
G01 X16.7526 Y36.1435 
G01 X16.8936 Y36.0851 
G01 X17.0433 Y36.0553 
G01 X18.5167 Y36.0553 
G01 X18.6664 Y36.0851 
G01 X18.8074 Y36.1435 
G01 X18.9342 Y36.2283 
G01 X19.0153 Y36.3093 
G01 X20.9897 Y36.3093 
G01 X21.0708 Y36.2283 
G01 X21.1976 Y36.1435 
G01 X21.3386 Y36.0851 
G01 X21.4883 Y36.0553 
G01 X22.9617 Y36.0553 
G01 X23.1114 Y36.0851 
G01 X23.2524 Y36.1435 
G01 X23.3792 Y36.2283 
G01 X23.4871 Y36.3362 
G01 X23.5719 Y36.4630 
G01 X23.6303 Y36.6040 
G01 X23.6601 Y36.7537 
G01 X23.6601 Y36.9063 
G01 X23.6303 Y37.0560 
G01 X23.5719 Y37.1970 
G01 X23.4871 Y37.3238 
G01 X23.3792 Y37.4317 
G01 X23.2524 Y37.5165 
G01 X23.1114 Y37.5749 
G01 X22.9617 Y37.6047 
G01 X21.4883 Y37.6047 
G01 X21.3386 Y37.5749 
G01 X21.1976 Y37.5165 
G01 X21.0708 Y37.4317 
G01 X20.9897 Y37.3507 
G01 X19.0153 Y37.3507 
G01 X18.9342 Y37.4317 
G01 X18.8074 Y37.5165 
G01 X18.6664 Y37.5749 
G01 X18.5167 Y37.6047 
G01 X17.0433 Y37.6047 
G01 X16.8936 Y37.5749 
G01 X16.7526 Y37.5165 
G01 X16.6258 Y37.4317 
G01 X16.5447 Y37.3507 
G01 X15.1382 Y37.3507 
G01 X14.1732 Y38.3157 
G01 X14.1732 Y40.7086 
G01 X14.1377 Y40.8410 
G01 X14.0692 Y40.9597 
G01 X12.7992 Y42.2297 
G01 X12.7022 Y42.3267 
G01 X12.5835 Y42.3952 
G01 X12.4511 Y42.4307 
G01 X12.2630 Y42.4307 
G01 X12.2377 Y42.4686 
G01 X12.1156 Y42.5907 
G01 X11.9721 Y42.6866 
G01 X11.8126 Y42.7526 
G01 X11.6433 Y42.7863 
G01 X9.9467 Y42.7863 
G01 X9.7774 Y42.7526 
G01 X9.6179 Y42.6866 
G01 X9.4744 Y42.5907 
G01 X9.3523 Y42.4686 
G01 X9.2564 Y42.3251 
G01 X9.1904 Y42.1656 
G01 X9.1567 Y41.9963 
G01 X9.1567 Y41.8237 
G01 X9.1904 Y41.6544 
G01 X9.2564 Y41.4949 
G01 X9.3523 Y41.3514 
G01 X9.4744 Y41.2293 
G01 X9.6179 Y41.1334 
G01 X9.7774 Y41.0674 
G01 X9.9467 Y41.0337 
G00 Z2.5400 
G00 X9.9467 Y23.2537 
G01 Z-0.1000 F254.00 
G01 X11.6433 Y23.2537 F508.00 
G01 X11.8126 Y23.2874 
G01 X11.9721 Y23.3534 
G01 X12.1156 Y23.4493 
G01 X12.2377 Y23.5714 
G01 X12.3336 Y23.7149 
G01 X12.3996 Y23.8744 
G01 X12.4333 Y24.0437 
G01 X12.4333 Y24.2163 
G01 X12.3996 Y24.3856 
G01 X12.3336 Y24.5451 
G01 X12.2377 Y24.6886 
G01 X12.1156 Y24.8107 
G01 X11.9721 Y24.9066 
G01 X11.8126 Y24.9726 
G01 X11.6433 Y25.0063 
G01 X11.3157 Y25.0063 
G01 X11.3157 Y25.1843 
G01 X14.8207 Y28.6893 
G01 X16.5447 Y28.6893 
G01 X16.6258 Y28.6083 
G01 X16.7526 Y28.5235 
G01 X16.8936 Y28.4651 
G01 X17.0433 Y28.4353 
G01 X18.5167 Y28.4353 
G01 X18.6664 Y28.4651 
G01 X18.8074 Y28.5235 
G01 X18.9342 Y28.6083 
G01 X19.0153 Y28.6893 
G01 X20.9897 Y28.6893 
G01 X21.0708 Y28.6083 
G01 X21.1976 Y28.5235 
G01 X21.3386 Y28.4651 
G01 X21.4883 Y28.4353 
G01 X22.9617 Y28.4353 
G01 X23.1114 Y28.4651 
G01 X23.2524 Y28.5235 
G01 X23.3792 Y28.6083 
G01 X23.4871 Y28.7162 
G01 X23.5719 Y28.8430 
G01 X23.6303 Y28.9840 
G01 X23.6601 Y29.1337 
G01 X23.6601 Y29.2863 
G01 X23.6303 Y29.4360 
G01 X23.5719 Y29.5770 
G01 X23.4871 Y29.7038 
G01 X23.3792 Y29.8117 
G01 X23.2524 Y29.8965 
G01 X23.1114 Y29.9549 
G01 X22.9617 Y29.9847 
G01 X21.4883 Y29.9847 
G01 X21.3386 Y29.9549 
G01 X21.1976 Y29.8965 
G01 X21.0708 Y29.8117 
G01 X20.9897 Y29.7307 
G01 X19.0153 Y29.7307 
G01 X18.9342 Y29.8117 
G01 X18.8074 Y29.8965 
G01 X18.6664 Y29.9549 
G01 X18.5167 Y29.9847 
G01 X17.0433 Y29.9847 
G01 X16.8936 Y29.9549 
G01 X16.7526 Y29.8965 
G01 X16.6258 Y29.8117 
G01 X16.5447 Y29.7307 
G01 X14.5364 Y29.7307 
G01 X14.4040 Y29.6952 
G01 X14.2853 Y29.6267 
G01 X14.1883 Y29.5297 
G01 X10.4753 Y25.8167 
G01 X10.3783 Y25.7197 
G01 X10.3098 Y25.6010 
G01 X10.2743 Y25.4686 
G01 X10.2743 Y25.0063 
G01 X9.9467 Y25.0063 
G01 X9.7774 Y24.9726 
G01 X9.6179 Y24.9066 
G01 X9.4744 Y24.8107 
G01 X9.3523 Y24.6886 
G01 X9.2564 Y24.5451 
G01 X9.1904 Y24.3856 
G01 X9.1567 Y24.2163 
G01 X9.1567 Y24.0437 
G01 X9.1904 Y23.8744 
G01 X9.2564 Y23.7149 
G01 X9.3523 Y23.5714 
G01 X9.4744 Y23.4493 
G01 X9.6179 Y23.3534 
G01 X9.7774 Y23.2874 
G01 X9.9467 Y23.2537 
G00 Z2.5400 
G00 X28.1533 Y14.8463 
G01 Z-0.1000 F254.00 
G01 X26.4567 Y14.8463 F508.00 
G01 X26.2874 Y14.8126 
G01 X26.1279 Y14.7466 
G01 X25.9844 Y14.6507 
G01 X25.8623 Y14.5286 
G01 X25.7664 Y14.3851 
G01 X25.7004 Y14.2256 
G01 X25.6667 Y14.0563 
G01 X25.6667 Y13.8837 
G01 X25.7004 Y13.7144 
G01 X25.7664 Y13.5549 
G01 X25.8623 Y13.4114 
G01 X25.9844 Y13.2893 
G01 X26.1279 Y13.1934 
G01 X26.2874 Y13.1274 
G01 X26.4567 Y13.0937 
G01 X28.1533 Y13.0937 
G01 X28.3226 Y13.1274 
G01 X28.4821 Y13.1934 
G01 X28.6256 Y13.2893 
G01 X28.7477 Y13.4114 
G01 X28.8436 Y13.5549 
G01 X28.9096 Y13.7144 
G01 X28.9433 Y13.8837 
G01 X28.9433 Y14.0563 
G01 X28.9096 Y14.2256 
G01 X28.8436 Y14.3851 
G01 X28.7477 Y14.5286 
G01 X28.6256 Y14.6507 
G01 X28.4821 Y14.7466 
G01 X28.3226 Y14.8126 
G01 X28.1533 Y14.8463 
G00 Z2.5400 
G00 X28.1533 Y12.3063 
G01 Z-0.1000 F254.00 
G01 X26.4567 Y12.3063 F508.00 
G01 X26.2874 Y12.2726 
G01 X26.1279 Y12.2066 
G01 X25.9844 Y12.1107 
G01 X25.8623 Y11.9886 
G01 X25.8370 Y11.9507 
G01 X24.9807 Y11.9507 
G01 X24.0157 Y12.9157 
G01 X24.0157 Y16.9293 
G01 X27.7217 Y20.6353 
G01 X27.7902 Y20.7540 
G01 X27.8257 Y20.8864 
G01 X27.8257 Y44.5186 
G01 X27.7902 Y44.6510 
G01 X27.7217 Y44.7697 
G01 X27.6247 Y44.8667 
G01 X25.0847 Y47.4067 
G01 X24.9660 Y47.4752 
G01 X24.8336 Y47.5107 
G01 X22.4407 Y47.5107 
G01 X21.8567 Y48.0947 
G01 X21.8567 Y49.9737 
G01 X22.2885 Y50.4055 
G01 X22.2885 Y51.1945 
G01 X21.7305 Y51.7525 
G01 X20.9415 Y51.7525 
G01 X20.3835 Y51.1945 
G01 X20.3835 Y50.4055 
G01 X20.8153 Y49.9737 
G01 X20.8153 Y47.8104 
G01 X20.8508 Y47.6780 
G01 X20.9193 Y47.5593 
G01 X21.8083 Y46.6703 
G01 X21.9053 Y46.5733 
G01 X22.0240 Y46.5048 
G01 X22.1564 Y46.4693 
G01 X24.5493 Y46.4693 
G01 X26.7843 Y44.2343 
G01 X26.7843 Y21.1707 
G01 X23.1753 Y17.5617 
G01 X23.0783 Y17.4647 
G01 X23.0098 Y17.3460 
G01 X22.9743 Y17.2136 
G01 X22.9743 Y12.6314 
G01 X23.0098 Y12.4990 
G01 X23.0783 Y12.3803 
G01 X24.3483 Y11.1103 
G01 X24.4453 Y11.0133 
G01 X24.5640 Y10.9448 
G01 X24.6964 Y10.9093 
G01 X25.8370 Y10.9093 
G01 X25.8623 Y10.8714 
G01 X25.9844 Y10.7493 
G01 X26.1279 Y10.6534 
G01 X26.2874 Y10.5874 
G01 X26.4567 Y10.5537 
G01 X28.1533 Y10.5537 
G01 X28.3226 Y10.5874 
G01 X28.4821 Y10.6534 
G01 X28.6256 Y10.7493 
G01 X28.7477 Y10.8714 
G01 X28.8436 Y11.0149 
G01 X28.9096 Y11.1744 
G01 X28.9433 Y11.3437 
G01 X28.9433 Y11.5163 
G01 X28.9096 Y11.6856 
G01 X28.8436 Y11.8451 
G01 X28.7477 Y11.9886 
G01 X28.6256 Y12.1107 
G01 X28.4821 Y12.2066 
G01 X28.3226 Y12.2726 
G01 X28.1533 Y12.3063 
G00 Z2.5400 
G00 X35.7733 Y41.5163 
G01 Z-0.1000 F254.00 
G01 X34.0767 Y41.5163 F508.00 
G01 X33.9074 Y41.4826 
G01 X33.7479 Y41.4166 
G01 X33.6044 Y41.3207 
G01 X33.4823 Y41.1986 
G01 X33.3864 Y41.0551 
G01 X33.3204 Y40.8956 
G01 X33.2867 Y40.7263 
G01 X33.2867 Y40.5537 
G01 X33.3204 Y40.3844 
G01 X33.3864 Y40.2249 
G01 X33.4823 Y40.0814 
G01 X33.6044 Y39.9593 
G01 X33.7479 Y39.8634 
G01 X33.9074 Y39.7974 
G01 X34.0767 Y39.7637 
G01 X35.7733 Y39.7637 
G01 X35.9426 Y39.7974 
G01 X36.1021 Y39.8634 
G01 X36.2456 Y39.9593 
G01 X36.3677 Y40.0814 
G01 X36.3930 Y40.1193 
G01 X46.4235 Y40.1193 
G01 X46.5560 Y40.1548 
G01 X46.6747 Y40.2233 
G01 X46.7717 Y40.3203 
G01 X48.6767 Y42.2253 
G01 X48.7452 Y42.3440 
G01 X48.7807 Y42.4764 
G01 X48.7807 Y49.9737 
G01 X49.2125 Y50.4055 
G01 X49.2125 Y51.1945 
G01 X48.6545 Y51.7525 
G01 X47.8655 Y51.7525 
G01 X47.3075 Y51.1945 
G01 X47.3075 Y50.4055 
G01 X47.7393 Y49.9737 
G01 X47.7393 Y42.7607 
G01 X46.1393 Y41.1607 
G01 X36.3930 Y41.1607 
G01 X36.3677 Y41.1986 
G01 X36.2456 Y41.3207 
G01 X36.1021 Y41.4166 
G01 X35.9426 Y41.4826 
G01 X35.7733 Y41.5163 
G00 Z2.5400 
G00 X61.8702 Y9.8254 
G01 Z-0.1000 F254.00 
G01 X63.8598 Y9.8254 F508.00 
G01 X64.0549 Y9.8642 
G01 X64.2386 Y9.9403 
G01 X64.4040 Y10.0508 
G01 X64.4389 Y10.0857 
G01 X65.5188 Y10.0857 
G01 X65.6636 Y10.1145 
G01 X65.7999 Y10.1710 
G01 X65.9227 Y10.2530 
G01 X67.1526 Y11.4830 
G01 X67.2570 Y11.5873 
G01 X67.3390 Y11.7101 
G01 X67.3955 Y11.8464 
G01 X67.4243 Y11.9912 
G01 X67.4243 Y21.0288 
G01 X67.3955 Y21.1736 
G01 X67.3390 Y21.3099 
G01 X67.2570 Y21.4327 
G01 X65.9870 Y22.7026 
G01 X65.8826 Y22.8070 
G01 X65.7599 Y22.8890 
G01 X65.6236 Y22.9455 
G01 X65.4788 Y22.9743 
G01 X64.4789 Y22.9743 
G01 X64.4040 Y23.0492 
G01 X64.2386 Y23.1597 
G01 X64.0549 Y23.2358 
G01 X63.8598 Y23.2746 
G01 X61.8702 Y23.2746 
G01 X61.6751 Y23.2358 
G01 X61.4914 Y23.1597 
G01 X61.3260 Y23.0492 
G01 X61.1854 Y22.9086 
G01 X61.0749 Y22.7432 
G01 X60.9988 Y22.5595 
G01 X60.9600 Y22.3644 
G01 X60.9600 Y22.1656 
G01 X60.9988 Y21.9705 
G01 X61.0749 Y21.7868 
G01 X61.1854 Y21.6214 
G01 X61.3260 Y21.4808 
G01 X61.4914 Y21.3703 
G01 X61.6751 Y21.2942 
G01 X61.8702 Y21.2553 
G01 X63.8598 Y21.2553 
G01 X64.0549 Y21.2942 
G01 X64.2386 Y21.3703 
G01 X64.3964 Y21.4757 
G01 X65.0946 Y21.4757 
G01 X65.9257 Y20.6446 
G01 X65.9257 Y12.3754 
G01 X65.1346 Y11.5843 
G01 X64.4389 Y11.5843 
G01 X64.4040 Y11.6192 
G01 X64.2386 Y11.7297 
G01 X64.0549 Y11.8058 
G01 X63.8598 Y11.8446 
G01 X61.8702 Y11.8446 
G01 X61.6751 Y11.8058 
G01 X61.4914 Y11.7297 
G01 X61.3260 Y11.6192 
G01 X61.1854 Y11.4786 
G01 X61.0749 Y11.3132 
G01 X60.9988 Y11.1295 
G01 X60.9600 Y10.9344 
G01 X60.9600 Y10.7356 
G01 X60.9988 Y10.5405 
G01 X61.0749 Y10.3567 
G01 X61.1854 Y10.1914 
G01 X61.3260 Y10.0508 
G01 X61.4914 Y9.9403 
G01 X61.6751 Y9.8642 
G01 X61.8702 Y9.8254 
G00 Z2.5400 
G00 X22.9617 Y24.9047 
G01 Z-0.1000 F254.00 
G01 X21.4883 Y24.9047 F508.00 
G01 X21.3386 Y24.8749 
G01 X21.1976 Y24.8165 
G01 X21.0708 Y24.7317 
G01 X20.9897 Y24.6507 
G01 X19.0153 Y24.6507 
G01 X18.9342 Y24.7317 
G01 X18.8074 Y24.8165 
G01 X18.6664 Y24.8749 
G01 X18.5167 Y24.9047 
G01 X17.0433 Y24.9047 
G01 X16.8936 Y24.8749 
G01 X16.7526 Y24.8165 
G01 X16.6258 Y24.7317 
G01 X16.5447 Y24.6507 
G01 X16.4414 Y24.6507 
G01 X16.3090 Y24.6152 
G01 X16.1903 Y24.5467 
G01 X16.0933 Y24.4497 
G01 X14.8233 Y23.1797 
G01 X14.7548 Y23.0610 
G01 X14.7193 Y22.9286 
G01 X14.7193 Y15.4557 
G01 X13.7543 Y14.4907 
G01 X12.2630 Y14.4907 
G01 X12.2377 Y14.5286 
G01 X12.1156 Y14.6507 
G01 X11.9721 Y14.7466 
G01 X11.8126 Y14.8126 
G01 X11.6433 Y14.8463 
G01 X9.9467 Y14.8463 
G01 X9.7774 Y14.8126 
G01 X9.6179 Y14.7466 
G01 X9.4744 Y14.6507 
G01 X9.3523 Y14.5286 
G01 X9.2564 Y14.3851 
G01 X9.1904 Y14.2256 
G01 X9.1567 Y14.0563 
G01 X9.1567 Y13.8837 
G01 X9.1904 Y13.7144 
G01 X9.2564 Y13.5549 
G01 X9.3523 Y13.4114 
G01 X9.4744 Y13.2893 
G01 X9.6179 Y13.1934 
G01 X9.7774 Y13.1274 
G01 X9.9467 Y13.0937 
G01 X11.6433 Y13.0937 
G01 X11.8126 Y13.1274 
G01 X11.9721 Y13.1934 
G01 X12.1156 Y13.2893 
G01 X12.2377 Y13.4114 
G01 X12.2630 Y13.4493 
G01 X14.0386 Y13.4493 
G01 X14.1710 Y13.4848 
G01 X14.2897 Y13.5533 
G01 X15.5597 Y14.8233 
G01 X15.6567 Y14.9203 
G01 X15.7252 Y15.0390 
G01 X15.7607 Y15.1714 
G01 X15.7607 Y22.6443 
G01 X16.6371 Y23.5207 
G01 X16.7526 Y23.4435 
G01 X16.8936 Y23.3851 
G01 X17.0433 Y23.3553 
G01 X18.5167 Y23.3553 
G01 X18.6664 Y23.3851 
G01 X18.8074 Y23.4435 
G01 X18.9342 Y23.5282 
G01 X19.0153 Y23.6093 
G01 X20.9897 Y23.6093 
G01 X21.0708 Y23.5282 
G01 X21.1976 Y23.4435 
G01 X21.3386 Y23.3851 
G01 X21.4883 Y23.3553 
G01 X22.9617 Y23.3553 
G01 X23.1114 Y23.3851 
G01 X23.2524 Y23.4435 
G01 X23.3792 Y23.5282 
G01 X23.4871 Y23.6362 
G01 X23.5719 Y23.7630 
G01 X23.6303 Y23.9040 
G01 X23.6601 Y24.0537 
G01 X23.6601 Y24.2063 
G01 X23.6303 Y24.3560 
G01 X23.5719 Y24.4970 
G01 X23.4871 Y24.6238 
G01 X23.3792 Y24.7317 
G01 X23.2524 Y24.8165 
G01 X23.1114 Y24.8749 
G01 X22.9617 Y24.9047 
G00 Z2.5400 
G00 X22.9617 Y32.5247 
G01 Z-0.1000 F254.00 
G01 X21.4883 Y32.5247 F508.00 
G01 X21.3386 Y32.4949 
G01 X21.1976 Y32.4365 
G01 X21.0708 Y32.3517 
G01 X20.9897 Y32.2707 
G01 X19.0153 Y32.2707 
G01 X18.9342 Y32.3517 
G01 X18.8074 Y32.4365 
G01 X18.6664 Y32.4949 
G01 X18.5167 Y32.5247 
G01 X17.0433 Y32.5247 
G01 X16.8936 Y32.4949 
G01 X16.7526 Y32.4365 
G01 X16.6258 Y32.3517 
G01 X16.5447 Y32.2707 
G01 X12.2630 Y32.2707 
G01 X12.2377 Y32.3086 
G01 X12.1156 Y32.4307 
G01 X11.9721 Y32.5266 
G01 X11.8126 Y32.5926 
G01 X11.6433 Y32.6263 
G01 X9.9467 Y32.6263 
G01 X9.7774 Y32.5926 
G01 X9.6179 Y32.5266 
G01 X9.4744 Y32.4307 
G01 X9.3523 Y32.3086 
G01 X9.2564 Y32.1651 
G01 X9.1904 Y32.0056 
G01 X9.1567 Y31.8363 
G01 X9.1567 Y31.6637 
G01 X9.1904 Y31.4944 
G01 X9.2564 Y31.3349 
G01 X9.3523 Y31.1914 
G01 X9.4744 Y31.0693 
G01 X9.6179 Y30.9734 
G01 X9.7774 Y30.9074 
G01 X9.9467 Y30.8737 
G01 X11.6433 Y30.8737 
G01 X11.8126 Y30.9074 
G01 X11.9721 Y30.9734 
G01 X12.1156 Y31.0693 
G01 X12.2377 Y31.1914 
G01 X12.2630 Y31.2293 
G01 X16.5447 Y31.2293 
G01 X16.6258 Y31.1483 
G01 X16.7526 Y31.0635 
G01 X16.8936 Y31.0051 
G01 X17.0433 Y30.9753 
G01 X18.5167 Y30.9753 
G01 X18.6664 Y31.0051 
G01 X18.8074 Y31.0635 
G01 X18.9342 Y31.1483 
G01 X19.0153 Y31.2293 
G01 X20.9897 Y31.2293 
G01 X21.0708 Y31.1483 
G01 X21.1976 Y31.0635 
G01 X21.3386 Y31.0051 
G01 X21.4883 Y30.9753 
G01 X22.9617 Y30.9753 
G01 X23.1114 Y31.0051 
G01 X23.2524 Y31.0635 
G01 X23.3792 Y31.1483 
G01 X23.4871 Y31.2562 
G01 X23.5719 Y31.3830 
G01 X23.6303 Y31.5240 
G01 X23.6601 Y31.6737 
G01 X23.6601 Y31.8263 
G01 X23.6303 Y31.9760 
G01 X23.5719 Y32.1170 
G01 X23.4871 Y32.2438 
G01 X23.3792 Y32.3517 
G01 X23.2524 Y32.4365 
G01 X23.1114 Y32.4949 
G01 X22.9617 Y32.5247 
G00 Z2.5400 
G00 X30.5817 Y22.3647 
G01 Z-0.1000 F254.00 
G01 X29.1083 Y22.3647 F508.00 
G01 X28.9586 Y22.3349 
G01 X28.8176 Y22.2765 
G01 X28.6908 Y22.1917 
G01 X28.5829 Y22.0838 
G01 X28.4981 Y21.9570 
G01 X28.4397 Y21.8160 
G01 X28.4099 Y21.6663 
G01 X28.4099 Y21.5137 
G01 X28.4397 Y21.3640 
G01 X28.4981 Y21.2230 
G01 X28.5829 Y21.0962 
G01 X28.6908 Y20.9883 
G01 X28.8176 Y20.9035 
G01 X28.9586 Y20.8451 
G01 X29.1083 Y20.8153 
G01 X29.3243 Y20.8153 
G01 X29.3243 Y20.3363 
G01 X29.3136 Y20.3329 
G01 X29.1195 Y20.2340 
G01 X28.9432 Y20.1059 
G01 X28.7891 Y19.9518 
G01 X28.6610 Y19.7755 
G01 X28.5621 Y19.5814 
G01 X28.4948 Y19.3742 
G01 X28.4607 Y19.1589 
G01 X28.4607 Y18.9411 
G01 X28.4948 Y18.7258 
G01 X28.5621 Y18.5186 
G01 X28.6610 Y18.3245 
G01 X28.7891 Y18.1482 
G01 X28.9432 Y17.9941 
G01 X29.1195 Y17.8660 
G01 X29.3136 Y17.7671 
G01 X29.5208 Y17.6998 
G01 X29.7361 Y17.6657 
G01 X29.9539 Y17.6657 
G01 X30.1692 Y17.6998 
G01 X30.3764 Y17.7671 
G01 X30.5705 Y17.8660 
G01 X30.7468 Y17.9941 
G01 X30.9009 Y18.1482 
G01 X31.0290 Y18.3245 
G01 X31.1279 Y18.5186 
G01 X31.1952 Y18.7258 
G01 X31.2293 Y18.9411 
G01 X31.2293 Y19.1589 
G01 X31.1952 Y19.3742 
G01 X31.1279 Y19.5814 
G01 X31.0290 Y19.7755 
G01 X30.9009 Y19.9518 
G01 X30.7468 Y20.1059 
G01 X30.5705 Y20.2340 
G01 X30.3764 Y20.3329 
G01 X30.3657 Y20.3363 
G01 X30.3657 Y20.8153 
G01 X30.5817 Y20.8153 
G01 X30.7314 Y20.8451 
G01 X30.8724 Y20.9035 
G01 X30.9992 Y20.9883 
G01 X31.1071 Y21.0962 
G01 X31.1919 Y21.2230 
G01 X31.2503 Y21.3640 
G01 X31.2801 Y21.5137 
G01 X31.2801 Y21.6663 
G01 X31.2503 Y21.8160 
G01 X31.1919 Y21.9570 
G01 X31.1071 Y22.0838 
G01 X30.9992 Y22.1917 
G01 X30.8724 Y22.2765 
G01 X30.7314 Y22.3349 
G01 X30.5817 Y22.3647 
G00 Z2.5400 
G00 X30.5817 Y29.9847 
G01 Z-0.1000 F254.00 
G01 X29.1083 Y29.9847 F508.00 
G01 X28.9586 Y29.9549 
G01 X28.8176 Y29.8965 
G01 X28.6908 Y29.8117 
G01 X28.5829 Y29.7038 
G01 X28.4981 Y29.5770 
G01 X28.4397 Y29.4360 
G01 X28.4099 Y29.2863 
G01 X28.4099 Y29.1337 
G01 X28.4397 Y28.9840 
G01 X28.4981 Y28.8430 
G01 X28.5829 Y28.7162 
G01 X28.6908 Y28.6083 
G01 X28.8176 Y28.5235 
G01 X28.9586 Y28.4651 
G01 X29.1083 Y28.4353 
G01 X30.5183 Y28.4353 
G01 X31.3333 Y27.6203 
G01 X31.4303 Y27.5233 
G01 X31.5490 Y27.4548 
G01 X31.6814 Y27.4193 
G01 X50.8685 Y27.4193 
G01 X51.0010 Y27.4548 
G01 X51.1197 Y27.5233 
G01 X56.1997 Y32.6033 
G01 X56.2967 Y32.7003 
G01 X56.3652 Y32.8190 
G01 X56.4007 Y32.9514 
G01 X56.4007 Y49.9737 
G01 X56.8325 Y50.4055 
G01 X56.8325 Y51.1945 
G01 X56.2745 Y51.7525 
G01 X55.4855 Y51.7525 
G01 X54.9275 Y51.1945 
G01 X54.9275 Y50.4055 
G01 X55.3593 Y49.9737 
G01 X55.3593 Y33.2357 
G01 X50.5843 Y28.4607 
G01 X31.9657 Y28.4607 
G01 X31.2801 Y29.1463 
G01 X31.2801 Y29.2863 
G01 X31.2503 Y29.4360 
G01 X31.1919 Y29.5770 
G01 X31.1071 Y29.7038 
G01 X30.9992 Y29.8117 
G01 X30.8724 Y29.8965 
G01 X30.7314 Y29.9549 
G01 X30.5817 Y29.9847 
G00 Z2.5400 
G00 X30.5817 Y32.5247 
G01 Z-0.1000 F254.00 
G01 X29.1083 Y32.5247 F508.00 
G01 X28.9586 Y32.4949 
G01 X28.8176 Y32.4365 
G01 X28.6908 Y32.3517 
G01 X28.5829 Y32.2438 
G01 X28.4981 Y32.1170 
G01 X28.4397 Y31.9760 
G01 X28.4099 Y31.8263 
G01 X28.4099 Y31.6737 
G01 X28.4397 Y31.5240 
G01 X28.4981 Y31.3830 
G01 X28.5829 Y31.2562 
G01 X28.6908 Y31.1483 
G01 X28.8176 Y31.0635 
G01 X28.9586 Y31.0051 
G01 X29.1083 Y30.9753 
G01 X30.5183 Y30.9753 
G01 X32.0653 Y29.4283 
G01 X32.1840 Y29.3598 
G01 X32.3164 Y29.3243 
G01 X49.5986 Y29.3243 
G01 X49.7310 Y29.3598 
G01 X49.8497 Y29.4283 
G01 X49.9467 Y29.5253 
G01 X53.7567 Y33.3353 
G01 X53.8252 Y33.4540 
G01 X53.8607 Y33.5864 
G01 X53.8607 Y49.9737 
G01 X54.2925 Y50.4055 
G01 X54.2925 Y51.1945 
G01 X53.7345 Y51.7525 
G01 X52.9455 Y51.7525 
G01 X52.3875 Y51.1945 
G01 X52.3875 Y50.4055 
G01 X52.8193 Y49.9737 
G01 X52.8193 Y33.8707 
G01 X49.3143 Y30.3657 
G01 X32.6007 Y30.3657 
G01 X31.2801 Y31.6863 
G01 X31.2801 Y31.8263 
G01 X31.2503 Y31.9760 
G01 X31.1919 Y32.1170 
G01 X31.1071 Y32.2438 
G01 X30.9992 Y32.3517 
G01 X30.8724 Y32.4365 
G01 X30.7314 Y32.4949 
G01 X30.5817 Y32.5247 
G00 Z2.5400 
G00 X30.5817 Y37.6047 
G01 Z-0.1000 F254.00 
G01 X29.1083 Y37.6047 F508.00 
G01 X28.9586 Y37.5749 
G01 X28.8176 Y37.5165 
G01 X28.6908 Y37.4317 
G01 X28.5829 Y37.3238 
G01 X28.4981 Y37.1970 
G01 X28.4397 Y37.0560 
G01 X28.4099 Y36.9063 
G01 X28.4099 Y36.7537 
G01 X28.4397 Y36.6040 
G01 X28.4981 Y36.4630 
G01 X28.5829 Y36.3362 
G01 X28.6908 Y36.2283 
G01 X28.8176 Y36.1435 
G01 X28.9586 Y36.0851 
G01 X29.1083 Y36.0553 
G01 X30.5183 Y36.0553 
G01 X30.6059 Y35.9677 
G01 X30.5894 Y35.9493 
G01 X30.5837 Y35.9381 
G01 X30.5760 Y35.9281 
G01 X30.5648 Y35.9010 
G01 X30.5515 Y35.8749 
G01 X30.5489 Y35.8625 
G01 X30.5440 Y35.8508 
G01 X30.5402 Y35.8218 
G01 X30.5341 Y35.7931 
G01 X30.5348 Y35.7805 
G01 X30.5331 Y35.7679 
G01 X30.5369 Y35.7388 
G01 X30.5385 Y35.7096 
G01 X30.5424 Y35.6976 
G01 X30.5440 Y35.6851 
G01 X30.5552 Y35.6580 
G01 X30.5643 Y35.6301 
G01 X30.5712 Y35.6195 
G01 X30.5760 Y35.6078 
G01 X30.5938 Y35.5846 
G01 X30.6098 Y35.5600 
G01 X30.6192 Y35.5515 
G01 X30.6269 Y35.5415 
G01 X30.6502 Y35.5237 
G01 X30.6720 Y35.5040 
G01 X30.6832 Y35.4983 
G01 X30.6932 Y35.4906 
G01 X30.7203 Y35.4794 
G01 X30.7464 Y35.4661 
G01 X30.7588 Y35.4635 
G01 X31.1744 Y35.2913 
G01 X31.5067 Y34.9590 
G01 X31.6865 Y34.5249 
G01 X31.6865 Y34.4843 
G01 X31.7081 Y34.4036 
G01 X31.7499 Y34.3312 
G01 X31.8090 Y34.2721 
G01 X32.7056 Y33.3755 
G01 X32.7780 Y33.3337 
G01 X32.8587 Y33.3121 
G01 X48.4213 Y33.3121 
G01 X48.5020 Y33.3337 
G01 X48.5744 Y33.3755 
G01 X48.6335 Y33.4346 
G01 X49.8095 Y34.6106 
G01 X49.8513 Y34.6830 
G01 X49.8729 Y34.7637 
G01 X49.8729 Y49.6743 
G01 X49.8729 Y49.7156 
G01 X49.8662 Y49.7406 
G01 X49.8513 Y49.7963 
G01 X49.8386 Y49.8182 
G01 X49.8095 Y49.8687 
G01 X49.7880 Y49.8902 
G01 X49.7841 Y49.8942 
G01 X49.7675 Y49.9107 
G01 X49.7250 Y49.9533 
G01 X49.7204 Y49.9559 
G01 X49.6526 Y49.9951 
G01 X49.6218 Y50.0033 
G01 X49.5718 Y50.0167 
G01 X49.5305 Y50.0167 
G01 X49.4882 Y50.0167 
G01 X49.4641 Y50.0103 
G01 X49.4075 Y49.9951 
G01 X49.3867 Y49.9831 
G01 X49.3351 Y49.9533 
G01 X49.3157 Y49.9339 
G01 X49.2759 Y49.8942 
G01 X49.2505 Y49.8688 
G01 X49.2087 Y49.7964 
G01 X49.1871 Y49.7156 
G01 X49.1871 Y42.3606 
G01 X49.0460 Y42.0198 
G01 X47.1561 Y40.1299 
G01 X46.8802 Y39.8540 
G01 X46.5394 Y39.7129 
G01 X36.6636 Y39.7129 
G01 X36.5829 Y39.6913 
G01 X36.5105 Y39.6495 
G01 X36.4136 Y39.5526 
G01 X36.1837 Y39.4573 
G01 X36.1558 Y39.4483 
G01 X36.1452 Y39.4414 
G01 X36.1335 Y39.4366 
G01 X36.1102 Y39.4187 
G01 X36.0857 Y39.4027 
G01 X36.0772 Y39.3934 
G01 X36.0672 Y39.3857 
G01 X36.0493 Y39.3624 
G01 X36.0297 Y39.3406 
G01 X36.0240 Y39.3294 
G01 X36.0163 Y39.3194 
G01 X36.0051 Y39.2923 
G01 X35.9918 Y39.2661 
G01 X35.9891 Y39.2538 
G01 X35.9843 Y39.2421 
G01 X35.9805 Y39.2130 
G01 X35.9744 Y39.1844 
G01 X35.9750 Y39.1718 
G01 X35.9734 Y39.1592 
G01 X35.9772 Y39.1302 
G01 X35.9788 Y39.1009 
G01 X35.9827 Y39.0889 
G01 X35.9843 Y39.0764 
G01 X35.9955 Y39.0493 
G01 X36.0046 Y39.0214 
G01 X36.0115 Y39.0108 
G01 X36.0163 Y38.9991 
G01 X36.0342 Y38.9758 
G01 X36.0501 Y38.9513 
G01 X36.0595 Y38.9428 
G01 X36.0672 Y38.9328 
G01 X36.0905 Y38.9149 
G01 X36.1123 Y38.8953 
G01 X36.1235 Y38.8896 
G01 X36.1335 Y38.8819 
G01 X36.1599 Y38.8710 
G01 X36.2744 Y38.7878 
G01 X36.3748 Y38.6874 
G01 X36.4582 Y38.5726 
G01 X36.5113 Y38.4683 
G01 X36.4829 Y38.4683 
G01 X36.4636 Y38.5151 
G01 X36.3677 Y38.6586 
G01 X36.2456 Y38.7807 
G01 X36.1021 Y38.8766 
G01 X35.9426 Y38.9426 
G01 X35.7733 Y38.9763 
G01 X34.1501 Y38.9763 
G01 X33.8561 Y39.2702 
G01 X33.8449 Y39.2923 
G01 X33.8337 Y39.3194 
G01 X33.8260 Y39.3294 
G01 X33.8203 Y39.3406 
G01 X33.8007 Y39.3624 
G01 X33.7828 Y39.3857 
G01 X33.7728 Y39.3934 
G01 X33.7643 Y39.4027 
G01 X33.7398 Y39.4187 
G01 X33.7165 Y39.4366 
G01 X33.7048 Y39.4414 
G01 X33.6942 Y39.4483 
G01 X33.6703 Y39.4560 
G01 X32.9784 Y40.1480 
G01 X32.9407 Y40.2390 
G01 X32.9353 Y40.2593 
G01 X32.9248 Y40.2775 
G01 X32.9167 Y40.2969 
G01 X32.9040 Y40.3135 
G01 X32.8935 Y40.3317 
G01 X32.8786 Y40.3465 
G01 X32.8659 Y40.3632 
G01 X32.8492 Y40.3760 
G01 X32.8344 Y40.3908 
G01 X32.8162 Y40.4013 
G01 X32.7995 Y40.4141 
G01 X32.7801 Y40.4221 
G01 X32.7620 Y40.4326 
G01 X32.7417 Y40.4380 
G01 X32.7223 Y40.4461 
G01 X32.7015 Y40.4488 
G01 X32.6812 Y40.4542 
G01 X32.6721 Y40.4542 
G01 X32.5118 Y40.6146 
G01 X32.5118 Y42.0477 
G01 X32.4944 Y42.0897 
G01 X32.4622 Y42.1219 
G01 X32.4202 Y42.1393 
G01 X32.1868 Y42.1393 
G01 X32.1868 Y42.1647 
G01 X32.4159 Y42.1647 
G01 X32.4514 Y42.1552 
G01 X32.4833 Y42.1368 
G01 X32.5093 Y42.1108 
G01 X32.5277 Y42.0789 
G01 X32.5372 Y42.0434 
G01 X32.5372 Y41.5529 
G01 X32.5588 Y41.4722 
G01 X32.6006 Y41.3998 
G01 X32.6597 Y41.3407 
G01 X32.7051 Y41.3145 
G01 X32.7321 Y41.2989 
G01 X32.8129 Y41.2772 
G01 X32.8965 Y41.2772 
G01 X32.9772 Y41.2989 
G01 X33.0496 Y41.3407 
G01 X33.4240 Y41.7151 
G01 X33.4658 Y41.7874 
G01 X33.4875 Y41.8682 
G01 X33.4875 Y41.9518 
G01 X33.4658 Y42.0326 
G01 X33.4240 Y42.1050 
G01 X33.3649 Y42.1641 
G01 X33.0756 Y42.4534 
G01 X32.8803 Y42.9248 
G01 X32.8803 Y43.0167 
G01 X32.9057 Y43.1114 
G01 X32.9057 Y43.2486 
G01 X32.8803 Y43.3433 
G01 X32.8803 Y43.4351 
G01 X33.0756 Y43.9066 
G01 X33.4364 Y44.2674 
G01 X33.9078 Y44.4627 
G01 X35.9421 Y44.4627 
G01 X36.4136 Y44.2674 
G01 X36.5105 Y44.1705 
G01 X36.5829 Y44.1287 
G01 X36.6636 Y44.1071 
G01 X43.3413 Y44.1071 
G01 X43.4220 Y44.1287 
G01 X43.4944 Y44.1705 
G01 X43.5535 Y44.2296 
G01 X44.7295 Y45.4056 
G01 X44.7713 Y45.4780 
G01 X44.7929 Y45.5587 
G01 X44.7929 Y49.7156 
G01 X44.7713 Y49.7964 
G01 X44.7295 Y49.8688 
G01 X44.6703 Y49.9279 
G01 X44.3611 Y50.2371 
G01 X44.3611 Y51.3629 
G01 X44.8650 Y51.8667 
G01 X44.9241 Y51.9259 
G01 X44.9659 Y51.9982 
G01 X44.9875 Y52.0790 
G01 X44.9875 Y52.1626 
G01 X44.9659 Y52.2433 
G01 X44.9473 Y52.2756 
G01 X44.9241 Y52.3157 
G01 X44.8972 Y52.3426 
G01 X44.8650 Y52.3749 
G01 X44.7926 Y52.4167 
G01 X44.7118 Y52.4383 
G01 X42.6642 Y52.4383 
G01 X42.5834 Y52.4167 
G01 X42.5110 Y52.3749 
G01 X42.4519 Y52.3157 
G01 X42.4106 Y52.2443 
G01 X42.3885 Y52.1626 
G01 X42.3885 Y52.0790 
G01 X42.4101 Y51.9982 
G01 X42.4519 Y51.9259 
G01 X42.5110 Y51.8667 
G01 X43.0149 Y51.3629 
G01 X43.0149 Y50.2371 
G01 X42.2189 Y49.4411 
G01 X41.0931 Y49.4411 
G01 X40.5809 Y49.9533 
G01 X40.5085 Y49.9951 
G01 X40.4278 Y50.0167 
G01 X40.3442 Y50.0167 
G01 X40.2634 Y49.9951 
G01 X40.2375 Y49.9801 
G01 X40.1911 Y49.9533 
G01 X40.1319 Y49.8942 
G01 X39.6789 Y49.4411 
G01 X38.5531 Y49.4411 
G01 X38.0409 Y49.9533 
G01 X37.9686 Y49.9951 
G01 X37.8878 Y50.0167 
G01 X37.8042 Y50.0167 
G01 X37.7234 Y49.9951 
G01 X37.6975 Y49.9801 
G01 X37.6511 Y49.9533 
G01 X37.5919 Y49.8942 
G01 X37.1389 Y49.4411 
G01 X36.0131 Y49.4411 
G01 X35.5009 Y49.9533 
G01 X35.4286 Y49.9951 
G01 X35.3478 Y50.0167 
G01 X35.2642 Y50.0167 
G01 X35.1834 Y49.9951 
G01 X35.1575 Y49.9801 
G01 X35.1110 Y49.9533 
G01 X35.0519 Y49.8942 
G01 X34.5989 Y49.4411 
G01 X33.4731 Y49.4411 
G01 X32.9609 Y49.9533 
G01 X32.8886 Y49.9951 
G01 X32.8078 Y50.0167 
G01 X32.7242 Y50.0167 
G01 X32.6434 Y49.9951 
G01 X32.6175 Y49.9801 
G01 X32.5710 Y49.9533 
G01 X32.5119 Y49.8942 
G01 X32.0589 Y49.4411 
G01 X30.9331 Y49.4411 
G01 X30.4209 Y49.9533 
G01 X30.3486 Y49.9951 
G01 X30.2678 Y50.0167 
G01 X30.1842 Y50.0167 
G01 X30.1034 Y49.9951 
G01 X30.0775 Y49.9801 
G01 X30.0311 Y49.9533 
G01 X29.9719 Y49.8942 
G01 X29.5189 Y49.4411 
G01 X28.3931 Y49.4411 
G01 X27.6707 Y50.1636 
G01 X27.6115 Y50.2227 
G01 X27.5662 Y50.2488 
G01 X27.5391 Y50.2645 
G01 X27.4584 Y50.2861 
G01 X27.3748 Y50.2861 
G01 X27.2940 Y50.2645 
G01 X27.2216 Y50.2227 
G01 X26.8211 Y49.8221 
G01 X26.7803 Y49.8221 
G01 X26.7803 Y49.8475 
G01 X26.8105 Y49.8475 
G01 X27.3685 Y50.4055 
G01 X27.3685 Y51.1945 
G01 X26.8105 Y51.7525 
G01 X26.7803 Y51.7525 
G01 X26.7803 Y51.7779 
G01 X26.8211 Y51.7779 
G01 X27.2216 Y51.3773 
G01 X27.2940 Y51.3355 
G01 X27.3748 Y51.3139 
G01 X27.4584 Y51.3139 
G01 X27.5391 Y51.3355 
G01 X27.5651 Y51.3505 
G01 X27.6115 Y51.3773 
G01 X27.6707 Y51.4364 
G01 X28.1010 Y51.8667 
G01 X28.1601 Y51.9259 
G01 X28.2019 Y51.9982 
G01 X28.2235 Y52.0790 
G01 X28.2235 Y52.1626 
G01 X28.2019 Y52.2433 
G01 X28.1601 Y52.3157 
G01 X28.1010 Y52.3749 
G01 X28.0286 Y52.4167 
G01 X27.9478 Y52.4383 
G01 X24.8842 Y52.4383 
G01 X24.8034 Y52.4167 
G01 X24.7310 Y52.3749 
G01 X24.6719 Y52.3157 
G01 X24.6301 Y52.2433 
G01 X24.6085 Y52.1626 
G01 X24.6085 Y52.0790 
G01 X24.6301 Y51.9982 
G01 X24.6719 Y51.9259 
G01 X24.7310 Y51.8667 
G01 X25.1613 Y51.4364 
G01 X25.2205 Y51.3773 
G01 X25.2658 Y51.3511 
G01 X25.2929 Y51.3355 
G01 X25.3736 Y51.3139 
G01 X25.4572 Y51.3139 
G01 X25.5380 Y51.3355 
G01 X25.6104 Y51.3773 
G01 X26.0109 Y51.7779 
G01 X26.0517 Y51.7779 
G01 X26.0517 Y51.7525 
G01 X26.0215 Y51.7525 
G01 X25.4635 Y51.1945 
G01 X25.4635 Y50.4055 
G01 X26.0215 Y49.8475 
G01 X26.0517 Y49.8475 
G01 X26.0517 Y49.8221 
G01 X26.0109 Y49.8221 
G01 X25.6104 Y50.2227 
G01 X25.5401 Y50.2632 
G01 X25.4572 Y50.2861 
G01 X25.3736 Y50.2861 
G01 X25.2929 Y50.2645 
G01 X25.2669 Y50.2495 
G01 X25.2205 Y50.2227 
G01 X25.1613 Y50.1636 
G01 X24.4389 Y49.4411 
G01 X23.3131 Y49.4411 
G01 X22.8009 Y49.9533 
G01 X22.7286 Y49.9951 
G01 X22.6478 Y50.0167 
G01 X22.5642 Y50.0167 
G01 X22.4834 Y49.9951 
G01 X22.4575 Y49.9801 
G01 X22.4110 Y49.9533 
G01 X22.3519 Y49.8942 
G01 X22.3265 Y49.8688 
G01 X22.2847 Y49.7964 
G01 X22.2631 Y49.7156 
G01 X22.2631 Y48.3527 
G01 X22.2847 Y48.2720 
G01 X22.3265 Y48.1996 
G01 X22.3856 Y48.1405 
G01 X22.5456 Y47.9805 
G01 X22.6180 Y47.9387 
G01 X22.6987 Y47.9171 
G01 X24.9494 Y47.9171 
G01 X25.2902 Y47.7760 
G01 X28.0910 Y44.9752 
G01 X28.2321 Y44.6344 
G01 X28.2321 Y42.5207 
G01 X28.2537 Y42.4399 
G01 X28.2955 Y42.3675 
G01 X28.3546 Y42.3084 
G01 X28.4270 Y42.2666 
G01 X28.5078 Y42.2450 
G01 X28.5914 Y42.2450 
G01 X28.6721 Y42.2666 
G01 X28.7445 Y42.3084 
G01 X28.8037 Y42.3675 
G01 X28.8545 Y42.4183 
G01 X28.8963 Y42.4907 
G01 X28.9179 Y42.5715 
G01 X28.9179 Y45.2950 
G01 X28.8963 Y45.3757 
G01 X28.8545 Y45.4481 
G01 X28.7953 Y45.5072 
G01 X28.3269 Y45.9756 
G01 X28.0543 Y46.6338 
G01 X28.0543 Y47.3462 
G01 X28.3269 Y48.0044 
G01 X28.8306 Y48.5081 
G01 X29.4888 Y48.7807 
G01 X30.2012 Y48.7807 
G01 X30.8594 Y48.5081 
G01 X31.3631 Y48.0044 
G01 X31.6357 Y47.3462 
G01 X31.6357 Y46.6338 
G01 X31.3631 Y45.9756 
G01 X30.8355 Y45.4481 
G01 X30.7937 Y45.3757 
G01 X30.7721 Y45.2950 
G01 X30.7721 Y44.8435 
G01 X30.6983 Y44.7697 
G01 X30.6298 Y44.6510 
G01 X30.5943 Y44.5186 
G01 X30.5943 Y44.3814 
G01 X30.6298 Y44.2490 
G01 X30.6983 Y44.1303 
G01 X30.7721 Y44.0565 
G01 X30.7721 Y42.5765 
G01 X30.7937 Y42.4957 
G01 X30.8355 Y42.4233 
G01 X30.9422 Y42.3167 
G01 X30.9508 Y42.3054 
G01 X30.9613 Y42.2872 
G01 X30.9762 Y42.2724 
G01 X30.9889 Y42.2558 
G01 X31.0056 Y42.2430 
G01 X31.0204 Y42.2281 
G01 X31.0386 Y42.2176 
G01 X31.0552 Y42.2049 
G01 X31.0746 Y42.1968 
G01 X31.0928 Y42.1863 
G01 X31.1131 Y42.1809 
G01 X31.1325 Y42.1729 
G01 X31.1533 Y42.1701 
G01 X31.1736 Y42.1647 
G01 X31.1946 Y42.1647 
G01 X31.2154 Y42.1620 
G01 X31.2362 Y42.1647 
G01 X31.3082 Y42.1647 
G01 X31.3082 Y42.1393 
G01 X31.0748 Y42.1393 
G01 X31.0328 Y42.1219 
G01 X31.0006 Y42.0897 
G01 X30.9832 Y42.0477 
G01 X30.9832 Y40.5023 
G01 X31.0006 Y40.4603 
G01 X31.0328 Y40.4281 
G01 X31.0748 Y40.4107 
G01 X31.2811 Y40.4107 
G01 X31.3082 Y40.3638 
G01 X31.3082 Y40.3272 
G01 X31.3298 Y40.2465 
G01 X31.3716 Y40.1741 
G01 X31.4307 Y40.1150 
G01 X31.5067 Y40.0390 
