(.../Documents/elec/Eagle/ulp/pcb-gcode.ulp)
(Copyright 2005 - 2009 by John Johnson)
(See readme.txt for licensing terms.)
(This file generated from the board:)
(.../GitHub/Bleuette/pcb/sensor.brd)
(Current profile is .../elec/Eagle/ulp/profiles/emc.pp  )
(This file generated 2/17/13 3:42 PM)
(Settings from pcb-machine.h)
(  Tool Size)
(0.1000 )
(Z Axis Settings)
(  High     Up        Down     Drill)
(12.7000 	2.5400 	-0.1000 	-0.8128 )
(spindle on time = 3.0000)
(milling depth = -0.2540)
(text depth = -0.1270)
(tool change at 0.0000 0.0000 0.0000 )
(feed rate xy = F508.00 )
(feed rate z  = F254.00 )
(Settings from pcb-defaults.h)
(Default isolate = 0.0254)
(isolate max = 0.5080)
(isolate step = 0.1270)
(Generated top outlines, top drill, )
(Unit of measure: mm)
(Metric Mode)
G21
(Absolute Coordinates)
G90
G00 X0.0000 Y0.0000 
M03
G04 P3.000000
G00 Z2.5400 
G00 X41.5536 Y2.9184 
G01 Z-0.1000 F254.00 
G01 X41.0184 Y3.4536 F508.00 
G01 X40.9654 Y3.4536 
G01 X40.9654 Y3.5568 
G01 X41.0612 Y3.5568 
G01 X41.7389 Y2.8790 
G01 X41.7626 Y2.8654 
G01 X41.5536 Y2.8654 
G01 X41.5536 Y2.9184 
G00 Z2.5400 
G00 X41.7389 Y2.2010 
G01 Z-0.1000 F254.00 
G01 X41.7381 Y2.2002 F508.00 
G01 X41.0612 Y1.5232 
G01 X40.9654 Y1.5232 
G01 X40.9654 Y1.6264 
G01 X41.0184 Y1.6264 
G01 X41.5536 Y2.1616 
G01 X41.5536 Y2.2146 
G01 X41.7625 Y2.2146 
G01 X41.7389 Y2.2010 
G00 Z2.5400 
G00 X42.7588 Y1.5232 
G01 Z-0.1000 F254.00 
G01 X42.1329 Y2.1491 F508.00 
G01 X42.1329 Y2.1491 
G01 X42.0811 Y2.2010 
G01 X42.0575 Y2.2146 
G01 X42.2664 Y2.2146 
G01 X42.2664 Y2.1616 
G01 X42.8016 Y1.6264 
G01 X42.8546 Y1.6264 
G01 X42.8546 Y1.5232 
G01 X42.7588 Y1.5232 
G00 Z2.5400 
G00 X42.0811 Y2.8790 
G01 Z-0.1000 F254.00 
G01 X42.1329 Y2.9309 F508.00 
G01 X42.1329 Y2.9309 
G01 X42.7588 Y3.5568 
G01 X42.8546 Y3.5568 
G01 X42.8546 Y3.4536 
G01 X42.8016 Y3.4536 
G01 X42.2664 Y2.9184 
G01 X42.2664 Y2.8654 
G01 X42.0574 Y2.8654 
G01 X42.0811 Y2.8790 
G00 Z2.5400 
G00 X18.5064 Y42.7490 
G01 Z-0.1000 F254.00 
G01 X18.6369 Y42.7283 F508.00 
G01 X18.7625 Y42.6875 
G01 X18.8801 Y42.6276 
G01 X18.9870 Y42.5500 
G01 X19.0804 Y42.4566 
G01 X19.1580 Y42.3497 
G01 X19.2179 Y42.2321 
G01 X19.2321 Y42.1886 
G01 X19.1214 Y42.1886 
G01 X19.0925 Y42.2585 
G01 X19.0119 Y42.3790 
G01 X18.9094 Y42.4815 
G01 X18.7889 Y42.5621 
G01 X18.6550 Y42.6175 
G01 X18.5129 Y42.6458 
G01 X18.0586 Y42.6458 
G01 X18.0586 Y42.7490 
G01 X18.5064 Y42.7490 
G00 Z2.5400 
G00 X44.9486 Y1.1825 
G01 Z-0.1000 F254.00 
G01 X44.9486 Y1.2559 F508.00 
G01 X44.9296 Y1.3267 
G01 X44.8930 Y1.3903 
G01 X44.8411 Y1.4421 
G01 X44.3517 Y1.9316 
G01 X44.2881 Y1.9682 
G01 X44.2173 Y1.9872 
G01 X44.1439 Y1.9872 
G01 X44.0731 Y1.9682 
G01 X44.0095 Y1.9316 
G01 X43.9577 Y1.8797 
G01 X43.6012 Y1.5232 
G01 X43.5054 Y1.5232 
G01 X43.5054 Y1.6264 
G01 X43.5584 Y1.6264 
G01 X44.0936 Y2.1616 
G01 X44.0936 Y2.9184 
G01 X43.5584 Y3.4536 
G01 X43.5054 Y3.4536 
G01 X43.5054 Y3.5568 
G01 X43.6012 Y3.5568 
G01 X43.9585 Y3.1995 
G01 X44.0095 Y3.1484 
G01 X44.0731 Y3.1118 
G01 X44.1431 Y3.0930 
G01 X44.2173 Y3.0928 
G01 X44.2881 Y3.1118 
G01 X44.3517 Y3.1484 
G01 X44.4035 Y3.2003 
G01 X45.1410 Y3.9378 
G01 X46.2990 Y3.9378 
G01 X47.1178 Y3.1190 
G01 X47.1178 Y1.9610 
G01 X46.5989 Y1.4421 
G01 X46.5470 Y1.3903 
G01 X46.5104 Y1.3267 
G01 X46.4916 Y1.2567 
G01 X46.4914 Y1.1825 
G01 X46.5090 Y1.1168 
G01 X44.9310 Y1.1168 
G01 X44.9486 Y1.1825 
G00 Z2.5400 
G00 X46.6336 Y2.1616 
G01 Z-0.1000 F254.00 
G01 X46.6336 Y2.9184 F508.00 
G01 X46.0984 Y3.4536 
G01 X45.3416 Y3.4536 
G01 X44.8064 Y2.9184 
G01 X44.8064 Y2.1616 
G01 X45.3416 Y1.6264 
G01 X46.0984 Y1.6264 
G01 X46.6336 Y2.1616 
G00 Z2.5400 
G00 X21.4986 Y20.7510 
G01 Z-0.1000 F254.00 
G01 X21.3681 Y20.7717 F508.00 
G01 X21.2425 Y20.8125 
G01 X21.1249 Y20.8724 
G01 X21.0180 Y20.9500 
G01 X20.9246 Y21.0434 
G01 X20.8470 Y21.1503 
G01 X20.7871 Y21.2679 
G01 X20.7729 Y21.3114 
G01 X20.8836 Y21.3114 
G01 X20.9125 Y21.2415 
G01 X20.9931 Y21.1210 
G01 X21.0956 Y21.0185 
G01 X21.2161 Y20.9379 
G01 X21.3500 Y20.8825 
G01 X21.4921 Y20.8542 
G01 X21.9464 Y20.8542 
G01 X21.9464 Y20.7510 
G01 X21.4986 Y20.7510 
G00 Z2.5400 
G00 X41.0454 Y36.3250 
G01 Z-0.1000 F254.00 
G01 X41.0339 Y36.3527 F508.00 
G01 X41.0127 Y36.3739 
G01 X40.9850 Y36.3854 
G01 X40.7204 Y36.3854 
G01 X40.7204 Y36.4886 
G01 X40.9935 Y36.4886 
G01 X41.0389 Y36.4764 
G01 X41.0797 Y36.4529 
G01 X41.1129 Y36.4197 
G01 X41.1364 Y36.3789 
G01 X41.1486 Y36.3335 
G01 X41.1486 Y35.9604 
G01 X41.0454 Y35.9604 
G01 X41.0454 Y36.3250 
G00 Z2.5400 
G00 X41.0454 Y34.7950 
G01 Z-0.1000 F254.00 
G01 X41.0454 Y35.1596 F508.00 
G01 X41.1486 Y35.1596 
G01 X41.1486 Y34.7865 
G01 X41.1364 Y34.7411 
G01 X41.1129 Y34.7003 
G01 X41.0797 Y34.6671 
G01 X41.0389 Y34.6436 
G01 X40.9935 Y34.6314 
G01 X40.7204 Y34.6314 
G01 X40.7204 Y34.7346 
G01 X40.9850 Y34.7346 
G01 X41.0127 Y34.7461 
G01 X41.0339 Y34.7673 
G01 X41.0454 Y34.7950 
G00 Z2.5400 
G00 X30.3500 Y9.2954 
G01 Z-0.1000 F254.00 
G01 X30.3223 Y9.2839 F508.00 
G01 X30.3011 Y9.2627 
G01 X30.2896 Y9.2350 
G01 X30.2896 Y8.9704 
G01 X30.1864 Y8.9704 
G01 X30.1864 Y9.2435 
G01 X30.1986 Y9.2889 
G01 X30.2221 Y9.3297 
G01 X30.2553 Y9.3629 
G01 X30.2961 Y9.3864 
G01 X30.3415 Y9.3986 
G01 X30.7146 Y9.3986 
G01 X30.7146 Y9.2954 
G01 X30.3500 Y9.2954 
G00 Z2.5400 
G00 X31.8800 Y9.2954 
G01 Z-0.1000 F254.00 
G01 X31.5154 Y9.2954 F508.00 
G01 X31.5154 Y9.3986 
G01 X31.8885 Y9.3986 
G01 X31.9339 Y9.3864 
G01 X31.9747 Y9.3629 
G01 X32.0079 Y9.3297 
G01 X32.0314 Y9.2889 
G01 X32.0436 Y9.2435 
G01 X32.0436 Y8.9704 
G01 X31.9404 Y8.9704 
G01 X31.9404 Y9.2350 
G01 X31.9289 Y9.2627 
G01 X31.9077 Y9.2839 
G01 X31.8800 Y9.2954 
G00 Z2.5400 
G00 X52.4118 Y17.4236 
G01 Z-0.1000 F254.00 
G01 X52.2353 Y17.3885 F508.00 
G01 X52.0690 Y17.3196 
G01 X51.9194 Y17.2196 
G01 X51.7922 Y17.0924 
G01 X51.6922 Y16.9428 
G01 X51.6599 Y16.8648 
G01 X51.5480 Y16.8648 
G01 X51.5595 Y16.9003 
G01 X51.6322 Y17.0429 
G01 X51.7262 Y17.1724 
G01 X51.8394 Y17.2856 
G01 X51.9689 Y17.3796 
G01 X52.1115 Y17.4523 
G01 X52.2637 Y17.5018 
G01 X52.4218 Y17.5268 
G01 X52.9852 Y17.5268 
G01 X52.9852 Y17.4236 
G01 X52.4118 Y17.4236 
G00 Z2.5400 
G00 X55.8632 Y18.4254 
G01 Z-0.1000 F254.00 
G01 X55.8258 Y18.3940 F508.00 
G01 X55.7857 Y18.3659 
G01 X55.7434 Y18.3415 
G01 X55.6992 Y18.3208 
G01 X55.6532 Y18.3041 
G01 X55.6060 Y18.2915 
G01 X55.5579 Y18.2830 
G01 X55.5092 Y18.2787 
G01 X49.9289 Y18.2787 
G01 X49.8802 Y18.2830 
G01 X49.8321 Y18.2915 
G01 X49.7849 Y18.3041 
G01 X49.7390 Y18.3208 
G01 X49.6947 Y18.3415 
G01 X49.6524 Y18.3659 
G01 X49.6123 Y18.3940 
G01 X49.5749 Y18.4254 
G01 X49.5404 Y18.4599 
G01 X49.5090 Y18.4973 
G01 X49.4809 Y18.5374 
G01 X49.4565 Y18.5797 
G01 X49.4358 Y18.6240 
G01 X49.4191 Y18.6699 
G01 X49.4065 Y18.7171 
G01 X49.3980 Y18.7652 
G01 X49.3937 Y18.8139 
G01 X49.3937 Y23.0961 
G01 X49.3980 Y23.1448 
G01 X49.4065 Y23.1929 
G01 X49.4191 Y23.2401 
G01 X49.4358 Y23.2860 
G01 X49.4565 Y23.3303 
G01 X49.4809 Y23.3726 
G01 X49.5090 Y23.4127 
G01 X49.5404 Y23.4501 
G01 X49.5749 Y23.4846 
G01 X49.6123 Y23.5160 
G01 X49.6524 Y23.5441 
G01 X49.6947 Y23.5685 
G01 X49.7390 Y23.5892 
G01 X49.7849 Y23.6059 
G01 X49.8321 Y23.6185 
G01 X49.8802 Y23.6270 
G01 X49.9289 Y23.6313 
G01 X55.5092 Y23.6313 
G01 X55.5579 Y23.6270 
G01 X55.6060 Y23.6185 
G01 X55.6532 Y23.6059 
G01 X55.6992 Y23.5892 
G01 X55.7434 Y23.5685 
G01 X55.7857 Y23.5441 
G01 X55.8258 Y23.5160 
G01 X55.8632 Y23.4846 
G01 X55.8978 Y23.4501 
G01 X55.9292 Y23.4127 
G01 X55.9572 Y23.3726 
G01 X55.9816 Y23.3303 
G01 X56.0023 Y23.2860 
G01 X56.0190 Y23.2401 
G01 X56.0316 Y23.1929 
G01 X56.0401 Y23.1448 
G01 X56.0444 Y23.0961 
G01 X56.0444 Y18.8139 
G01 X56.0401 Y18.7652 
G01 X56.0316 Y18.7171 
G01 X56.0190 Y18.6699 
G01 X56.0023 Y18.6240 
G01 X55.9816 Y18.5797 
G01 X55.9572 Y18.5374 
G01 X55.9292 Y18.4973 
G01 X55.8978 Y18.4599 
G01 X55.8632 Y18.4254 
G00 Z2.5400 
G00 X55.5602 Y18.8284 
G01 Z-0.1000 F254.00 
G01 X55.5602 Y23.0816 F508.00 
G01 X55.5551 Y23.1008 
G01 X55.5451 Y23.1180 
G01 X55.5311 Y23.1320 
G01 X55.5139 Y23.1419 
G01 X55.4947 Y23.1471 
G01 X49.9434 Y23.1471 
G01 X49.9242 Y23.1419 
G01 X49.9070 Y23.1320 
G01 X49.8930 Y23.1180 
G01 X49.8831 Y23.1008 
G01 X49.8779 Y23.0816 
G01 X49.8779 Y18.8284 
G01 X49.8831 Y18.8092 
G01 X49.8930 Y18.7920 
G01 X49.9070 Y18.7780 
G01 X49.9242 Y18.7681 
G01 X49.9434 Y18.7629 
G01 X55.4947 Y18.7629 
G01 X55.5139 Y18.7681 
G01 X55.5311 Y18.7780 
G01 X55.5451 Y18.7920 
G01 X55.5551 Y18.8092 
G01 X55.5602 Y18.8284 
G00 Z2.5400 
G00 X54.9878 Y16.9428 
G01 Z-0.1000 F254.00 
G01 X54.8878 Y17.0924 F508.00 
G01 X54.7606 Y17.2196 
G01 X54.6110 Y17.3196 
G01 X54.4447 Y17.3885 
G01 X54.2682 Y17.4236 
G01 X53.6948 Y17.4236 
G01 X53.6948 Y17.5268 
G01 X54.2582 Y17.5268 
G01 X54.4163 Y17.5018 
G01 X54.5685 Y17.4523 
G01 X54.7111 Y17.3796 
G01 X54.8406 Y17.2856 
G01 X54.9538 Y17.1724 
G01 X55.0478 Y17.0429 
G01 X55.1205 Y16.9003 
G01 X55.1320 Y16.8648 
G01 X55.0201 Y16.8648 
G01 X54.9878 Y16.9428 
G00 Z2.5400 
G00 X54.3186 Y5.9965 
G01 Z-0.1000 F254.00 
G01 X54.3064 Y5.9511 F508.00 
G01 X54.2829 Y5.9103 
G01 X54.2497 Y5.8771 
G01 X54.2089 Y5.8536 
G01 X54.1635 Y5.8414 
G01 X53.7404 Y5.8414 
G01 X53.7404 Y5.9446 
G01 X54.1550 Y5.9446 
G01 X54.1827 Y5.9561 
G01 X54.2039 Y5.9773 
G01 X54.2154 Y6.0050 
G01 X54.2154 Y6.2696 
G01 X54.3186 Y6.2696 
G01 X54.3186 Y5.9965 
G00 Z2.5400 
G00 X52.5165 Y5.8414 
G01 Z-0.1000 F254.00 
G01 X52.4711 Y5.8536 F508.00 
G01 X52.4303 Y5.8771 
G01 X52.3971 Y5.9103 
G01 X52.3736 Y5.9511 
G01 X52.3614 Y5.9965 
G01 X52.3614 Y6.2696 
G01 X52.4646 Y6.2696 
G01 X52.4646 Y6.0050 
G01 X52.4761 Y5.9773 
G01 X52.4973 Y5.9561 
G01 X52.5250 Y5.9446 
G01 X52.9396 Y5.9446 
G01 X52.9396 Y5.8414 
G01 X52.5165 Y5.8414 
G00 Z2.5400 
G00 X37.8878 Y12.3787 
G01 Z-0.1000 F254.00 
G01 X37.4053 Y11.8962 F508.00 
G01 X36.8143 Y11.5550 
G01 X36.1552 Y11.3784 
G01 X35.4728 Y11.3784 
G01 X34.8137 Y11.5550 
G01 X34.2227 Y11.8962 
G01 X33.7402 Y12.3787 
G01 X33.3990 Y12.9697 
G01 X33.2224 Y13.6288 
G01 X33.2224 Y14.3112 
G01 X33.3990 Y14.9703 
G01 X33.7402 Y15.5613 
G01 X34.2227 Y16.0438 
G01 X34.8137 Y16.3850 
G01 X35.4728 Y16.5616 
G01 X36.1552 Y16.5616 
G01 X36.8143 Y16.3850 
G01 X37.4053 Y16.0438 
G01 X37.8878 Y15.5613 
G01 X38.2290 Y14.9703 
G01 X38.4056 Y14.3112 
G01 X38.4056 Y13.6288 
G01 X38.2290 Y12.9697 
G01 X37.8878 Y12.3787 
G00 Z2.5400 
G00 X64.7556 Y26.8527 
G01 Z-0.1000 F254.00 
G01 X64.6789 Y26.7021 F508.00 
G01 X64.5795 Y26.5654 
G01 X64.4600 Y26.4458 
G01 X64.3232 Y26.3465 
G01 X64.1726 Y26.2697 
G01 X64.0118 Y26.2175 
G01 X63.8449 Y26.1910 
G01 X63.2388 Y26.1910 
G01 X63.2388 Y26.2943 
G01 X63.8560 Y26.2943 
G01 X64.0435 Y26.3316 
G01 X64.2202 Y26.4047 
G01 X64.3792 Y26.5110 
G01 X64.5144 Y26.6462 
G01 X64.6206 Y26.8052 
G01 X64.6562 Y26.8911 
G01 X64.7681 Y26.8911 
G01 X64.7556 Y26.8527 
G00 Z2.5400 
G00 X61.1505 Y27.9646 
G01 Z-0.1000 F254.00 
G01 X61.2700 Y28.0842 F508.00 
G01 X61.4068 Y28.1835 
G01 X61.5574 Y28.2603 
G01 X61.7182 Y28.3125 
G01 X61.8851 Y28.3389 
G01 X62.4911 Y28.3389 
G01 X62.4911 Y28.2357 
G01 X61.8740 Y28.2357 
G01 X61.6865 Y28.1984 
G01 X61.5098 Y28.1253 
G01 X61.3508 Y28.0190 
G01 X61.2156 Y27.8838 
G01 X61.1094 Y27.7248 
G01 X61.0738 Y27.6388 
G01 X60.9619 Y27.6388 
G01 X60.9744 Y27.6773 
G01 X61.0511 Y27.8279 
G01 X61.1505 Y27.9646 
G00 Z2.5400 
G00 X63.8449 Y28.3389 
G01 Z-0.1000 F254.00 
G01 X64.0118 Y28.3125 F508.00 
G01 X64.1726 Y28.2603 
G01 X64.3232 Y28.1835 
G01 X64.4600 Y28.0842 
G01 X64.5795 Y27.9646 
G01 X64.6789 Y27.8279 
G01 X64.7556 Y27.6773 
G01 X64.7681 Y27.6388 
G01 X64.6562 Y27.6388 
G01 X64.6206 Y27.7248 
G01 X64.5144 Y27.8838 
G01 X64.3792 Y28.0190 
G01 X64.2202 Y28.1253 
G01 X64.0435 Y28.1984 
G01 X63.8560 Y28.2357 
G01 X63.2388 Y28.2357 
G01 X63.2388 Y28.3389 
G01 X63.8449 Y28.3389 
G00 Z2.5400 
G00 X61.8851 Y26.1910 
G01 Z-0.1000 F254.00 
G01 X61.7182 Y26.2175 F508.00 
G01 X61.5574 Y26.2697 
G01 X61.4068 Y26.3465 
G01 X61.2700 Y26.4458 
G01 X61.1505 Y26.5654 
G01 X61.0511 Y26.7021 
G01 X60.9744 Y26.8527 
G01 X60.9619 Y26.8911 
G01 X61.0738 Y26.8911 
G01 X61.1094 Y26.8052 
G01 X61.2156 Y26.6462 
G01 X61.3508 Y26.5110 
G01 X61.5098 Y26.4047 
G01 X61.6865 Y26.3316 
G01 X61.8740 Y26.2943 
G01 X62.4911 Y26.2943 
G01 X62.4911 Y26.1910 
G01 X61.8851 Y26.1910 
G00 Z2.5400 
G00 X25.6713 Y16.8711 
G01 Z-0.1000 F254.00 
G01 X25.7385 Y17.0030 F508.00 
G01 X25.8255 Y17.1228 
G01 X25.9302 Y17.2274 
G01 X26.0500 Y17.3145 
G01 X26.1819 Y17.3817 
G01 X26.3227 Y17.4274 
G01 X26.4690 Y17.4506 
G01 X26.9756 Y17.4506 
G01 X26.9756 Y17.3474 
G01 X26.4605 Y17.3474 
G01 X26.2987 Y17.3152 
G01 X26.1463 Y17.2521 
G01 X26.0092 Y17.1605 
G01 X25.8925 Y17.0438 
G01 X25.8009 Y16.9067 
G01 X25.7730 Y16.8394 
G01 X25.6610 Y16.8394 
G01 X25.6713 Y16.8711 
G00 Z2.5400 
G00 X31.1904 Y46.8841 
G01 Z-0.1000 F254.00 
G01 X31.1904 Y47.0959 F508.00 
G01 X31.1573 Y47.3050 
G01 X31.0918 Y47.5065 
G01 X30.9957 Y47.6951 
G01 X30.8712 Y47.8665 
G01 X30.7215 Y48.0162 
G01 X30.5501 Y48.1407 
G01 X30.3615 Y48.2368 
G01 X30.1600 Y48.3023 
G01 X29.9509 Y48.3354 
G01 X29.7391 Y48.3354 
G01 X29.5300 Y48.3023 
G01 X29.3285 Y48.2368 
G01 X29.1399 Y48.1407 
G01 X28.9685 Y48.0162 
G01 X28.8188 Y47.8665 
G01 X28.6943 Y47.6951 
G01 X28.5982 Y47.5065 
G01 X28.5327 Y47.3050 
G01 X28.4996 Y47.0959 
G01 X28.4996 Y46.8841 
G01 X28.5327 Y46.6750 
G01 X28.5982 Y46.4735 
G01 X28.6943 Y46.2849 
G01 X28.8188 Y46.1135 
G01 X28.9685 Y45.9638 
G01 X29.1399 Y45.8393 
G01 X29.3285 Y45.7432 
G01 X29.3632 Y45.7319 
G01 X29.3632 Y42.1004 
G01 X29.1825 Y42.1004 
G01 X29.1548 Y42.0889 
G01 X29.1336 Y42.0677 
G01 X29.1221 Y42.0400 
G01 X29.1221 Y40.5100 
G01 X29.1336 Y40.4823 
G01 X29.1548 Y40.4611 
G01 X29.1825 Y40.4496 
G01 X29.3632 Y40.4496 
G01 X29.3632 Y40.1058 
G01 X29.1121 Y40.1058 
G01 X28.9700 Y40.0775 
G01 X28.8361 Y40.0221 
G01 X28.7156 Y39.9415 
G01 X28.6131 Y39.8390 
G01 X28.5325 Y39.7185 
G01 X28.4771 Y39.5846 
G01 X28.4488 Y39.4425 
G01 X28.4488 Y39.2975 
G01 X28.4771 Y39.1554 
G01 X28.5325 Y39.0215 
G01 X28.6131 Y38.9010 
G01 X28.7156 Y38.7985 
G01 X28.8361 Y38.7179 
G01 X28.9700 Y38.6625 
G01 X29.1121 Y38.6342 
G01 X30.5344 Y38.6342 
G01 X32.5382 Y36.6304 
G01 X32.5382 Y36.1316 
G01 X32.5710 Y36.0090 
G01 X32.6345 Y35.8992 
G01 X33.2695 Y35.2642 
G01 X33.3592 Y35.1745 
G01 X33.4476 Y35.1234 
G01 X33.5125 Y35.0262 
G01 X33.6292 Y34.9095 
G01 X33.7663 Y34.8179 
G01 X33.9187 Y34.7548 
G01 X34.0805 Y34.7226 
G01 X35.7695 Y34.7226 
G01 X35.9313 Y34.7548 
G01 X36.0837 Y34.8179 
G01 X36.2208 Y34.9095 
G01 X36.3375 Y35.0262 
G01 X36.3722 Y35.0782 
G01 X37.6946 Y35.0782 
G01 X37.6946 Y34.7950 
G01 X37.7061 Y34.7673 
G01 X37.7273 Y34.7461 
G01 X37.7550 Y34.7346 
G01 X39.0850 Y34.7346 
G01 X39.1127 Y34.7461 
G01 X39.1339 Y34.7673 
G01 X39.1454 Y34.7950 
G01 X39.1454 Y36.3250 
G01 X39.1339 Y36.3527 
G01 X39.1127 Y36.3739 
G01 X39.0850 Y36.3854 
G01 X37.7550 Y36.3854 
G01 X37.7273 Y36.3739 
G01 X37.7061 Y36.3527 
G01 X37.6946 Y36.3250 
G01 X37.6946 Y36.0418 
G01 X36.3722 Y36.0418 
G01 X36.3375 Y36.0938 
G01 X36.2208 Y36.2105 
G01 X36.0837 Y36.3021 
G01 X35.9313 Y36.3652 
G01 X35.7695 Y36.3974 
G01 X34.0805 Y36.3974 
G01 X33.9187 Y36.3652 
G01 X33.7663 Y36.3021 
G01 X33.6632 Y36.2332 
G01 X33.5018 Y36.3946 
G01 X33.5018 Y36.8934 
G01 X33.4690 Y37.0160 
G01 X33.4055 Y37.1258 
G01 X33.3158 Y37.2155 
G01 X31.2400 Y39.2914 
G01 X31.2412 Y39.2975 
G01 X31.2412 Y39.4425 
G01 X31.2129 Y39.5846 
G01 X31.1575 Y39.7185 
G01 X31.0769 Y39.8390 
G01 X30.9744 Y39.9415 
G01 X30.8539 Y40.0221 
G01 X30.7200 Y40.0775 
G01 X30.5779 Y40.1058 
G01 X30.3293 Y40.1058 
G01 X30.3293 Y40.4496 
G01 X30.5125 Y40.4496 
G01 X30.5402 Y40.4611 
G01 X30.5614 Y40.4823 
G01 X30.5729 Y40.5100 
G01 X30.5729 Y42.0400 
G01 X30.5614 Y42.0677 
G01 X30.5402 Y42.0889 
G01 X30.5125 Y42.1004 
G01 X30.3268 Y42.1004 
G01 X30.3268 Y45.7319 
G01 X30.3615 Y45.7432 
G01 X30.5501 Y45.8393 
G01 X30.7215 Y45.9638 
G01 X30.8712 Y46.1135 
G01 X30.9957 Y46.2849 
G01 X31.0918 Y46.4735 
G01 X31.1573 Y46.6750 
G01 X31.1904 Y46.8841 
G00 Z2.5400 
G00 X37.6182 Y4.8804 
G01 Z-0.1000 F254.00 
G01 X37.6182 Y3.3502 F508.00 
G01 X37.1864 Y2.9184 
G01 X37.1864 Y2.1616 
G01 X37.7216 Y1.6264 
G01 X38.4784 Y1.6264 
G01 X39.0136 Y2.1616 
G01 X39.0136 Y2.9184 
G01 X38.5818 Y3.3502 
G01 X38.5818 Y5.1434 
G01 X38.5490 Y5.2660 
G01 X38.4855 Y5.3758 
G01 X38.3958 Y5.4655 
G01 X37.2155 Y6.6458 
G01 X37.1258 Y6.7355 
G01 X37.0160 Y6.7990 
G01 X36.8934 Y6.8318 
G01 X31.9404 Y6.8318 
G01 X31.9404 Y7.3350 
G01 X31.9289 Y7.3627 
G01 X31.9077 Y7.3839 
G01 X31.8800 Y7.3954 
G01 X30.3500 Y7.3954 
G01 X30.3223 Y7.3839 
G01 X30.3011 Y7.3627 
G01 X30.2896 Y7.3350 
G01 X30.2896 Y6.8318 
G01 X28.7522 Y6.8318 
G01 X28.7175 Y6.8838 
G01 X28.6008 Y7.0005 
G01 X28.4637 Y7.0921 
G01 X28.3113 Y7.1552 
G01 X28.1495 Y7.1874 
G01 X26.4605 Y7.1874 
G01 X26.2987 Y7.1552 
G01 X26.1463 Y7.0921 
G01 X26.0092 Y7.0005 
G01 X25.8925 Y6.8838 
G01 X25.8578 Y6.8318 
G01 X12.2422 Y6.8318 
G01 X12.2075 Y6.8838 
G01 X12.0908 Y7.0005 
G01 X11.9537 Y7.0921 
G01 X11.8013 Y7.1552 
G01 X11.6395 Y7.1874 
G01 X9.9505 Y7.1874 
G01 X9.7887 Y7.1552 
G01 X9.6363 Y7.0921 
G01 X9.4992 Y7.0005 
G01 X9.3825 Y6.8838 
G01 X9.3478 Y6.8318 
G01 X9.0896 Y6.8318 
G01 X8.1018 Y7.8196 
G01 X8.1018 Y9.9604 
G01 X9.0896 Y10.9482 
G01 X9.3478 Y10.9482 
G01 X9.3825 Y10.8962 
G01 X9.4992 Y10.7795 
G01 X9.6363 Y10.6879 
G01 X9.7887 Y10.6248 
G01 X9.9505 Y10.5926 
G01 X11.6395 Y10.5926 
G01 X11.8013 Y10.6248 
G01 X11.9537 Y10.6879 
G01 X12.0908 Y10.7795 
G01 X12.2075 Y10.8962 
G01 X12.2991 Y11.0333 
G01 X12.3622 Y11.1857 
G01 X12.3944 Y11.3475 
G01 X12.3944 Y11.5125 
G01 X12.3622 Y11.6743 
G01 X12.2991 Y11.8267 
G01 X12.2075 Y11.9638 
G01 X12.0908 Y12.0805 
G01 X11.9537 Y12.1721 
G01 X11.8013 Y12.2352 
G01 X11.6395 Y12.2674 
G01 X9.9505 Y12.2674 
G01 X9.7887 Y12.2352 
G01 X9.6363 Y12.1721 
G01 X9.4992 Y12.0805 
G01 X9.3825 Y11.9638 
G01 X9.3478 Y11.9118 
G01 X9.0896 Y11.9118 
G01 X8.1018 Y12.8996 
G01 X8.1018 Y15.0404 
G01 X9.0896 Y16.0282 
G01 X9.3478 Y16.0282 
G01 X9.3825 Y15.9762 
G01 X9.4992 Y15.8595 
G01 X9.6363 Y15.7679 
G01 X9.7887 Y15.7048 
G01 X9.9505 Y15.6726 
G01 X11.6395 Y15.6726 
G01 X11.8013 Y15.7048 
G01 X11.9537 Y15.7679 
G01 X12.0908 Y15.8595 
G01 X12.2075 Y15.9762 
G01 X12.2991 Y16.1133 
G01 X12.3622 Y16.2657 
G01 X12.3944 Y16.4275 
G01 X12.3944 Y16.5925 
G01 X12.3622 Y16.7543 
G01 X12.2991 Y16.9067 
G01 X12.2075 Y17.0438 
G01 X12.0908 Y17.1605 
G01 X11.9537 Y17.2521 
G01 X11.8013 Y17.3152 
G01 X11.6395 Y17.3474 
G01 X9.9505 Y17.3474 
G01 X9.7887 Y17.3152 
G01 X9.6363 Y17.2521 
G01 X9.4992 Y17.1605 
G01 X9.3825 Y17.0438 
G01 X9.3478 Y16.9918 
G01 X9.0896 Y16.9918 
G01 X8.1018 Y17.9796 
G01 X8.1018 Y20.1204 
G01 X9.0896 Y21.1082 
G01 X9.3478 Y21.1082 
G01 X9.3825 Y21.0562 
G01 X9.4992 Y20.9395 
G01 X9.6363 Y20.8479 
G01 X9.7887 Y20.7848 
G01 X9.9505 Y20.7526 
G01 X11.6395 Y20.7526 
G01 X11.8013 Y20.7848 
G01 X11.9537 Y20.8479 
G01 X12.0908 Y20.9395 
G01 X12.2075 Y21.0562 
G01 X12.2991 Y21.1933 
G01 X12.3622 Y21.3457 
G01 X12.3944 Y21.5075 
G01 X12.3944 Y21.6725 
G01 X12.3622 Y21.8343 
G01 X12.2991 Y21.9867 
G01 X12.2075 Y22.1238 
G01 X12.0908 Y22.2405 
G01 X11.9537 Y22.3321 
G01 X11.8013 Y22.3952 
G01 X11.6395 Y22.4274 
G01 X9.9505 Y22.4274 
G01 X9.7887 Y22.3952 
G01 X9.6363 Y22.3321 
G01 X9.4992 Y22.2405 
G01 X9.3825 Y22.1238 
G01 X9.3478 Y22.0718 
G01 X9.0896 Y22.0718 
G01 X8.1018 Y23.0596 
G01 X8.1018 Y27.7404 
G01 X9.0896 Y28.7282 
G01 X9.3478 Y28.7282 
G01 X9.3825 Y28.6762 
G01 X9.4992 Y28.5595 
G01 X9.6363 Y28.4679 
G01 X9.7887 Y28.4048 
G01 X9.9505 Y28.3726 
G01 X11.6395 Y28.3726 
G01 X11.8013 Y28.4048 
G01 X11.9537 Y28.4679 
G01 X12.0908 Y28.5595 
G01 X12.2075 Y28.6762 
G01 X12.2991 Y28.8133 
G01 X12.3622 Y28.9657 
G01 X12.3944 Y29.1275 
G01 X12.3944 Y29.2925 
G01 X12.3622 Y29.4543 
G01 X12.2991 Y29.6067 
G01 X12.2075 Y29.7438 
G01 X12.0908 Y29.8605 
G01 X11.9537 Y29.9521 
G01 X11.8013 Y30.0152 
G01 X11.6395 Y30.0474 
G01 X9.9505 Y30.0474 
G01 X9.7887 Y30.0152 
G01 X9.6363 Y29.9521 
G01 X9.4992 Y29.8605 
G01 X9.3825 Y29.7438 
G01 X9.3478 Y29.6918 
G01 X9.0896 Y29.6918 
G01 X8.1018 Y30.6796 
G01 X8.1018 Y32.8204 
G01 X9.0896 Y33.8082 
G01 X9.3478 Y33.8082 
G01 X9.3825 Y33.7562 
G01 X9.4992 Y33.6395 
G01 X9.6363 Y33.5479 
G01 X9.7887 Y33.4848 
G01 X9.9505 Y33.4526 
G01 X11.6395 Y33.4526 
G01 X11.8013 Y33.4848 
G01 X11.9537 Y33.5479 
G01 X12.0908 Y33.6395 
G01 X12.2075 Y33.7562 
G01 X12.2991 Y33.8933 
G01 X12.3622 Y34.0457 
G01 X12.3944 Y34.2075 
G01 X12.3944 Y34.3725 
G01 X12.3622 Y34.5343 
G01 X12.2991 Y34.6867 
G01 X12.2075 Y34.8238 
G01 X12.0908 Y34.9404 
G01 X11.9537 Y35.0321 
G01 X11.8013 Y35.0952 
G01 X11.6395 Y35.1274 
G01 X9.9505 Y35.1274 
G01 X9.7887 Y35.0952 
G01 X9.6363 Y35.0321 
G01 X9.4992 Y34.9404 
G01 X9.3825 Y34.8238 
G01 X9.3478 Y34.7718 
G01 X9.0896 Y34.7718 
G01 X8.1018 Y35.7596 
G01 X8.1018 Y37.9004 
G01 X9.0896 Y38.8882 
G01 X9.3478 Y38.8882 
G01 X9.3825 Y38.8362 
G01 X9.4992 Y38.7195 
G01 X9.6363 Y38.6279 
G01 X9.7887 Y38.5648 
G01 X9.9505 Y38.5326 
G01 X11.6395 Y38.5326 
G01 X11.8013 Y38.5648 
G01 X11.9537 Y38.6279 
G01 X12.0908 Y38.7195 
G01 X12.2075 Y38.8362 
G01 X12.2991 Y38.9733 
G01 X12.3622 Y39.1257 
G01 X12.3944 Y39.2875 
G01 X12.3944 Y39.4525 
G01 X12.3622 Y39.6143 
G01 X12.2991 Y39.7667 
G01 X12.2075 Y39.9038 
G01 X12.0908 Y40.0205 
G01 X11.9537 Y40.1121 
G01 X11.8013 Y40.1752 
G01 X11.6395 Y40.2074 
G01 X9.9505 Y40.2074 
G01 X9.7887 Y40.1752 
G01 X9.6363 Y40.1121 
G01 X9.4992 Y40.0205 
G01 X9.3825 Y39.9038 
G01 X9.3478 Y39.8518 
G01 X9.0896 Y39.8518 
G01 X8.1018 Y40.8396 
G01 X8.1018 Y42.9804 
G01 X9.0896 Y43.9682 
G01 X9.3478 Y43.9682 
G01 X9.3825 Y43.9162 
G01 X9.4992 Y43.7995 
G01 X9.6363 Y43.7079 
G01 X9.7887 Y43.6448 
G01 X9.9505 Y43.6126 
G01 X11.6395 Y43.6126 
G01 X11.8013 Y43.6448 
G01 X11.9537 Y43.7079 
G01 X12.0908 Y43.7995 
G01 X12.2075 Y43.9162 
G01 X12.2991 Y44.0533 
G01 X12.3622 Y44.2057 
G01 X12.3944 Y44.3675 
G01 X12.3944 Y44.5325 
G01 X12.3622 Y44.6943 
G01 X12.2991 Y44.8467 
G01 X12.2075 Y44.9838 
G01 X12.0908 Y45.1005 
G01 X11.9537 Y45.1921 
G01 X11.8013 Y45.2552 
G01 X11.6395 Y45.2874 
G01 X9.9505 Y45.2874 
G01 X9.7887 Y45.2552 
G01 X9.6363 Y45.1921 
G01 X9.4992 Y45.1005 
G01 X9.3825 Y44.9838 
G01 X9.3478 Y44.9318 
G01 X9.0896 Y44.9318 
G01 X8.1018 Y45.9196 
G01 X8.1018 Y48.0604 
G01 X9.0896 Y49.0482 
G01 X11.8654 Y49.0482 
G01 X13.3747 Y47.5389 
G01 X13.3582 Y47.5065 
G01 X13.2927 Y47.3050 
G01 X13.2596 Y47.0959 
G01 X13.2596 Y46.8841 
G01 X13.2927 Y46.6750 
G01 X13.3582 Y46.4735 
G01 X13.4543 Y46.2849 
G01 X13.5788 Y46.1135 
G01 X13.7285 Y45.9638 
G01 X13.8999 Y45.8393 
G01 X14.0885 Y45.7432 
G01 X14.2900 Y45.6777 
G01 X14.4991 Y45.6446 
G01 X14.7109 Y45.6446 
G01 X14.9200 Y45.6777 
G01 X15.1215 Y45.7432 
G01 X15.3101 Y45.8393 
G01 X15.4815 Y45.9638 
G01 X15.6312 Y46.1135 
G01 X15.7557 Y46.2849 
G01 X15.8518 Y46.4735 
G01 X15.9173 Y46.6750 
G01 X15.9504 Y46.8841 
G01 X15.9504 Y47.0959 
G01 X15.9173 Y47.3050 
G01 X15.8518 Y47.5065 
G01 X15.7557 Y47.6951 
G01 X15.6312 Y47.8665 
G01 X15.4815 Y48.0162 
G01 X15.3101 Y48.1407 
G01 X15.1215 Y48.2368 
G01 X14.9200 Y48.3023 
G01 X14.7109 Y48.3354 
G01 X14.4991 Y48.3354 
G01 X14.2900 Y48.3023 
G01 X14.0885 Y48.2368 
G01 X14.0561 Y48.2203 
G01 X12.3608 Y49.9155 
G01 X12.2510 Y49.9790 
G01 X12.1284 Y50.0118 
G01 X8.8266 Y50.0118 
G01 X8.7040 Y49.9790 
G01 X8.5942 Y49.9155 
G01 X8.5045 Y49.8258 
G01 X7.2345 Y48.5558 
G01 X7.1710 Y48.4460 
G01 X7.1382 Y48.3234 
G01 X7.1382 Y45.6566 
G01 X7.1710 Y45.5340 
G01 X7.2345 Y45.4242 
G01 X7.3242 Y45.3345 
G01 X8.2086 Y44.4500 
G01 X7.2345 Y43.4758 
G01 X7.1710 Y43.3660 
G01 X7.1382 Y43.2434 
G01 X7.1382 Y40.5766 
G01 X7.1710 Y40.4540 
G01 X7.2345 Y40.3442 
G01 X7.3242 Y40.2545 
G01 X8.2086 Y39.3700 
G01 X7.2345 Y38.3958 
G01 X7.1710 Y38.2860 
G01 X7.1382 Y38.1634 
G01 X7.1382 Y35.4966 
G01 X7.1710 Y35.3740 
G01 X7.2345 Y35.2642 
G01 X7.3242 Y35.1745 
G01 X8.2086 Y34.2900 
G01 X7.2345 Y33.3158 
G01 X7.1710 Y33.2060 
G01 X7.1382 Y33.0834 
G01 X7.1382 Y30.4166 
G01 X7.1710 Y30.2940 
G01 X7.2345 Y30.1842 
G01 X7.3242 Y30.0945 
G01 X8.2086 Y29.2100 
G01 X7.2345 Y28.2358 
G01 X7.1710 Y28.1260 
G01 X7.1382 Y28.0034 
G01 X7.1382 Y22.7966 
G01 X7.1710 Y22.6740 
G01 X7.2345 Y22.5642 
G01 X7.3242 Y22.4745 
G01 X8.2086 Y21.5900 
G01 X7.2345 Y20.6158 
G01 X7.1710 Y20.5060 
G01 X7.1382 Y20.3834 
G01 X7.1382 Y17.7166 
G01 X7.1710 Y17.5940 
G01 X7.2345 Y17.4842 
G01 X7.3242 Y17.3945 
G01 X8.2086 Y16.5100 
G01 X7.2345 Y15.5358 
G01 X7.1710 Y15.4260 
G01 X7.1382 Y15.3034 
G01 X7.1382 Y12.6366 
G01 X7.1710 Y12.5140 
G01 X7.2345 Y12.4042 
G01 X7.3242 Y12.3145 
G01 X8.2086 Y11.4300 
G01 X7.2345 Y10.4558 
G01 X7.1710 Y10.3460 
G01 X7.1382 Y10.2234 
G01 X7.1382 Y7.5566 
G01 X7.1710 Y7.4340 
G01 X7.2345 Y7.3242 
G01 X7.3242 Y7.2345 
G01 X8.5942 Y5.9645 
G01 X8.7040 Y5.9010 
G01 X8.8266 Y5.8682 
G01 X9.3478 Y5.8682 
G01 X9.3825 Y5.8162 
G01 X9.4992 Y5.6995 
G01 X9.6363 Y5.6079 
G01 X9.7887 Y5.5448 
G01 X9.9505 Y5.5126 
G01 X11.6395 Y5.5126 
G01 X11.8013 Y5.5448 
G01 X11.9537 Y5.6079 
G01 X12.0908 Y5.6995 
G01 X12.2075 Y5.8162 
G01 X12.2422 Y5.8682 
G01 X25.8578 Y5.8682 
G01 X25.8925 Y5.8162 
G01 X26.0092 Y5.6995 
G01 X26.1463 Y5.6079 
G01 X26.2987 Y5.5448 
G01 X26.4605 Y5.5126 
G01 X28.1495 Y5.5126 
G01 X28.3113 Y5.5448 
G01 X28.4637 Y5.6079 
G01 X28.6008 Y5.6995 
G01 X28.7175 Y5.8162 
G01 X28.7522 Y5.8682 
G01 X36.6304 Y5.8682 
G01 X37.6182 Y4.8804 
G00 Z2.5400 
G00 X30.5779 Y35.0258 
G01 Z-0.1000 F254.00 
G01 X29.1121 Y35.0258 F508.00 
G01 X28.9700 Y34.9975 
G01 X28.8361 Y34.9421 
G01 X28.7156 Y34.8615 
G01 X28.6131 Y34.7590 
G01 X28.5325 Y34.6385 
G01 X28.4771 Y34.5046 
G01 X28.4488 Y34.3625 
G01 X28.4488 Y34.2175 
G01 X28.4771 Y34.0754 
G01 X28.5325 Y33.9415 
G01 X28.6131 Y33.8210 
G01 X28.7156 Y33.7185 
G01 X28.8361 Y33.6379 
G01 X28.9700 Y33.5825 
G01 X29.1121 Y33.5542 
G01 X30.5344 Y33.5542 
G01 X31.9995 Y32.0892 
G01 X32.0892 Y31.9995 
G01 X32.1990 Y31.9360 
G01 X32.3216 Y31.9032 
G01 X48.9584 Y31.9032 
G01 X49.0810 Y31.9360 
G01 X49.1908 Y31.9995 
G01 X51.0958 Y33.9045 
G01 X51.1855 Y33.9942 
G01 X51.2490 Y34.1040 
G01 X51.2818 Y34.2266 
G01 X51.2818 Y49.9898 
G01 X51.7136 Y50.4216 
G01 X51.7136 Y51.1784 
G01 X51.1784 Y51.7136 
G01 X50.4216 Y51.7136 
G01 X49.8864 Y51.1784 
G01 X49.8864 Y50.4216 
G01 X50.3182 Y49.9898 
G01 X50.3182 Y34.4896 
G01 X48.6954 Y32.8668 
G01 X32.5846 Y32.8668 
G01 X31.2400 Y34.2114 
G01 X31.2412 Y34.2175 
G01 X31.2412 Y34.3625 
G01 X31.2129 Y34.5046 
G01 X31.1575 Y34.6385 
G01 X31.0769 Y34.7590 
G01 X30.9744 Y34.8615 
G01 X30.8539 Y34.9421 
G01 X30.7200 Y34.9975 
G01 X30.5779 Y35.0258 
G00 Z2.5400 
G00 X30.5779 Y27.4058 
G01 Z-0.1000 F254.00 
G01 X29.1121 Y27.4058 F508.00 
G01 X28.9700 Y27.3775 
G01 X28.8361 Y27.3221 
G01 X28.7156 Y27.2415 
G01 X28.6131 Y27.1390 
G01 X28.5325 Y27.0185 
G01 X28.4771 Y26.8846 
G01 X28.4488 Y26.7425 
G01 X28.4488 Y26.5975 
G01 X28.4771 Y26.4554 
G01 X28.5325 Y26.3215 
G01 X28.6131 Y26.2010 
G01 X28.7156 Y26.0985 
G01 X28.8361 Y26.0179 
G01 X28.9700 Y25.9625 
G01 X29.1121 Y25.9342 
G01 X30.5344 Y25.9342 
G01 X30.8192 Y25.6495 
G01 X30.9290 Y25.5860 
G01 X31.0516 Y25.5532 
G01 X52.1334 Y25.5532 
G01 X52.2560 Y25.5860 
G01 X52.3658 Y25.6495 
G01 X52.4555 Y25.7392 
G01 X58.8055 Y32.0892 
G01 X58.8690 Y32.1990 
G01 X58.9018 Y32.3216 
G01 X58.9018 Y49.9898 
G01 X59.3336 Y50.4216 
G01 X59.3336 Y51.1784 
G01 X58.7984 Y51.7136 
G01 X58.0416 Y51.7136 
G01 X57.5064 Y51.1784 
G01 X57.5064 Y50.4216 
G01 X57.9382 Y49.9898 
G01 X57.9382 Y32.5846 
G01 X51.8704 Y26.5168 
G01 X31.3146 Y26.5168 
G01 X31.2400 Y26.5914 
G01 X31.2412 Y26.5975 
G01 X31.2412 Y26.7425 
G01 X31.2129 Y26.8846 
G01 X31.1575 Y27.0185 
G01 X31.0769 Y27.1390 
G01 X30.9744 Y27.2415 
G01 X30.8539 Y27.3221 
G01 X30.7200 Y27.3775 
G01 X30.5779 Y27.4058 
G00 Z2.5400 
G00 X30.5779 Y22.3258 
G01 Z-0.1000 F254.00 
G01 X29.1121 Y22.3258 F508.00 
G01 X28.9700 Y22.2975 
G01 X28.8361 Y22.2421 
G01 X28.7156 Y22.1615 
G01 X28.6131 Y22.0590 
G01 X28.5325 Y21.9385 
G01 X28.4771 Y21.8046 
G01 X28.4488 Y21.6625 
G01 X28.4488 Y21.5175 
G01 X28.4771 Y21.3754 
G01 X28.5325 Y21.2415 
G01 X28.6131 Y21.1210 
G01 X28.7156 Y21.0185 
G01 X28.8361 Y20.9379 
G01 X28.9700 Y20.8825 
G01 X29.1121 Y20.8542 
G01 X29.3632 Y20.8542 
G01 X29.3632 Y20.3081 
G01 X29.3285 Y20.2968 
G01 X29.1399 Y20.2007 
G01 X28.9685 Y20.0762 
G01 X28.8188 Y19.9265 
G01 X28.6943 Y19.7551 
G01 X28.5982 Y19.5665 
G01 X28.5327 Y19.3650 
G01 X28.4996 Y19.1559 
G01 X28.4996 Y18.9441 
G01 X28.5327 Y18.7350 
G01 X28.5982 Y18.5335 
G01 X28.6943 Y18.3449 
G01 X28.8188 Y18.1735 
G01 X28.9685 Y18.0238 
G01 X29.1399 Y17.8993 
G01 X29.3285 Y17.8032 
G01 X29.5300 Y17.7377 
G01 X29.7391 Y17.7046 
G01 X29.9509 Y17.7046 
G01 X30.1600 Y17.7377 
G01 X30.3615 Y17.8032 
G01 X30.5501 Y17.8993 
G01 X30.7215 Y18.0238 
G01 X30.8712 Y18.1735 
G01 X30.9957 Y18.3449 
G01 X31.0918 Y18.5335 
G01 X31.1573 Y18.7350 
G01 X31.1904 Y18.9441 
G01 X31.1904 Y19.1559 
G01 X31.1573 Y19.3650 
G01 X31.0918 Y19.5665 
G01 X30.9957 Y19.7551 
G01 X30.8712 Y19.9265 
G01 X30.7215 Y20.0762 
G01 X30.5501 Y20.2007 
G01 X30.3615 Y20.2968 
G01 X30.3268 Y20.3081 
G01 X30.3268 Y20.8542 
G01 X30.5779 Y20.8542 
G01 X30.7200 Y20.8825 
G01 X30.8539 Y20.9379 
G01 X30.9744 Y21.0185 
G01 X31.0769 Y21.1210 
G01 X31.1575 Y21.2415 
G01 X31.2129 Y21.3754 
G01 X31.2412 Y21.5175 
G01 X31.2412 Y21.6625 
G01 X31.2129 Y21.8046 
G01 X31.1575 Y21.9385 
G01 X31.0769 Y22.0590 
G01 X30.9744 Y22.1615 
G01 X30.8539 Y22.2421 
G01 X30.7200 Y22.2975 
G01 X30.5779 Y22.3258 
G00 Z2.5400 
G00 X22.9579 Y35.0258 
G01 Z-0.1000 F254.00 
G01 X21.4921 Y35.0258 F508.00 
G01 X21.3500 Y34.9975 
G01 X21.2161 Y34.9421 
G01 X21.0956 Y34.8615 
G01 X21.0058 Y34.7718 
G01 X18.9992 Y34.7718 
G01 X18.9094 Y34.8615 
G01 X18.7889 Y34.9421 
G01 X18.6550 Y34.9975 
G01 X18.5129 Y35.0258 
G01 X17.0471 Y35.0258 
G01 X16.9050 Y34.9975 
G01 X16.7711 Y34.9421 
G01 X16.6506 Y34.8615 
G01 X16.5608 Y34.7718 
G01 X14.1696 Y34.7718 
G01 X13.8168 Y35.1246 
G01 X13.8168 Y36.2584 
G01 X13.7840 Y36.3810 
G01 X13.7205 Y36.4908 
G01 X13.0855 Y37.1258 
G01 X12.9958 Y37.2155 
G01 X12.8860 Y37.2790 
G01 X12.7634 Y37.3118 
G01 X12.2422 Y37.3118 
G01 X12.2075 Y37.3638 
G01 X12.0908 Y37.4805 
G01 X11.9537 Y37.5721 
G01 X11.8013 Y37.6352 
G01 X11.6395 Y37.6674 
G01 X9.9505 Y37.6674 
G01 X9.7887 Y37.6352 
G01 X9.6363 Y37.5721 
G01 X9.4992 Y37.4805 
G01 X9.3825 Y37.3638 
G01 X9.2909 Y37.2267 
G01 X9.2278 Y37.0743 
G01 X9.1956 Y36.9125 
G01 X9.1956 Y36.7475 
G01 X9.2278 Y36.5857 
G01 X9.2909 Y36.4333 
G01 X9.3825 Y36.2962 
G01 X9.4992 Y36.1795 
G01 X9.6363 Y36.0879 
G01 X9.7887 Y36.0248 
G01 X9.9505 Y35.9926 
G01 X11.6395 Y35.9926 
G01 X11.8013 Y36.0248 
G01 X11.9537 Y36.0879 
G01 X12.0908 Y36.1795 
G01 X12.2075 Y36.2962 
G01 X12.2422 Y36.3482 
G01 X12.5004 Y36.3482 
G01 X12.8532 Y35.9954 
G01 X12.8532 Y34.8616 
G01 X12.8860 Y34.7390 
G01 X12.9495 Y34.6292 
G01 X13.0392 Y34.5395 
G01 X13.5845 Y33.9942 
G01 X13.6742 Y33.9045 
G01 X13.7840 Y33.8410 
G01 X13.9066 Y33.8082 
G01 X16.5608 Y33.8082 
G01 X16.6506 Y33.7185 
G01 X16.7711 Y33.6379 
G01 X16.9050 Y33.5825 
G01 X17.0471 Y33.5542 
G01 X18.5129 Y33.5542 
G01 X18.6550 Y33.5825 
G01 X18.7889 Y33.6379 
G01 X18.9094 Y33.7185 
G01 X18.9992 Y33.8082 
G01 X21.0058 Y33.8082 
G01 X21.0956 Y33.7185 
G01 X21.2161 Y33.6379 
G01 X21.3500 Y33.5825 
G01 X21.4921 Y33.5542 
G01 X22.9579 Y33.5542 
G01 X23.1000 Y33.5825 
G01 X23.2339 Y33.6379 
G01 X23.3544 Y33.7185 
G01 X23.4569 Y33.8210 
G01 X23.5375 Y33.9415 
G01 X23.5929 Y34.0754 
G01 X23.6212 Y34.2175 
G01 X23.6212 Y34.3625 
G01 X23.5929 Y34.5046 
G01 X23.5375 Y34.6385 
G01 X23.4569 Y34.7590 
G01 X23.3544 Y34.8615 
G01 X23.2339 Y34.9421 
G01 X23.1000 Y34.9975 
G01 X22.9579 Y35.0258 
G00 Z2.5400 
G00 X22.9579 Y24.8658 
G01 Z-0.1000 F254.00 
G01 X21.4921 Y24.8658 F508.00 
G01 X21.3500 Y24.8375 
G01 X21.2161 Y24.7821 
G01 X21.0956 Y24.7015 
G01 X21.0058 Y24.6118 
G01 X18.9992 Y24.6118 
G01 X18.9094 Y24.7015 
G01 X18.7889 Y24.7821 
G01 X18.6550 Y24.8375 
G01 X18.5129 Y24.8658 
G01 X17.0471 Y24.8658 
G01 X16.9050 Y24.8375 
G01 X16.7711 Y24.7821 
G01 X16.6506 Y24.7015 
G01 X16.5608 Y24.6118 
G01 X16.4466 Y24.6118 
G01 X16.3240 Y24.5790 
G01 X16.2142 Y24.5155 
G01 X16.1245 Y24.4258 
G01 X14.8545 Y23.1558 
G01 X14.7910 Y23.0460 
G01 X14.7582 Y22.9234 
G01 X14.7582 Y15.4396 
G01 X13.7704 Y14.4518 
G01 X12.2422 Y14.4518 
G01 X12.2075 Y14.5038 
G01 X12.0908 Y14.6204 
G01 X11.9537 Y14.7121 
G01 X11.8013 Y14.7752 
G01 X11.6395 Y14.8074 
G01 X9.9505 Y14.8074 
G01 X9.7887 Y14.7752 
G01 X9.6363 Y14.7121 
G01 X9.4992 Y14.6204 
G01 X9.3825 Y14.5038 
G01 X9.2909 Y14.3667 
G01 X9.2278 Y14.2143 
G01 X9.1956 Y14.0525 
G01 X9.1956 Y13.8875 
G01 X9.2278 Y13.7257 
G01 X9.2909 Y13.5733 
G01 X9.3825 Y13.4362 
G01 X9.4992 Y13.3195 
G01 X9.6363 Y13.2279 
G01 X9.7887 Y13.1648 
G01 X9.9505 Y13.1326 
G01 X11.6395 Y13.1326 
G01 X11.8013 Y13.1648 
G01 X11.9537 Y13.2279 
G01 X12.0908 Y13.3195 
G01 X12.2075 Y13.4362 
G01 X12.2422 Y13.4882 
G01 X14.0334 Y13.4882 
G01 X14.1560 Y13.5210 
G01 X14.2658 Y13.5845 
G01 X15.5358 Y14.8545 
G01 X15.6255 Y14.9442 
G01 X15.6890 Y15.0540 
G01 X15.7218 Y15.1766 
G01 X15.7218 Y22.6604 
G01 X16.6352 Y23.5738 
G01 X16.6506 Y23.5585 
G01 X16.7711 Y23.4779 
G01 X16.9050 Y23.4225 
G01 X17.0471 Y23.3942 
G01 X18.5129 Y23.3942 
G01 X18.6550 Y23.4225 
G01 X18.7889 Y23.4779 
G01 X18.9094 Y23.5585 
G01 X18.9992 Y23.6482 
G01 X21.0058 Y23.6482 
G01 X21.0956 Y23.5585 
G01 X21.2161 Y23.4779 
G01 X21.3500 Y23.4225 
G01 X21.4921 Y23.3942 
G01 X22.9579 Y23.3942 
G01 X23.1000 Y23.4225 
G01 X23.2339 Y23.4779 
G01 X23.3544 Y23.5585 
G01 X23.4569 Y23.6610 
G01 X23.5375 Y23.7815 
G01 X23.5929 Y23.9154 
G01 X23.6212 Y24.0575 
G01 X23.6212 Y24.2025 
G01 X23.5929 Y24.3446 
G01 X23.5375 Y24.4785 
G01 X23.4569 Y24.5990 
G01 X23.3544 Y24.7015 
G01 X23.2339 Y24.7821 
G01 X23.1000 Y24.8375 
G01 X22.9579 Y24.8658 
G00 Z2.5400 
G00 X54.1550 Y9.2954 
G01 Z-0.1000 F254.00 
G01 X53.8218 Y9.2954 F508.00 
G01 X53.8218 Y10.5164 
G01 X54.2682 Y10.5164 
G01 X54.4447 Y10.5515 
G01 X54.6110 Y10.6204 
G01 X54.7606 Y10.7204 
G01 X54.8878 Y10.8476 
G01 X54.9878 Y10.9972 
G01 X55.0567 Y11.1635 
G01 X55.0918 Y11.3400 
G01 X55.0918 Y11.5200 
G01 X55.0567 Y11.6965 
G01 X54.9878 Y11.8628 
G01 X54.8878 Y12.0124 
G01 X54.7606 Y12.1396 
G01 X54.6110 Y12.2396 
G01 X54.4447 Y12.3085 
G01 X54.2682 Y12.3436 
G01 X52.4118 Y12.3436 
G01 X52.2353 Y12.3085 
G01 X52.0690 Y12.2396 
G01 X51.9194 Y12.1396 
G01 X51.7922 Y12.0124 
G01 X51.6922 Y11.8628 
G01 X51.6233 Y11.6965 
G01 X51.5882 Y11.5200 
G01 X51.5882 Y11.3400 
G01 X51.6233 Y11.1635 
G01 X51.6922 Y10.9972 
G01 X51.7922 Y10.8476 
G01 X51.9194 Y10.7204 
G01 X52.0690 Y10.6204 
G01 X52.2353 Y10.5515 
G01 X52.4118 Y10.5164 
G01 X52.8582 Y10.5164 
G01 X52.8582 Y9.2954 
G01 X52.5250 Y9.2954 
G01 X52.4973 Y9.2839 
G01 X52.4761 Y9.2627 
G01 X52.4646 Y9.2350 
G01 X52.4646 Y7.9050 
G01 X52.4761 Y7.8773 
G01 X52.4973 Y7.8561 
G01 X52.5250 Y7.8446 
G01 X54.1550 Y7.8446 
G01 X54.1827 Y7.8561 
G01 X54.2039 Y7.8773 
G01 X54.2154 Y7.9050 
G01 X54.2154 Y9.2350 
G01 X54.2039 Y9.2627 
G01 X54.1827 Y9.2839 
G01 X54.1550 Y9.2954 
G00 Z2.5400 
G00 X61.8740 Y14.8643 
G01 Z-0.1000 F254.00 
G01 X63.8560 Y14.8643 F508.00 
G01 X64.0435 Y14.9016 
G01 X64.2202 Y14.9747 
G01 X64.3792 Y15.0810 
G01 X64.5144 Y15.2162 
G01 X64.6206 Y15.3752 
G01 X64.6938 Y15.5518 
G01 X64.7311 Y15.7394 
G01 X64.7311 Y15.9306 
G01 X64.6938 Y16.1182 
G01 X64.6206 Y16.2948 
G01 X64.5144 Y16.4538 
G01 X64.3792 Y16.5890 
G01 X64.2202 Y16.6953 
G01 X64.0435 Y16.7684 
G01 X63.8560 Y16.8057 
G01 X61.8740 Y16.8057 
G01 X61.6865 Y16.7684 
G01 X61.5098 Y16.6953 
G01 X61.3508 Y16.5890 
G01 X61.3072 Y16.5454 
G01 X59.5800 Y16.5454 
G01 X59.4428 Y16.5181 
G01 X59.3135 Y16.4645 
G01 X59.1971 Y16.3868 
G01 X57.4907 Y14.6804 
G01 X54.7594 Y14.6804 
G01 X54.6110 Y14.7796 
G01 X54.4447 Y14.8485 
G01 X54.2682 Y14.8836 
G01 X52.4118 Y14.8836 
G01 X52.2353 Y14.8485 
G01 X52.0690 Y14.7796 
G01 X51.9194 Y14.6796 
G01 X51.7922 Y14.5524 
G01 X51.6922 Y14.4028 
G01 X51.6233 Y14.2365 
G01 X51.5882 Y14.0600 
G01 X51.5882 Y13.8800 
G01 X51.6233 Y13.7035 
G01 X51.6922 Y13.5372 
G01 X51.7922 Y13.3876 
G01 X51.9194 Y13.2604 
G01 X52.0690 Y13.1604 
G01 X52.2353 Y13.0915 
G01 X52.4118 Y13.0564 
G01 X54.2682 Y13.0564 
G01 X54.4447 Y13.0915 
G01 X54.6110 Y13.1604 
G01 X54.7594 Y13.2596 
G01 X57.8550 Y13.2596 
G01 X57.9922 Y13.2869 
G01 X58.1215 Y13.3405 
G01 X58.2379 Y13.4182 
G01 X58.3368 Y13.5171 
G01 X59.9443 Y15.1246 
G01 X61.3072 Y15.1246 
G01 X61.3508 Y15.0810 
G01 X61.5098 Y14.9747 
G01 X61.6865 Y14.9016 
G01 X61.8740 Y14.8643 
G00 Z2.5400 
G00 X61.8740 Y21.2943 
G01 Z-0.1000 F254.00 
G01 X63.8560 Y21.2943 F508.00 
G01 X64.0435 Y21.3316 
G01 X64.2202 Y21.4047 
G01 X64.3792 Y21.5110 
G01 X64.3828 Y21.5146 
G01 X65.1107 Y21.5146 
G01 X65.9646 Y20.6607 
G01 X65.9646 Y12.3593 
G01 X65.1507 Y11.5454 
G01 X64.4228 Y11.5454 
G01 X64.3792 Y11.5890 
G01 X64.2202 Y11.6953 
G01 X64.0435 Y11.7684 
G01 X63.8560 Y11.8057 
G01 X61.8740 Y11.8057 
G01 X61.6865 Y11.7684 
G01 X61.5098 Y11.6953 
G01 X61.3508 Y11.5890 
G01 X61.2156 Y11.4538 
G01 X61.1094 Y11.2948 
G01 X61.0362 Y11.1182 
G01 X60.9989 Y10.9306 
G01 X60.9989 Y10.7394 
G01 X61.0362 Y10.5518 
G01 X61.1094 Y10.3752 
G01 X61.2156 Y10.2162 
G01 X61.3508 Y10.0810 
G01 X61.5098 Y9.9747 
G01 X61.6865 Y9.9016 
G01 X61.8740 Y9.8643 
G01 X63.8560 Y9.8643 
G01 X64.0435 Y9.9016 
G01 X64.2202 Y9.9747 
G01 X64.3792 Y10.0810 
G01 X64.4228 Y10.1246 
G01 X65.5150 Y10.1246 
G01 X65.6522 Y10.1519 
G01 X65.7815 Y10.2055 
G01 X65.8979 Y10.2832 
G01 X67.1279 Y11.5132 
G01 X67.2268 Y11.6121 
G01 X67.3045 Y11.7285 
G01 X67.3581 Y11.8578 
G01 X67.3854 Y11.9950 
G01 X67.3854 Y21.0250 
G01 X67.3581 Y21.1622 
G01 X67.3045 Y21.2915 
G01 X67.2268 Y21.4079 
G01 X65.9568 Y22.6778 
G01 X65.8579 Y22.7768 
G01 X65.7415 Y22.8545 
G01 X65.6122 Y22.9081 
G01 X65.4750 Y22.9354 
G01 X64.4628 Y22.9354 
G01 X64.3792 Y23.0190 
G01 X64.2202 Y23.1253 
G01 X64.0435 Y23.1984 
G01 X63.8560 Y23.2357 
G01 X61.8740 Y23.2357 
G01 X61.6865 Y23.1984 
G01 X61.5098 Y23.1253 
G01 X61.3508 Y23.0190 
G01 X61.2156 Y22.8838 
G01 X61.1094 Y22.7248 
G01 X61.0362 Y22.5482 
G01 X60.9989 Y22.3606 
G01 X60.9989 Y22.1694 
G01 X61.0362 Y21.9818 
G01 X61.1094 Y21.8052 
G01 X61.2156 Y21.6462 
G01 X61.3508 Y21.5110 
G01 X61.5098 Y21.4047 
G01 X61.6865 Y21.3316 
G01 X61.8740 Y21.2943 
G00 Z2.5400 
G00 X35.7695 Y44.0174 
G01 Z-0.1000 F254.00 
G01 X34.0805 Y44.0174 F508.00 
G01 X33.9187 Y43.9852 
G01 X33.7663 Y43.9221 
G01 X33.6292 Y43.8304 
G01 X33.5125 Y43.7138 
G01 X33.4209 Y43.5767 
G01 X33.3578 Y43.4243 
G01 X33.3256 Y43.2625 
G01 X33.3256 Y43.0975 
G01 X33.3578 Y42.9357 
G01 X33.4209 Y42.7833 
G01 X33.5125 Y42.6462 
G01 X33.6292 Y42.5295 
G01 X33.7663 Y42.4379 
G01 X33.9187 Y42.3748 
G01 X34.0805 Y42.3426 
G01 X35.7695 Y42.3426 
G01 X35.9313 Y42.3748 
G01 X36.0837 Y42.4379 
G01 X36.2208 Y42.5295 
G01 X36.3375 Y42.6462 
G01 X36.3722 Y42.6982 
G01 X43.8784 Y42.6982 
G01 X44.0010 Y42.7310 
G01 X44.1108 Y42.7945 
G01 X44.2005 Y42.8842 
G01 X46.1055 Y44.7892 
G01 X46.1690 Y44.8990 
G01 X46.2018 Y45.0216 
G01 X46.2018 Y49.9898 
G01 X46.6336 Y50.4216 
G01 X46.6336 Y51.1784 
G01 X46.0984 Y51.7136 
G01 X45.3416 Y51.7136 
G01 X44.8064 Y51.1784 
G01 X44.8064 Y50.4216 
G01 X45.2382 Y49.9898 
G01 X45.2382 Y45.2846 
G01 X43.6154 Y43.6618 
G01 X36.3722 Y43.6618 
G01 X36.3375 Y43.7138 
G01 X36.2208 Y43.8304 
G01 X36.0837 Y43.9221 
G01 X35.9313 Y43.9852 
G01 X35.7695 Y44.0174 
G00 Z2.5400 
G00 X28.1495 Y9.7274 
G01 Z-0.1000 F254.00 
G01 X26.4605 Y9.7274 F508.00 
G01 X26.2987 Y9.6952 
G01 X26.1463 Y9.6321 
G01 X26.0092 Y9.5404 
G01 X25.8925 Y9.4238 
G01 X25.8578 Y9.3718 
G01 X24.3296 Y9.3718 
G01 X22.0718 Y11.6296 
G01 X22.0718 Y17.5804 
G01 X25.1505 Y20.6592 
G01 X25.2140 Y20.7690 
G01 X25.2468 Y20.8916 
G01 X25.2468 Y43.8784 
G01 X25.2140 Y44.0010 
G01 X25.1505 Y44.1108 
G01 X23.8805 Y45.3808 
G01 X23.7908 Y45.4705 
G01 X23.6810 Y45.5340 
G01 X23.5584 Y45.5668 
G01 X20.5196 Y45.5668 
G01 X19.2778 Y46.8086 
G01 X19.2778 Y49.9898 
G01 X19.7096 Y50.4216 
G01 X19.7096 Y51.1784 
G01 X19.1744 Y51.7136 
G01 X18.4176 Y51.7136 
G01 X17.8824 Y51.1784 
G01 X17.8824 Y50.4216 
G01 X18.3142 Y49.9898 
G01 X18.3142 Y46.5456 
G01 X18.3470 Y46.4230 
G01 X18.4105 Y46.3132 
G01 X20.0242 Y44.6995 
G01 X20.1340 Y44.6360 
G01 X20.2566 Y44.6032 
G01 X23.2954 Y44.6032 
G01 X24.2832 Y43.6154 
G01 X24.2832 Y21.1546 
G01 X21.2045 Y18.0758 
G01 X21.1410 Y17.9660 
G01 X21.1082 Y17.8434 
G01 X21.1082 Y11.3666 
G01 X21.1410 Y11.2440 
G01 X21.2045 Y11.1342 
G01 X21.2942 Y11.0445 
G01 X23.8342 Y8.5045 
G01 X23.9440 Y8.4410 
G01 X24.0666 Y8.4082 
G01 X25.8578 Y8.4082 
G01 X25.8925 Y8.3562 
G01 X26.0092 Y8.2395 
G01 X26.1463 Y8.1479 
G01 X26.2987 Y8.0848 
G01 X26.4605 Y8.0526 
G01 X28.1495 Y8.0526 
G01 X28.3113 Y8.0848 
G01 X28.4637 Y8.1479 
G01 X28.6008 Y8.2395 
G01 X28.7175 Y8.3562 
G01 X28.8091 Y8.4933 
G01 X28.8722 Y8.6457 
G01 X28.9044 Y8.8075 
G01 X28.9044 Y8.9725 
G01 X28.8722 Y9.1343 
G01 X28.8091 Y9.2867 
G01 X28.7175 Y9.4238 
G01 X28.6008 Y9.5404 
G01 X28.4637 Y9.6321 
G01 X28.3113 Y9.6952 
G01 X28.1495 Y9.7274 
G00 Z2.5400 
G00 X28.1495 Y14.8074 
G01 Z-0.1000 F254.00 
G01 X26.4605 Y14.8074 F508.00 
G01 X26.2987 Y14.7752 
G01 X26.1463 Y14.7121 
G01 X26.0092 Y14.6204 
G01 X25.8925 Y14.5038 
G01 X25.8009 Y14.3667 
G01 X25.7378 Y14.2143 
G01 X25.7056 Y14.0525 
G01 X25.7056 Y13.8875 
G01 X25.7378 Y13.7257 
G01 X25.8009 Y13.5733 
G01 X25.8925 Y13.4362 
G01 X26.0092 Y13.3195 
G01 X26.1463 Y13.2279 
G01 X26.2987 Y13.1648 
G01 X26.4605 Y13.1326 
G01 X28.1495 Y13.1326 
G01 X28.3113 Y13.1648 
G01 X28.4637 Y13.2279 
G01 X28.6008 Y13.3195 
G01 X28.7175 Y13.4362 
G01 X28.8091 Y13.5733 
G01 X28.8722 Y13.7257 
G01 X28.9044 Y13.8875 
G01 X28.9044 Y14.0525 
G01 X28.8722 Y14.2143 
G01 X28.8091 Y14.3667 
G01 X28.7175 Y14.5038 
G01 X28.6008 Y14.6204 
G01 X28.4637 Y14.7121 
G01 X28.3113 Y14.7752 
G01 X28.1495 Y14.8074 
G00 Z2.5400 
G00 X9.9505 Y23.2926 
G01 Z-0.1000 F254.00 
G01 X11.6395 Y23.2926 F508.00 
G01 X11.8013 Y23.3248 
G01 X11.9537 Y23.3879 
G01 X12.0908 Y23.4795 
G01 X12.2075 Y23.5962 
G01 X12.2991 Y23.7333 
G01 X12.3622 Y23.8857 
G01 X12.3944 Y24.0475 
G01 X12.3944 Y24.2125 
G01 X12.3622 Y24.3743 
G01 X12.2991 Y24.5267 
G01 X12.2075 Y24.6638 
G01 X12.0908 Y24.7805 
G01 X11.9537 Y24.8721 
G01 X11.8013 Y24.9352 
G01 X11.6395 Y24.9674 
G01 X11.2768 Y24.9674 
G01 X11.2768 Y25.2004 
G01 X14.8046 Y28.7282 
G01 X16.5608 Y28.7282 
G01 X16.6506 Y28.6385 
G01 X16.7711 Y28.5579 
G01 X16.9050 Y28.5025 
G01 X17.0471 Y28.4742 
G01 X18.5129 Y28.4742 
G01 X18.6550 Y28.5025 
G01 X18.7889 Y28.5579 
G01 X18.9094 Y28.6385 
G01 X18.9992 Y28.7282 
G01 X21.0058 Y28.7282 
G01 X21.0956 Y28.6385 
G01 X21.2161 Y28.5579 
G01 X21.3500 Y28.5025 
G01 X21.4921 Y28.4742 
G01 X22.9579 Y28.4742 
G01 X23.1000 Y28.5025 
G01 X23.2339 Y28.5579 
G01 X23.3544 Y28.6385 
G01 X23.4569 Y28.7410 
G01 X23.5375 Y28.8615 
G01 X23.5929 Y28.9954 
G01 X23.6212 Y29.1375 
G01 X23.6212 Y29.2825 
G01 X23.5929 Y29.4246 
G01 X23.5375 Y29.5585 
G01 X23.4569 Y29.6790 
G01 X23.3544 Y29.7815 
G01 X23.2339 Y29.8621 
G01 X23.1000 Y29.9175 
G01 X22.9579 Y29.9458 
G01 X21.4921 Y29.9458 
G01 X21.3500 Y29.9175 
G01 X21.2161 Y29.8621 
G01 X21.0956 Y29.7815 
G01 X21.0058 Y29.6918 
G01 X18.9992 Y29.6918 
G01 X18.9094 Y29.7815 
G01 X18.7889 Y29.8621 
G01 X18.6550 Y29.9175 
G01 X18.5129 Y29.9458 
G01 X17.0471 Y29.9458 
G01 X16.9050 Y29.9175 
G01 X16.7711 Y29.8621 
G01 X16.6506 Y29.7815 
G01 X16.5608 Y29.6918 
G01 X14.5416 Y29.6918 
G01 X14.4190 Y29.6590 
G01 X14.3092 Y29.5955 
G01 X14.2195 Y29.5058 
G01 X10.4992 Y25.7855 
G01 X10.4095 Y25.6958 
G01 X10.3460 Y25.5860 
G01 X10.3132 Y25.4634 
G01 X10.3132 Y24.9674 
G01 X9.9505 Y24.9674 
G01 X9.7887 Y24.9352 
G01 X9.6363 Y24.8721 
G01 X9.4992 Y24.7805 
G01 X9.3825 Y24.6638 
G01 X9.2909 Y24.5267 
G01 X9.2278 Y24.3743 
G01 X9.1956 Y24.2125 
G01 X9.1956 Y24.0475 
G01 X9.2278 Y23.8857 
G01 X9.2909 Y23.7333 
G01 X9.3825 Y23.5962 
G01 X9.4992 Y23.4795 
G01 X9.6363 Y23.3879 
G01 X9.7887 Y23.3248 
G01 X9.9505 Y23.2926 
G00 Z2.5400 
G00 X9.9505 Y30.9126 
G01 Z-0.1000 F254.00 
G01 X11.6395 Y30.9126 F508.00 
G01 X11.8013 Y30.9448 
G01 X11.9537 Y31.0079 
G01 X12.0908 Y31.0995 
G01 X12.2075 Y31.2162 
G01 X12.2422 Y31.2682 
G01 X16.5608 Y31.2682 
G01 X16.6506 Y31.1785 
G01 X16.7711 Y31.0979 
G01 X16.9050 Y31.0425 
G01 X17.0471 Y31.0142 
G01 X18.5129 Y31.0142 
G01 X18.6550 Y31.0425 
G01 X18.7889 Y31.0979 
G01 X18.9094 Y31.1785 
G01 X18.9992 Y31.2682 
G01 X21.0058 Y31.2682 
G01 X21.0956 Y31.1785 
G01 X21.2161 Y31.0979 
G01 X21.3500 Y31.0425 
G01 X21.4921 Y31.0142 
G01 X22.9579 Y31.0142 
G01 X23.1000 Y31.0425 
G01 X23.2339 Y31.0979 
G01 X23.3544 Y31.1785 
G01 X23.4569 Y31.2810 
G01 X23.5375 Y31.4015 
G01 X23.5929 Y31.5354 
G01 X23.6212 Y31.6775 
G01 X23.6212 Y31.8225 
G01 X23.5929 Y31.9646 
G01 X23.5375 Y32.0985 
G01 X23.4569 Y32.2190 
G01 X23.3544 Y32.3215 
G01 X23.2339 Y32.4021 
G01 X23.1000 Y32.4575 
G01 X22.9579 Y32.4858 
G01 X21.4921 Y32.4858 
G01 X21.3500 Y32.4575 
G01 X21.2161 Y32.4021 
G01 X21.0956 Y32.3215 
G01 X21.0058 Y32.2318 
G01 X18.9992 Y32.2318 
G01 X18.9094 Y32.3215 
G01 X18.7889 Y32.4021 
G01 X18.6550 Y32.4575 
G01 X18.5129 Y32.4858 
G01 X17.0471 Y32.4858 
G01 X16.9050 Y32.4575 
G01 X16.7711 Y32.4021 
G01 X16.6506 Y32.3215 
G01 X16.5608 Y32.2318 
G01 X12.2422 Y32.2318 
G01 X12.2075 Y32.2838 
G01 X12.0908 Y32.4004 
G01 X11.9537 Y32.4921 
G01 X11.8013 Y32.5552 
G01 X11.6395 Y32.5874 
G01 X9.9505 Y32.5874 
G01 X9.7887 Y32.5552 
G01 X9.6363 Y32.4921 
G01 X9.4992 Y32.4004 
G01 X9.3825 Y32.2838 
G01 X9.2909 Y32.1467 
G01 X9.2278 Y31.9943 
G01 X9.1956 Y31.8325 
G01 X9.1956 Y31.6675 
G01 X9.2278 Y31.5057 
G01 X9.2909 Y31.3533 
G01 X9.3825 Y31.2162 
G01 X9.4992 Y31.0995 
G01 X9.6363 Y31.0079 
G01 X9.7887 Y30.9448 
G01 X9.9505 Y30.9126 
G00 Z2.5400 
G00 X9.9505 Y41.0726 
G01 Z-0.1000 F254.00 
G01 X11.6395 Y41.0726 F508.00 
G01 X11.8013 Y41.1048 
G01 X11.9537 Y41.1679 
G01 X12.0908 Y41.2595 
G01 X12.2075 Y41.3762 
G01 X12.2185 Y41.3927 
G01 X13.1707 Y40.4404 
G01 X13.1707 Y38.0366 
G01 X13.2035 Y37.9140 
G01 X13.2670 Y37.8042 
G01 X13.3567 Y37.7145 
G01 X14.5370 Y36.5342 
G01 X14.6267 Y36.4445 
G01 X14.7365 Y36.3810 
G01 X14.8591 Y36.3482 
G01 X16.5608 Y36.3482 
G01 X16.6506 Y36.2585 
G01 X16.7711 Y36.1779 
G01 X16.9050 Y36.1225 
G01 X17.0471 Y36.0942 
G01 X18.5129 Y36.0942 
G01 X18.6550 Y36.1225 
G01 X18.7889 Y36.1779 
G01 X18.9094 Y36.2585 
G01 X18.9992 Y36.3482 
G01 X21.0058 Y36.3482 
G01 X21.0956 Y36.2585 
G01 X21.2161 Y36.1779 
G01 X21.3500 Y36.1225 
G01 X21.4921 Y36.0942 
G01 X22.9579 Y36.0942 
G01 X23.1000 Y36.1225 
G01 X23.2339 Y36.1779 
G01 X23.3544 Y36.2585 
G01 X23.4569 Y36.3610 
G01 X23.5375 Y36.4815 
G01 X23.5929 Y36.6154 
G01 X23.6212 Y36.7575 
G01 X23.6212 Y36.9025 
G01 X23.5929 Y37.0446 
G01 X23.5375 Y37.1785 
G01 X23.4569 Y37.2990 
G01 X23.3544 Y37.4015 
G01 X23.2339 Y37.4821 
G01 X23.1000 Y37.5375 
G01 X22.9579 Y37.5658 
G01 X21.4921 Y37.5658 
G01 X21.3500 Y37.5375 
G01 X21.2161 Y37.4821 
G01 X21.0956 Y37.4015 
G01 X21.0058 Y37.3118 
G01 X18.9992 Y37.3118 
G01 X18.9094 Y37.4015 
G01 X18.7889 Y37.4821 
G01 X18.6550 Y37.5375 
G01 X18.5129 Y37.5658 
G01 X17.0471 Y37.5658 
G01 X16.9050 Y37.5375 
G01 X16.7711 Y37.4821 
G01 X16.6506 Y37.4015 
G01 X16.5608 Y37.3118 
G01 X15.1221 Y37.3118 
G01 X14.1343 Y38.2996 
G01 X14.1343 Y40.7034 
G01 X14.1015 Y40.8260 
G01 X14.0380 Y40.9358 
G01 X12.7680 Y42.2058 
G01 X12.6783 Y42.2955 
G01 X12.5685 Y42.3590 
G01 X12.4459 Y42.3918 
G01 X12.2422 Y42.3918 
G01 X12.2075 Y42.4438 
G01 X12.0908 Y42.5605 
G01 X11.9537 Y42.6521 
G01 X11.8013 Y42.7152 
G01 X11.6395 Y42.7474 
G01 X9.9505 Y42.7474 
G01 X9.7887 Y42.7152 
G01 X9.6363 Y42.6521 
G01 X9.4992 Y42.5605 
G01 X9.3825 Y42.4438 
G01 X9.2909 Y42.3067 
G01 X9.2278 Y42.1543 
G01 X9.1956 Y41.9925 
G01 X9.1956 Y41.8275 
G01 X9.2278 Y41.6657 
G01 X9.2909 Y41.5133 
G01 X9.3825 Y41.3762 
G01 X9.4992 Y41.2595 
G01 X9.6363 Y41.1679 
G01 X9.7887 Y41.1048 
G01 X9.9505 Y41.0726 
G00 Z2.5400 
G00 X9.9505 Y46.1526 
G01 Z-0.1000 F254.00 
G01 X11.5860 Y46.1526 F508.00 
G01 X12.8532 Y44.8854 
G01 X12.8532 Y43.7516 
G01 X12.8860 Y43.6290 
G01 X12.9495 Y43.5192 
G01 X14.7582 Y41.7104 
G01 X14.7582 Y39.9416 
G01 X14.7910 Y39.8190 
G01 X14.8545 Y39.7092 
G01 X15.4895 Y39.0742 
G01 X15.5792 Y38.9845 
G01 X15.6890 Y38.9210 
G01 X15.8116 Y38.8882 
G01 X16.5608 Y38.8882 
G01 X16.6506 Y38.7985 
G01 X16.7711 Y38.7179 
G01 X16.9050 Y38.6625 
G01 X17.0471 Y38.6342 
G01 X18.5129 Y38.6342 
G01 X18.6550 Y38.6625 
G01 X18.7889 Y38.7179 
G01 X18.9094 Y38.7985 
G01 X18.9992 Y38.8882 
G01 X21.0058 Y38.8882 
G01 X21.0956 Y38.7985 
G01 X21.2161 Y38.7179 
G01 X21.3500 Y38.6625 
G01 X21.4921 Y38.6342 
G01 X22.9579 Y38.6342 
G01 X23.1000 Y38.6625 
G01 X23.2339 Y38.7179 
G01 X23.3544 Y38.7985 
G01 X23.4569 Y38.9010 
G01 X23.5375 Y39.0215 
G01 X23.5929 Y39.1554 
G01 X23.6212 Y39.2975 
G01 X23.6212 Y39.4425 
G01 X23.5929 Y39.5846 
G01 X23.5375 Y39.7185 
G01 X23.4569 Y39.8390 
G01 X23.3544 Y39.9415 
G01 X23.2339 Y40.0221 
G01 X23.1000 Y40.0775 
G01 X22.9579 Y40.1058 
G01 X21.4921 Y40.1058 
G01 X21.3500 Y40.0775 
G01 X21.2161 Y40.0221 
G01 X21.0956 Y39.9415 
G01 X21.0058 Y39.8518 
G01 X18.9992 Y39.8518 
G01 X18.9094 Y39.9415 
G01 X18.7889 Y40.0221 
G01 X18.6550 Y40.0775 
G01 X18.5129 Y40.1058 
G01 X17.0471 Y40.1058 
G01 X16.9050 Y40.0775 
G01 X16.7711 Y40.0221 
G01 X16.6506 Y39.9415 
G01 X16.5608 Y39.8518 
G01 X16.0746 Y39.8518 
G01 X15.7218 Y40.2046 
G01 X15.7218 Y41.9734 
G01 X15.6890 Y42.0960 
G01 X15.6255 Y42.2058 
G01 X15.5358 Y42.2955 
G01 X13.8168 Y44.0146 
G01 X13.8168 Y45.1484 
G01 X13.7840 Y45.2710 
G01 X13.7205 Y45.3808 
G01 X13.6308 Y45.4705 
G01 X12.3603 Y46.7411 
G01 X12.3622 Y46.7457 
G01 X12.3944 Y46.9075 
G01 X12.3944 Y47.0725 
G01 X12.3622 Y47.2343 
G01 X12.2991 Y47.3867 
G01 X12.2075 Y47.5238 
G01 X12.0908 Y47.6405 
G01 X11.9537 Y47.7321 
G01 X11.8013 Y47.7952 
G01 X11.6395 Y47.8274 
G01 X9.9505 Y47.8274 
G01 X9.7887 Y47.7952 
G01 X9.6363 Y47.7321 
G01 X9.4992 Y47.6405 
G01 X9.3825 Y47.5238 
G01 X9.2909 Y47.3867 
G01 X9.2278 Y47.2343 
G01 X9.1956 Y47.0725 
G01 X9.1956 Y46.9075 
G01 X9.2278 Y46.7457 
G01 X9.2909 Y46.5933 
G01 X9.3825 Y46.4562 
G01 X9.4992 Y46.3395 
G01 X9.6363 Y46.2479 
G01 X9.7887 Y46.1848 
G01 X9.9505 Y46.1526 
G00 Z2.5400 
G00 X18.5129 Y22.3258 
G01 Z-0.1000 F254.00 
G01 X17.0471 Y22.3258 F508.00 
G01 X16.9050 Y22.2975 
G01 X16.7711 Y22.2421 
G01 X16.6506 Y22.1615 
G01 X16.5481 Y22.0590 
G01 X16.4675 Y21.9385 
G01 X16.4121 Y21.8046 
G01 X16.3838 Y21.6625 
G01 X16.3838 Y21.5175 
G01 X16.4121 Y21.3754 
G01 X16.4675 Y21.2415 
G01 X16.5481 Y21.1210 
G01 X16.6506 Y21.0185 
G01 X16.7711 Y20.9379 
G01 X16.9050 Y20.8825 
G01 X17.0471 Y20.8542 
G01 X17.2982 Y20.8542 
G01 X17.2982 Y20.3081 
G01 X17.2635 Y20.2968 
G01 X17.0749 Y20.2007 
G01 X16.9035 Y20.0762 
G01 X16.7538 Y19.9265 
G01 X16.6293 Y19.7551 
G01 X16.5332 Y19.5665 
G01 X16.4677 Y19.3650 
G01 X16.4346 Y19.1559 
G01 X16.4346 Y18.9441 
G01 X16.4677 Y18.7350 
G01 X16.5332 Y18.5335 
G01 X16.6293 Y18.3449 
G01 X16.7538 Y18.1735 
G01 X16.9035 Y18.0238 
G01 X17.0749 Y17.8993 
G01 X17.2635 Y17.8032 
G01 X17.2982 Y17.7919 
G01 X17.2982 Y10.3596 
G01 X16.3104 Y9.3718 
G01 X12.2422 Y9.3718 
G01 X12.2075 Y9.4238 
G01 X12.0908 Y9.5404 
G01 X11.9537 Y9.6321 
G01 X11.8013 Y9.6952 
G01 X11.6395 Y9.7274 
G01 X9.9505 Y9.7274 
G01 X9.7887 Y9.6952 
G01 X9.6363 Y9.6321 
G01 X9.4992 Y9.5404 
G01 X9.3825 Y9.4238 
G01 X9.2909 Y9.2867 
G01 X9.2278 Y9.1343 
G01 X9.1956 Y8.9725 
G01 X9.1956 Y8.8075 
G01 X9.2278 Y8.6457 
G01 X9.2909 Y8.4933 
G01 X9.3825 Y8.3562 
G01 X9.4992 Y8.2395 
G01 X9.6363 Y8.1479 
G01 X9.7887 Y8.0848 
G01 X9.9505 Y8.0526 
G01 X11.6395 Y8.0526 
G01 X11.8013 Y8.0848 
G01 X11.9537 Y8.1479 
G01 X12.0908 Y8.2395 
G01 X12.2075 Y8.3562 
G01 X12.2422 Y8.4082 
G01 X16.5734 Y8.4082 
G01 X16.6960 Y8.4410 
G01 X16.8058 Y8.5045 
G01 X16.8955 Y8.5942 
G01 X18.0758 Y9.7745 
G01 X18.1655 Y9.8642 
G01 X18.2290 Y9.9740 
G01 X18.2618 Y10.0966 
G01 X18.2618 Y17.7919 
G01 X18.2965 Y17.8032 
G01 X18.4851 Y17.8993 
G01 X18.6565 Y18.0238 
G01 X18.8062 Y18.1735 
G01 X18.9307 Y18.3449 
G01 X19.0268 Y18.5335 
G01 X19.0923 Y18.7350 
G01 X19.1254 Y18.9441 
G01 X19.1254 Y19.1559 
G01 X19.0923 Y19.3650 
G01 X19.0268 Y19.5665 
G01 X18.9307 Y19.7551 
G01 X18.8062 Y19.9265 
G01 X18.6565 Y20.0762 
G01 X18.4851 Y20.2007 
G01 X18.2965 Y20.2968 
G01 X18.2618 Y20.3081 
G01 X18.2618 Y20.8542 
G01 X18.5129 Y20.8542 
G01 X18.6550 Y20.8825 
G01 X18.7889 Y20.9379 
G01 X18.9094 Y21.0185 
G01 X19.0119 Y21.1210 
G01 X19.0925 Y21.2415 
G01 X19.1479 Y21.3754 
G01 X19.1762 Y21.5175 
G01 X19.1762 Y21.6625 
G01 X19.1479 Y21.8046 
G01 X19.0925 Y21.9385 
G01 X19.0119 Y22.0590 
G01 X18.9094 Y22.1615 
G01 X18.7889 Y22.2421 
G01 X18.6550 Y22.2975 
G01 X18.5129 Y22.3258 
G00 Z2.5400 
G00 X28.8536 Y2.1616 
G01 Z-0.1000 F254.00 
G01 X28.8536 Y2.9184 F508.00 
G01 X28.3184 Y3.4536 
G01 X27.5616 Y3.4536 
G01 X27.0264 Y2.9184 
G01 X27.0264 Y2.1616 
G01 X27.5616 Y1.6264 
G01 X28.3184 Y1.6264 
G01 X28.8536 Y2.1616 
G00 Z2.5400 
G00 X31.3936 Y2.1616 
G01 Z-0.1000 F254.00 
G01 X31.3936 Y2.9184 F508.00 
G01 X30.8584 Y3.4536 
G01 X30.1016 Y3.4536 
G01 X29.5664 Y2.9184 
G01 X29.5664 Y2.1616 
G01 X30.1016 Y1.6264 
G01 X30.8584 Y1.6264 
G01 X31.3936 Y2.1616 
G00 Z2.5400 
G00 X22.2496 Y50.4216 
G01 Z-0.1000 F254.00 
G01 X22.2496 Y51.1784 F508.00 
G01 X21.7144 Y51.7136 
G01 X20.9576 Y51.7136 
G01 X20.4224 Y51.1784 
G01 X20.4224 Y50.4216 
G01 X20.8542 Y49.9898 
G01 X20.8542 Y47.8156 
G01 X20.8870 Y47.6930 
G01 X20.9505 Y47.5832 
G01 X21.8395 Y46.6942 
G01 X21.9292 Y46.6045 
G01 X22.0390 Y46.5410 
G01 X22.1616 Y46.5082 
G01 X24.5654 Y46.5082 
G01 X26.8232 Y44.2504 
G01 X26.8232 Y21.1546 
G01 X23.1992 Y17.5305 
G01 X23.1095 Y17.4408 
G01 X23.0460 Y17.3310 
G01 X23.0132 Y17.2084 
G01 X23.0132 Y12.6366 
G01 X23.0460 Y12.5140 
G01 X23.1095 Y12.4042 
G01 X24.3795 Y11.1342 
G01 X24.4692 Y11.0445 
G01 X24.5790 Y10.9810 
G01 X24.7016 Y10.9482 
G01 X25.8578 Y10.9482 
G01 X25.8925 Y10.8962 
G01 X26.0092 Y10.7795 
G01 X26.1463 Y10.6879 
G01 X26.2987 Y10.6248 
G01 X26.4605 Y10.5926 
G01 X28.1495 Y10.5926 
G01 X28.3113 Y10.6248 
G01 X28.4637 Y10.6879 
G01 X28.6008 Y10.7795 
G01 X28.7175 Y10.8962 
G01 X28.8091 Y11.0333 
G01 X28.8722 Y11.1857 
G01 X28.9044 Y11.3475 
G01 X28.9044 Y11.5125 
G01 X28.8722 Y11.6743 
G01 X28.8091 Y11.8267 
G01 X28.7175 Y11.9638 
G01 X28.6008 Y12.0805 
G01 X28.4637 Y12.1721 
G01 X28.3113 Y12.2352 
G01 X28.1495 Y12.2674 
G01 X26.4605 Y12.2674 
G01 X26.2987 Y12.2352 
G01 X26.1463 Y12.1721 
G01 X26.0092 Y12.0805 
G01 X25.8925 Y11.9638 
G01 X25.8578 Y11.9118 
G01 X24.9646 Y11.9118 
G01 X23.9768 Y12.8996 
G01 X23.9768 Y16.9454 
G01 X27.6905 Y20.6592 
G01 X27.7540 Y20.7690 
G01 X27.7868 Y20.8916 
G01 X27.7868 Y44.5134 
G01 X27.7540 Y44.6360 
G01 X27.6905 Y44.7458 
G01 X27.6008 Y44.8355 
G01 X25.0608 Y47.3755 
G01 X24.9510 Y47.4390 
G01 X24.8284 Y47.4718 
G01 X22.4246 Y47.4718 
G01 X21.8178 Y48.0786 
G01 X21.8178 Y49.9898 
G01 X22.2496 Y50.4216 
G00 Z2.5400 
G00 X33.9336 Y2.1616 
G01 Z-0.1000 F254.00 
G01 X33.9336 Y2.9184 F508.00 
G01 X33.3984 Y3.4536 
G01 X32.6416 Y3.4536 
G01 X32.1064 Y2.9184 
G01 X32.1064 Y2.1616 
G01 X32.6416 Y1.6264 
G01 X33.3984 Y1.6264 
G01 X33.9336 Y2.1616 
G00 Z2.5400 
G00 X36.4736 Y2.1616 
G01 Z-0.1000 F254.00 
G01 X36.4736 Y2.9184 F508.00 
G01 X35.9384 Y3.4536 
G01 X35.1816 Y3.4536 
G01 X34.6464 Y2.9184 
G01 X34.6464 Y2.1616 
G01 X35.1816 Y1.6264 
G01 X35.9384 Y1.6264 
G01 X36.4736 Y2.1616 
G00 Z2.5400 
G00 X64.4136 Y2.1616 
G01 Z-0.1000 F254.00 
G01 X64.4136 Y2.9184 F508.00 
G01 X63.8784 Y3.4536 
G01 X63.1216 Y3.4536 
G01 X62.5864 Y2.9184 
G01 X62.5864 Y2.1616 
G01 X63.1216 Y1.6264 
G01 X63.8784 Y1.6264 
G01 X64.4136 Y2.1616 
G00 Z2.5400 
G00 X61.8736 Y2.1616 
G01 Z-0.1000 F254.00 
G01 X61.8736 Y2.9184 F508.00 
G01 X61.3384 Y3.4536 
G01 X60.5816 Y3.4536 
G01 X60.0464 Y2.9184 
G01 X60.0464 Y2.1616 
G01 X60.5816 Y1.6264 
G01 X61.3384 Y1.6264 
G01 X61.8736 Y2.1616 
G00 Z2.5400 
G00 X59.3336 Y2.1616 
G01 Z-0.1000 F254.00 
G01 X59.3336 Y2.9184 F508.00 
G01 X58.7984 Y3.4536 
G01 X58.0416 Y3.4536 
G01 X57.5064 Y2.9184 
G01 X57.5064 Y2.1616 
G01 X58.0416 Y1.6264 
G01 X58.7984 Y1.6264 
G01 X59.3336 Y2.1616 
G00 Z2.5400 
G00 X56.7936 Y2.1616 
G01 Z-0.1000 F254.00 
G01 X56.7936 Y2.9184 F508.00 
G01 X56.2584 Y3.4536 
G01 X55.5016 Y3.4536 
G01 X54.9664 Y2.9184 
G01 X54.9664 Y2.1616 
G01 X55.5016 Y1.6264 
G01 X56.2584 Y1.6264 
G01 X56.7936 Y2.1616 
G00 Z2.5400 
G00 X54.2536 Y2.1616 
G01 Z-0.1000 F254.00 
G01 X54.2536 Y2.9184 F508.00 
G01 X53.7184 Y3.4536 
G01 X52.9616 Y3.4536 
G01 X52.4264 Y2.9184 
G01 X52.4264 Y2.1616 
G01 X52.9616 Y1.6264 
G01 X53.7184 Y1.6264 
G01 X54.2536 Y2.1616 
G00 Z2.5400 
G00 X24.7896 Y50.4216 
G01 Z-0.1000 F254.00 
G01 X24.7896 Y51.1784 F508.00 
G01 X24.2544 Y51.7136 
G01 X23.4976 Y51.7136 
G01 X22.9624 Y51.1784 
G01 X22.9624 Y50.4216 
G01 X23.4976 Y49.8864 
G01 X24.2544 Y49.8864 
G01 X24.7896 Y50.4216 
G00 Z2.5400 
G00 X29.8696 Y50.4216 
G01 Z-0.1000 F254.00 
G01 X29.8696 Y51.1784 F508.00 
G01 X29.3344 Y51.7136 
G01 X28.5776 Y51.7136 
G01 X28.0424 Y51.1784 
G01 X28.0424 Y50.4216 
G01 X28.5776 Y49.8864 
G01 X29.3344 Y49.8864 
G01 X29.8696 Y50.4216 
G00 Z2.5400 
G00 X32.4096 Y50.4216 
G01 Z-0.1000 F254.00 
G01 X32.4096 Y51.1784 F508.00 
G01 X31.8744 Y51.7136 
G01 X31.1176 Y51.7136 
G01 X30.5824 Y51.1784 
G01 X30.5824 Y50.4216 
G01 X31.1176 Y49.8864 
G01 X31.8744 Y49.8864 
G01 X32.4096 Y50.4216 
G00 Z2.5400 
G00 X34.9496 Y50.4216 
G01 Z-0.1000 F254.00 
G01 X34.9496 Y51.1784 F508.00 
G01 X34.4144 Y51.7136 
G01 X33.6576 Y51.7136 
G01 X33.1224 Y51.1784 
G01 X33.1224 Y50.4216 
G01 X33.6576 Y49.8864 
G01 X34.4144 Y49.8864 
G01 X34.9496 Y50.4216 
G00 Z2.5400 
G00 X37.4896 Y50.4216 
G01 Z-0.1000 F254.00 
G01 X37.4896 Y51.1784 F508.00 
G01 X36.9544 Y51.7136 
G01 X36.1976 Y51.7136 
G01 X35.6624 Y51.1784 
G01 X35.6624 Y50.4216 
G01 X36.1976 Y49.8864 
G01 X36.9544 Y49.8864 
G01 X37.4896 Y50.4216 
G00 Z2.5400 
G00 X40.0296 Y50.4216 
G01 Z-0.1000 F254.00 
G01 X40.0296 Y51.1784 F508.00 
G01 X39.4944 Y51.7136 
G01 X38.7376 Y51.7136 
G01 X38.2024 Y51.1784 
G01 X38.2024 Y50.4216 
G01 X38.7376 Y49.8864 
G01 X39.4944 Y49.8864 
G01 X40.0296 Y50.4216 
G00 Z2.5400 
G00 X42.5696 Y50.4216 
G01 Z-0.1000 F254.00 
G01 X42.5696 Y51.1784 F508.00 
G01 X42.0344 Y51.7136 
G01 X41.2776 Y51.7136 
G01 X40.7424 Y51.1784 
G01 X40.7424 Y50.4216 
G01 X41.2776 Y49.8864 
G01 X42.0344 Y49.8864 
G01 X42.5696 Y50.4216 
G00 Z2.5400 
G00 X49.1736 Y50.4216 
G01 Z-0.1000 F254.00 
G01 X49.1736 Y51.1784 F508.00 
G01 X48.6384 Y51.7136 
G01 X47.8816 Y51.7136 
G01 X47.3464 Y51.1784 
G01 X47.3464 Y50.4216 
G01 X47.7782 Y49.9898 
G01 X47.7782 Y42.7446 
G01 X46.1554 Y41.1218 
G01 X36.3722 Y41.1218 
G01 X36.3375 Y41.1738 
G01 X36.2208 Y41.2904 
G01 X36.0837 Y41.3821 
G01 X35.9313 Y41.4452 
G01 X35.7695 Y41.4774 
G01 X34.0805 Y41.4774 
G01 X33.9187 Y41.4452 
G01 X33.7663 Y41.3821 
G01 X33.6292 Y41.2904 
G01 X33.5125 Y41.1738 
G01 X33.4209 Y41.0367 
G01 X33.3578 Y40.8843 
G01 X33.3256 Y40.7225 
G01 X33.3256 Y40.5575 
G01 X33.3578 Y40.3957 
G01 X33.4209 Y40.2433 
G01 X33.5125 Y40.1062 
G01 X33.6292 Y39.9895 
G01 X33.7663 Y39.8979 
G01 X33.9187 Y39.8348 
G01 X34.0805 Y39.8026 
G01 X35.7695 Y39.8026 
G01 X35.9313 Y39.8348 
G01 X36.0837 Y39.8979 
G01 X36.2208 Y39.9895 
G01 X36.3375 Y40.1062 
G01 X36.3722 Y40.1582 
G01 X46.4184 Y40.1582 
G01 X46.5410 Y40.1910 
G01 X46.6508 Y40.2545 
G01 X46.7405 Y40.3442 
G01 X48.6455 Y42.2492 
G01 X48.7090 Y42.3590 
G01 X48.7418 Y42.4816 
G01 X48.7418 Y49.9898 
G01 X49.1736 Y50.4216 
G00 Z2.5400 
G00 X64.4136 Y50.4216 
G01 Z-0.1000 F254.00 
G01 X64.4136 Y51.1784 F508.00 
G01 X63.8784 Y51.7136 
G01 X63.1216 Y51.7136 
G01 X62.5864 Y51.1784 
G01 X62.5864 Y50.4216 
G01 X63.1216 Y49.8864 
G01 X63.8784 Y49.8864 
G01 X64.4136 Y50.4216 
G00 Z2.5400 
G00 X61.8736 Y50.4216 
G01 Z-0.1000 F254.00 
G01 X61.8736 Y51.1784 F508.00 
G01 X61.3384 Y51.7136 
G01 X60.5816 Y51.7136 
G01 X60.0464 Y51.1784 
G01 X60.0464 Y50.4216 
G01 X60.5816 Y49.8864 
G01 X61.3384 Y49.8864 
G01 X61.8736 Y50.4216 
G00 Z2.5400 
G00 X56.7936 Y50.4216 
G01 Z-0.1000 F254.00 
G01 X56.7936 Y51.1784 F508.00 
G01 X56.2584 Y51.7136 
G01 X55.5016 Y51.7136 
G01 X54.9664 Y51.1784 
G01 X54.9664 Y50.4216 
G01 X55.3982 Y49.9898 
G01 X55.3982 Y33.2196 
G01 X50.6004 Y28.4218 
G01 X31.9496 Y28.4218 
G01 X31.2400 Y29.1314 
G01 X31.2412 Y29.1375 
G01 X31.2412 Y29.2825 
G01 X31.2129 Y29.4246 
G01 X31.1575 Y29.5585 
G01 X31.0769 Y29.6790 
G01 X30.9744 Y29.7815 
G01 X30.8539 Y29.8621 
G01 X30.7200 Y29.9175 
G01 X30.5779 Y29.9458 
G01 X29.1121 Y29.9458 
G01 X28.9700 Y29.9175 
G01 X28.8361 Y29.8621 
G01 X28.7156 Y29.7815 
G01 X28.6131 Y29.6790 
G01 X28.5325 Y29.5585 
G01 X28.4771 Y29.4246 
G01 X28.4488 Y29.2825 
G01 X28.4488 Y29.1375 
G01 X28.4771 Y28.9954 
G01 X28.5325 Y28.8615 
G01 X28.6131 Y28.7410 
G01 X28.7156 Y28.6385 
G01 X28.8361 Y28.5579 
G01 X28.9700 Y28.5025 
G01 X29.1121 Y28.4742 
G01 X30.5344 Y28.4742 
G01 X31.3645 Y27.6442 
G01 X31.4542 Y27.5545 
G01 X31.5640 Y27.4910 
G01 X31.6866 Y27.4582 
G01 X50.8634 Y27.4582 
G01 X50.9860 Y27.4910 
G01 X51.0958 Y27.5545 
G01 X56.1758 Y32.6345 
G01 X56.2655 Y32.7242 
G01 X56.3290 Y32.8340 
G01 X56.3618 Y32.9566 
G01 X56.3618 Y49.9898 
G01 X56.7936 Y50.4216 
G00 Z2.5400 
G00 X51.7136 Y2.1616 
G01 Z-0.1000 F254.00 
G01 X51.7136 Y2.9184 F508.00 
G01 X51.1784 Y3.4536 
G01 X50.4216 Y3.4536 
G01 X49.8864 Y2.9184 
G01 X49.8864 Y2.1616 
G01 X50.4216 Y1.6264 
G01 X51.1784 Y1.6264 
G01 X51.7136 Y2.1616 
G00 Z2.5400 
G00 X54.2536 Y50.4216 
G01 Z-0.1000 F254.00 
G01 X54.2536 Y51.1784 F508.00 
G01 X53.7184 Y51.7136 
G01 X52.9616 Y51.7136 
G01 X52.4264 Y51.1784 
G01 X52.4264 Y50.4216 
G01 X52.8582 Y49.9898 
G01 X52.8582 Y33.8546 
G01 X49.3304 Y30.3268 
G01 X32.5846 Y30.3268 
G01 X31.2400 Y31.6714 
G01 X31.2412 Y31.6775 
G01 X31.2412 Y31.8225 
G01 X31.2129 Y31.9646 
G01 X31.1575 Y32.0985 
G01 X31.0769 Y32.2190 
G01 X30.9744 Y32.3215 
G01 X30.8539 Y32.4021 
G01 X30.7200 Y32.4575 
G01 X30.5779 Y32.4858 
G01 X29.1121 Y32.4858 
G01 X28.9700 Y32.4575 
G01 X28.8361 Y32.4021 
G01 X28.7156 Y32.3215 
G01 X28.6131 Y32.2190 
G01 X28.5325 Y32.0985 
G01 X28.4771 Y31.9646 
G01 X28.4488 Y31.8225 
G01 X28.4488 Y31.6775 
G01 X28.4771 Y31.5354 
G01 X28.5325 Y31.4015 
G01 X28.6131 Y31.2810 
G01 X28.7156 Y31.1785 
G01 X28.8361 Y31.0979 
G01 X28.9700 Y31.0425 
G01 X29.1121 Y31.0142 
G01 X30.5344 Y31.0142 
G01 X32.0892 Y29.4595 
G01 X32.1990 Y29.3960 
G01 X32.3216 Y29.3632 
G01 X49.5934 Y29.3632 
G01 X49.7160 Y29.3960 
G01 X49.8258 Y29.4595 
G01 X49.9155 Y29.5492 
G01 X53.7255 Y33.3592 
G01 X53.7890 Y33.4690 
G01 X53.8218 Y33.5916 
G01 X53.8218 Y49.9898 
G01 X54.2536 Y50.4216 
G00 Z2.5400 
G00 X23.4129 Y40.4694 
G01 Z-0.1000 F254.00 
G01 X23.4307 Y40.4647 F508.00 
G01 X23.4477 Y40.4576 
G01 X23.4659 Y40.4552 
G01 X23.4837 Y40.4504 
G01 X23.5021 Y40.4504 
G01 X23.5204 Y40.4480 
G01 X23.5387 Y40.4504 
G01 X23.5571 Y40.4504 
G01 X23.5749 Y40.4552 
G01 X23.5931 Y40.4576 
G01 X23.6101 Y40.4647 
G01 X23.6279 Y40.4694 
G01 X23.6439 Y40.4786 
G01 X23.6609 Y40.4857 
G01 X23.6755 Y40.4969 
G01 X23.6915 Y40.5061 
G01 X23.7045 Y40.5191 
G01 X23.7191 Y40.5303 
G01 X23.7303 Y40.5449 
G01 X23.7433 Y40.5580 
G01 X23.7525 Y40.5739 
G01 X23.7638 Y40.5885 
G01 X23.7708 Y40.6055 
G01 X23.7800 Y40.6215 
G01 X23.7848 Y40.6393 
G01 X23.7918 Y40.6563 
G01 X23.7942 Y40.6746 
G01 X23.7990 Y40.6924 
G01 X23.7990 Y40.7108 
G01 X23.8014 Y40.7290 
G01 X23.7990 Y40.7473 
G01 X23.7990 Y43.3361 
G01 X23.7800 Y43.4070 
G01 X23.7433 Y43.4705 
G01 X23.6915 Y43.5224 
G01 X23.1505 Y44.0633 
G01 X23.0870 Y44.1000 
G01 X23.0161 Y44.1190 
G01 X20.1278 Y44.1190 
G01 X19.7728 Y44.2661 
G01 X17.9771 Y46.0618 
G01 X17.8300 Y46.4168 
G01 X17.8300 Y49.7105 
G01 X17.8110 Y49.7813 
G01 X17.7743 Y49.8449 
G01 X17.7225 Y49.8967 
G01 X17.3982 Y50.2210 
G01 X17.3982 Y51.3790 
G01 X17.9171 Y51.8979 
G01 X17.9690 Y51.9497 
G01 X18.0056 Y52.0133 
G01 X18.0244 Y52.0833 
G01 X18.0246 Y52.1575 
G01 X18.0056 Y52.2283 
G01 X17.9690 Y52.2919 
G01 X17.9171 Y52.3437 
G01 X17.8536 Y52.3804 
G01 X17.7835 Y52.3992 
G01 X1.1825 Y52.3994 
G01 X1.1117 Y52.3804 
G01 X1.0481 Y52.3437 
G01 X0.9963 Y52.2919 
G01 X0.9596 Y52.2283 
G01 X0.9406 Y52.1575 
G01 X0.9406 Y1.1825 
G01 X0.9596 Y1.1117 
G01 X0.9963 Y1.0481 
G01 X1.0481 Y0.9963 
G01 X1.1117 Y0.9596 
G01 X1.1825 Y0.9406 
G01 X26.3180 Y0.9406 
G01 X26.9195 Y0.3392 
G01 X27.0092 Y0.2495 
G01 X27.1190 Y0.1860 
G01 X27.2416 Y0.1532 
G01 X47.0534 Y0.1532 
G01 X47.1760 Y0.1860 
G01 X47.2858 Y0.2495 
G01 X47.8246 Y0.7882 
G01 X49.5934 Y0.7882 
G01 X49.7160 Y0.8210 
G01 X49.8258 Y0.8845 
G01 X49.9155 Y0.9742 
G01 X49.9381 Y1.0133 
G01 X49.9730 Y1.0481 
G01 X50.0096 Y1.1117 
G01 X50.0286 Y1.1825 
G01 X50.0286 Y1.2559 
G01 X50.0118 Y1.3186 
G01 X50.0118 Y1.3334 
G01 X49.9790 Y1.4560 
G01 X49.9155 Y1.5658 
G01 X49.8258 Y1.6555 
G01 X49.7160 Y1.7190 
G01 X49.6180 Y1.7452 
G01 X49.4022 Y1.9610 
G01 X49.4022 Y3.1190 
G01 X50.2210 Y3.9378 
G01 X51.3790 Y3.9378 
G01 X51.8989 Y3.4178 
G01 X51.9625 Y3.3812 
G01 X52.0333 Y3.3622 
G01 X52.1067 Y3.3622 
G01 X52.1775 Y3.3812 
G01 X52.2411 Y3.4178 
G01 X52.2929 Y3.4697 
G01 X52.7610 Y3.9378 
G01 X53.9190 Y3.9378 
G01 X54.3871 Y3.4697 
G01 X54.4389 Y3.4178 
G01 X54.5025 Y3.3812 
G01 X54.5725 Y3.3624 
G01 X54.6467 Y3.3622 
G01 X54.7175 Y3.3812 
G01 X54.7811 Y3.4178 
G01 X55.3010 Y3.9378 
G01 X56.4590 Y3.9378 
G01 X56.9271 Y3.4697 
G01 X56.9789 Y3.4178 
G01 X57.0425 Y3.3812 
G01 X57.1125 Y3.3624 
G01 X57.1867 Y3.3622 
G01 X57.2575 Y3.3812 
G01 X57.3211 Y3.4178 
G01 X57.8410 Y3.9378 
G01 X58.9990 Y3.9378 
G01 X59.4671 Y3.4697 
G01 X59.5189 Y3.4178 
G01 X59.5825 Y3.3812 
G01 X59.6525 Y3.3624 
G01 X59.7267 Y3.3622 
G01 X59.7975 Y3.3812 
G01 X59.8611 Y3.4178 
G01 X60.3810 Y3.9378 
G01 X61.5390 Y3.9378 
G01 X62.0071 Y3.4697 
G01 X62.0589 Y3.4178 
G01 X62.1225 Y3.3812 
G01 X62.1925 Y3.3624 
G01 X62.2667 Y3.3622 
G01 X62.3375 Y3.3812 
G01 X62.4011 Y3.4178 
G01 X62.9210 Y3.9378 
G01 X64.0790 Y3.9378 
G01 X64.8703 Y3.1464 
G01 X64.9222 Y3.0946 
G01 X64.9858 Y3.0579 
G01 X65.0558 Y3.0391 
G01 X65.1300 Y3.0389 
G01 X65.2008 Y3.0579 
G01 X65.2644 Y3.0946 
G01 X67.5837 Y5.4139 
G01 X67.6204 Y5.4775 
G01 X67.6394 Y5.5483 
G01 X67.6394 Y10.7041 
G01 X67.6204 Y10.7749 
G01 X67.5837 Y10.8384 
G01 X67.5319 Y10.8903 
G01 X67.4683 Y10.9270 
G01 X67.3975 Y10.9460 
G01 X67.3241 Y10.9460 
G01 X67.2533 Y10.9270 
G01 X67.1897 Y10.8903 
G01 X67.1379 Y10.8384 
G01 X66.1217 Y9.8223 
G01 X65.6826 Y9.6404 
G01 X64.7520 Y9.6404 
G01 X64.7337 Y9.6428 
G01 X64.7155 Y9.6404 
G01 X64.6970 Y9.6404 
G01 X64.6792 Y9.6356 
G01 X64.6610 Y9.6332 
G01 X64.6440 Y9.6262 
G01 X64.6262 Y9.6214 
G01 X64.6102 Y9.6122 
G01 X64.0498 Y9.3800 
G01 X61.6802 Y9.3800 
G01 X61.1455 Y9.6015 
G01 X60.7362 Y10.0108 
G01 X60.5147 Y10.5456 
G01 X60.5147 Y11.1244 
G01 X60.7362 Y11.6592 
G01 X61.1455 Y12.0685 
G01 X61.6802 Y12.2899 
G01 X64.0498 Y12.2899 
G01 X64.6102 Y12.0578 
G01 X64.6262 Y12.0486 
G01 X64.6440 Y12.0438 
G01 X64.6610 Y12.0368 
G01 X64.6792 Y12.0344 
G01 X64.6970 Y12.0296 
G01 X64.7155 Y12.0296 
G01 X64.7337 Y12.0272 
G01 X64.7520 Y12.0296 
G01 X64.8715 Y12.0296 
G01 X64.9423 Y12.0486 
G01 X65.0058 Y12.0853 
G01 X65.0577 Y12.1371 
G01 X65.4247 Y12.5042 
G01 X65.4614 Y12.5677 
G01 X65.4804 Y12.6385 
G01 X65.4804 Y14.8615 
G01 X65.4614 Y14.9324 
G01 X65.4247 Y14.9959 
G01 X65.3729 Y15.0478 
G01 X65.3093 Y15.0845 
G01 X65.2385 Y15.1034 
G01 X65.1651 Y15.1034 
G01 X65.0943 Y15.0845 
G01 X65.0307 Y15.0478 
G01 X64.9789 Y14.9959 
G01 X64.5845 Y14.6015 
G01 X64.0498 Y14.3800 
G01 X61.6802 Y14.3800 
G01 X61.1198 Y14.6122 
G01 X61.1038 Y14.6214 
G01 X61.0860 Y14.6262 
G01 X61.0690 Y14.6332 
G01 X61.0508 Y14.6356 
G01 X61.0330 Y14.6404 
G01 X61.0145 Y14.6404 
G01 X60.9963 Y14.6428 
G01 X60.9780 Y14.6404 
G01 X60.2235 Y14.6404 
G01 X60.1527 Y14.6214 
G01 X60.0892 Y14.5847 
G01 X60.0373 Y14.5329 
G01 X58.8110 Y13.3066 
G01 X58.4617 Y12.9573 
G01 X58.0226 Y12.7754 
G01 X55.4455 Y12.7754 
G01 X55.4273 Y12.7705 
G01 X55.3746 Y12.7564 
G01 X55.3111 Y12.7197 
G01 X55.2592 Y12.6679 
G01 X55.2226 Y12.6043 
G01 X55.2036 Y12.5335 
G01 X55.2036 Y12.4601 
G01 X55.2085 Y12.4419 
G01 X55.2226 Y12.3893 
G01 X55.2592 Y12.3257 
G01 X55.3111 Y12.2739 
G01 X55.3632 Y12.2218 
G01 X55.5760 Y11.7080 
G01 X55.5760 Y11.1520 
G01 X55.3632 Y10.6382 
G01 X54.9700 Y10.2450 
G01 X54.6200 Y10.1000 
G01 X54.6022 Y10.0953 
G01 X54.5863 Y10.0861 
G01 X54.5692 Y10.0790 
G01 X54.5546 Y10.0678 
G01 X54.5387 Y10.0586 
G01 X54.5257 Y10.0456 
G01 X54.5110 Y10.0343 
G01 X54.4998 Y10.0197 
G01 X54.4868 Y10.0067 
G01 X54.4776 Y9.9908 
G01 X54.4664 Y9.9762 
G01 X54.4593 Y9.9591 
G01 X54.4501 Y9.9432 
G01 X54.4454 Y9.9254 
G01 X54.4383 Y9.9084 
G01 X54.4359 Y9.8901 
G01 X54.4311 Y9.8723 
G01 X54.4311 Y9.8539 
G01 X54.4287 Y9.8357 
G01 X54.4311 Y9.8174 
G01 X54.4311 Y9.7990 
G01 X54.4359 Y9.7812 
G01 X54.4383 Y9.7629 
G01 X54.4454 Y9.7459 
G01 X54.4501 Y9.7281 
G01 X54.4593 Y9.7122 
G01 X54.4664 Y9.6951 
G01 X54.4776 Y9.6805 
G01 X54.4868 Y9.6646 
G01 X54.4998 Y9.6516 
G01 X54.5110 Y9.6370 
G01 X54.5257 Y9.6257 
G01 X54.6144 Y9.5370 
G01 X54.6996 Y9.3313 
G01 X54.6996 Y7.8087 
G01 X54.6144 Y7.6030 
G01 X54.4570 Y7.4456 
G01 X54.4421 Y7.4343 
G01 X54.4261 Y7.4251 
G01 X54.4131 Y7.4120 
G01 X54.3985 Y7.4008 
G01 X54.3873 Y7.3862 
G01 X54.3743 Y7.3732 
G01 X54.3650 Y7.3572 
G01 X54.3538 Y7.3426 
G01 X54.3468 Y7.3256 
G01 X54.3376 Y7.3097 
G01 X54.3328 Y7.2919 
G01 X54.3258 Y7.2749 
G01 X54.3234 Y7.2566 
G01 X54.3186 Y7.2388 
G01 X54.3186 Y7.2204 
G01 X54.3162 Y7.2021 
G01 X54.3186 Y7.1839 
G01 X54.3186 Y7.0704 
G01 X54.2154 Y7.0704 
G01 X54.2154 Y7.3350 
G01 X54.2039 Y7.3627 
G01 X54.1827 Y7.3839 
G01 X54.1550 Y7.3954 
G01 X52.5250 Y7.3954 
G01 X52.4973 Y7.3839 
G01 X52.4761 Y7.3627 
G01 X52.4646 Y7.3350 
G01 X52.4646 Y7.0704 
G01 X52.3614 Y7.0704 
G01 X52.3614 Y7.1839 
G01 X52.3638 Y7.2021 
G01 X52.3614 Y7.2204 
G01 X52.3614 Y7.2388 
G01 X52.3566 Y7.2566 
G01 X52.3542 Y7.2749 
G01 X52.3472 Y7.2919 
G01 X52.3424 Y7.3097 
G01 X52.3332 Y7.3256 
G01 X52.3261 Y7.3426 
G01 X52.3149 Y7.3572 
G01 X52.3057 Y7.3732 
G01 X52.2927 Y7.3862 
G01 X52.2815 Y7.4008 
G01 X52.2669 Y7.4120 
G01 X52.2539 Y7.4251 
G01 X52.2379 Y7.4343 
G01 X52.2233 Y7.4455 
G01 X52.0656 Y7.6030 
G01 X51.9804 Y7.8087 
G01 X51.9804 Y9.3313 
G01 X52.0656 Y9.5370 
G01 X52.1543 Y9.6257 
G01 X52.1690 Y9.6370 
G01 X52.1802 Y9.6516 
G01 X52.1932 Y9.6646 
G01 X52.2024 Y9.6805 
G01 X52.2136 Y9.6951 
G01 X52.2207 Y9.7122 
G01 X52.2299 Y9.7281 
G01 X52.2346 Y9.7459 
G01 X52.2417 Y9.7629 
G01 X52.2441 Y9.7812 
G01 X52.2489 Y9.7990 
G01 X52.2489 Y9.8174 
G01 X52.2513 Y9.8357 
G01 X52.2489 Y9.8539 
G01 X52.2489 Y9.8723 
G01 X52.2441 Y9.8901 
G01 X52.2417 Y9.9084 
G01 X52.2346 Y9.9254 
G01 X52.2299 Y9.9432 
G01 X52.2207 Y9.9591 
G01 X52.2136 Y9.9762 
G01 X52.2024 Y9.9908 
G01 X52.1932 Y10.0067 
G01 X52.1802 Y10.0197 
G01 X52.1690 Y10.0343 
G01 X52.1543 Y10.0456 
G01 X52.1413 Y10.0586 
G01 X52.1254 Y10.0678 
G01 X52.1108 Y10.0790 
G01 X52.0937 Y10.0861 
G01 X52.0778 Y10.0953 
G01 X52.0600 Y10.1000 
G01 X51.7100 Y10.2450 
G01 X51.3168 Y10.6382 
G01 X51.1040 Y11.1520 
G01 X51.1040 Y11.7080 
G01 X51.3168 Y12.2218 
G01 X51.5721 Y12.4771 
G01 X51.6239 Y12.5289 
G01 X51.6606 Y12.5925 
G01 X51.6794 Y12.6625 
G01 X51.6796 Y12.7367 
G01 X51.6606 Y12.8075 
G01 X51.6239 Y12.8711 
G01 X51.3168 Y13.1782 
G01 X51.1040 Y13.6920 
G01 X51.1040 Y14.2480 
G01 X51.3168 Y14.7618 
G01 X51.7100 Y15.1550 
G01 X51.8103 Y15.1965 
G01 X51.8139 Y15.1971 
G01 X51.8441 Y15.2105 
G01 X51.8746 Y15.2232 
G01 X51.8776 Y15.2254 
G01 X51.8810 Y15.2269 
G01 X51.9067 Y15.2478 
G01 X51.9328 Y15.2678 
G01 X51.9351 Y15.2708 
G01 X51.9380 Y15.2731 
G01 X51.9574 Y15.2999 
G01 X51.9775 Y15.3260 
G01 X51.9789 Y15.3295 
G01 X51.9811 Y15.3325 
G01 X51.9929 Y15.3634 
G01 X52.0056 Y15.3938 
G01 X52.0060 Y15.3975 
G01 X52.0074 Y15.4009 
G01 X52.0108 Y15.4338 
G01 X52.0151 Y15.4665 
G01 X52.0147 Y15.4702 
G01 X52.0150 Y15.4739 
G01 X52.0099 Y15.5065 
G01 X52.0056 Y15.5393 
G01 X52.0041 Y15.5427 
G01 X52.0036 Y15.5464 
G01 X51.9901 Y15.5765 
G01 X51.9775 Y15.6070 
G01 X51.9752 Y15.6100 
G01 X51.9737 Y15.6134 
G01 X51.9529 Y15.6391 
G01 X51.9328 Y15.6652 
G01 X51.9299 Y15.6675 
G01 X51.9276 Y15.6704 
G01 X51.9008 Y15.6898 
G01 X51.8746 Y15.7099 
G01 X51.8712 Y15.7113 
G01 X51.8394 Y15.7344 
G01 X51.7262 Y15.8476 
G01 X51.6322 Y15.9771 
G01 X51.5595 Y16.1197 
G01 X51.5480 Y16.1552 
G01 X51.6599 Y16.1552 
G01 X51.6922 Y16.0772 
G01 X51.7922 Y15.9276 
G01 X51.9194 Y15.8004 
G01 X52.0690 Y15.7004 
G01 X52.2353 Y15.6315 
G01 X52.4118 Y15.5964 
G01 X54.2682 Y15.5964 
G01 X54.4447 Y15.6315 
G01 X54.6110 Y15.7004 
G01 X54.7606 Y15.8004 
G01 X54.8878 Y15.9276 
G01 X54.9878 Y16.0772 
G01 X55.0201 Y16.1552 
G01 X55.1320 Y16.1552 
G01 X55.1205 Y16.1197 
G01 X55.0478 Y15.9771 
G01 X54.9538 Y15.8476 
G01 X54.8406 Y15.7344 
G01 X54.8088 Y15.7113 
G01 X54.8054 Y15.7099 
G01 X54.7792 Y15.6898 
G01 X54.7524 Y15.6704 
G01 X54.7501 Y15.6675 
G01 X54.7472 Y15.6652 
G01 X54.7271 Y15.6390 
G01 X54.7063 Y15.6134 
G01 X54.7048 Y15.6100 
G01 X54.7025 Y15.6070 
G01 X54.6898 Y15.5765 
G01 X54.6764 Y15.5464 
G01 X54.6759 Y15.5427 
G01 X54.6744 Y15.5393 
G01 X54.6701 Y15.5065 
G01 X54.6650 Y15.4739 
G01 X54.6653 Y15.4702 
G01 X54.6649 Y15.4665 
G01 X54.6692 Y15.4338 
G01 X54.6726 Y15.4009 
G01 X54.6740 Y15.3975 
G01 X54.6744 Y15.3938 
G01 X54.6871 Y15.3633 
G01 X54.6989 Y15.3325 
G01 X54.7011 Y15.3295 
G01 X54.7025 Y15.3260 
G01 X54.7226 Y15.2999 
G01 X54.7420 Y15.2731 
G01 X54.7449 Y15.2708 
G01 X54.7472 Y15.2678 
G01 X54.7734 Y15.2477 
G01 X54.7990 Y15.2269 
G01 X54.8024 Y15.2254 
G01 X54.8054 Y15.2232 
G01 X54.8359 Y15.2105 
G01 X54.8661 Y15.1971 
G01 X54.8697 Y15.1965 
G01 X54.8787 Y15.1928 
G01 X54.8947 Y15.1836 
G01 X54.9125 Y15.1788 
G01 X54.9295 Y15.1718 
G01 X54.9478 Y15.1694 
G01 X54.9655 Y15.1646 
G01 X54.9840 Y15.1646 
G01 X55.0022 Y15.1622 
G01 X55.0205 Y15.1646 
G01 X57.2115 Y15.1646 
G01 X57.2823 Y15.1836 
G01 X57.3458 Y15.2203 
G01 X57.3977 Y15.2721 
G01 X58.9733 Y16.8477 
G01 X59.4124 Y17.0296 
G01 X60.9780 Y17.0296 
G01 X60.9963 Y17.0272 
G01 X61.0145 Y17.0296 
G01 X61.0330 Y17.0296 
G01 X61.0508 Y17.0344 
G01 X61.0690 Y17.0368 
G01 X61.0860 Y17.0438 
G01 X61.1038 Y17.0486 
G01 X61.1198 Y17.0578 
G01 X61.6802 Y17.2899 
G01 X64.0498 Y17.2899 
G01 X64.5845 Y17.0685 
G01 X64.9789 Y16.6741 
G01 X65.0307 Y16.6222 
G01 X65.0943 Y16.5855 
G01 X65.1643 Y16.5668 
G01 X65.2385 Y16.5666 
G01 X65.3093 Y16.5855 
G01 X65.3729 Y16.6222 
G01 X65.4247 Y16.6741 
G01 X65.4614 Y16.7376 
G01 X65.4802 Y16.8077 
G01 X65.4804 Y20.3815 
G01 X65.4614 Y20.4523 
G01 X65.4247 Y20.5158 
G01 X65.3729 Y20.5677 
G01 X64.9658 Y20.9747 
G01 X64.9023 Y21.0114 
G01 X64.8315 Y21.0304 
G01 X64.6554 Y21.0304 
G01 X64.6371 Y21.0328 
G01 X64.6189 Y21.0304 
G01 X64.6005 Y21.0304 
G01 X64.5827 Y21.0256 
G01 X64.5644 Y21.0232 
G01 X64.5474 Y21.0162 
G01 X64.5296 Y21.0114 
G01 X64.5136 Y21.0022 
G01 X64.0498 Y20.8100 
G01 X61.6802 Y20.8100 
G01 X61.1455 Y21.0315 
G01 X60.7362 Y21.4408 
G01 X60.5147 Y21.9756 
G01 X60.5147 Y22.5544 
G01 X60.7362 Y23.0892 
G01 X61.1455 Y23.4985 
G01 X61.6802 Y23.7199 
G01 X64.0498 Y23.7199 
G01 X64.5845 Y23.4985 
G01 X64.6070 Y23.4760 
G01 X64.6582 Y23.4461 
G01 X64.6712 Y23.4386 
G01 X64.7362 Y23.4212 
G01 X64.7421 Y23.4196 
G01 X64.7783 Y23.4196 
G01 X64.8154 Y23.4196 
G01 X65.6426 Y23.4196 
G01 X66.0817 Y23.2377 
G01 X66.4828 Y22.8366 
G01 X67.1379 Y22.1816 
G01 X67.1897 Y22.1297 
G01 X67.2533 Y22.0930 
G01 X67.3233 Y22.0742 
G01 X67.3975 Y22.0740 
G01 X67.4683 Y22.0930 
G01 X67.5319 Y22.1297 
G01 X67.5837 Y22.1815 
G01 X67.6204 Y22.2451 
G01 X67.6392 Y22.3151 
G01 X67.6394 Y37.3777 
G01 X67.6204 Y37.4485 
G01 X67.5837 Y37.5121 
G01 X67.5319 Y37.5639 
G01 X65.5204 Y39.5753 
G01 X65.2426 Y39.8532 
G01 X65.0994 Y40.1989 
G01 X65.0994 Y49.7867 
G01 X65.0804 Y49.8576 
G01 X65.0437 Y49.9211 
G01 X64.9919 Y49.9730 
G01 X64.9283 Y50.0096 
G01 X64.8575 Y50.0286 
G01 X64.7841 Y50.0286 
G01 X64.7133 Y50.0096 
G01 X64.6497 Y49.9730 
G01 X64.5979 Y49.9211 
G01 X64.0790 Y49.4022 
G01 X62.9210 Y49.4022 
G01 X62.4011 Y49.9222 
G01 X62.3375 Y49.9588 
G01 X62.2667 Y49.9778 
G01 X62.1933 Y49.9778 
G01 X62.1225 Y49.9588 
G01 X62.0589 Y49.9222 
G01 X62.0071 Y49.8703 
G01 X61.5390 Y49.4022 
G01 X60.3810 Y49.4022 
G01 X59.8611 Y49.9222 
G01 X59.8337 Y49.9379 
G01 X59.7975 Y49.9588 
G01 X59.7612 Y49.9686 
G01 X59.7267 Y49.9778 
G01 X59.6904 Y49.9778 
G01 X59.6533 Y49.9778 
G01 X59.6417 Y49.9747 
G01 X59.5825 Y49.9588 
G01 X59.5189 Y49.9222 
G01 X59.4671 Y49.8703 
G01 X59.4417 Y49.8449 
G01 X59.4253 Y49.8165 
G01 X59.4050 Y49.7813 
G01 X59.3949 Y49.7438 
G01 X59.3860 Y49.7105 
G01 X59.3860 Y49.6734 
G01 X59.3860 Y32.1928 
G01 X59.2389 Y31.8378 
G01 X58.9539 Y31.5528 
G01 X58.9021 Y31.5009 
G01 X52.9022 Y25.5011 
G01 X52.6172 Y25.2161 
G01 X52.2622 Y25.0690 
G01 X31.4289 Y25.0690 
G01 X31.4144 Y25.0713 
G01 X31.3924 Y25.0690 
G01 X31.3703 Y25.0690 
G01 X31.3561 Y25.0652 
G01 X31.3414 Y25.0636 
G01 X31.3208 Y25.0557 
G01 X31.2995 Y25.0500 
G01 X31.2867 Y25.0426 
G01 X31.2729 Y25.0373 
G01 X31.2551 Y25.0244 
G01 X31.2359 Y25.0133 
G01 X31.2255 Y25.0029 
G01 X31.2136 Y24.9942 
G01 X31.1997 Y24.9771 
G01 X31.1841 Y24.9615 
G01 X31.1767 Y24.9487 
G01 X31.1674 Y24.9372 
G01 X31.1584 Y24.9171 
G01 X31.1474 Y24.8979 
G01 X31.1436 Y24.8837 
G01 X31.1376 Y24.8702 
G01 X31.1341 Y24.8484 
G01 X31.1284 Y24.8271 
G01 X31.1284 Y24.8123 
G01 X31.1261 Y24.7978 
G01 X31.1284 Y24.7758 
G01 X31.1284 Y24.7537 
G01 X31.1322 Y24.7395 
G01 X31.1338 Y24.7248 
G01 X31.1417 Y24.7042 
G01 X31.1474 Y24.6829 
G01 X31.1548 Y24.6701 
G01 X31.1601 Y24.6563 
G01 X31.1730 Y24.6385 
G01 X31.1841 Y24.6193 
G01 X31.1945 Y24.6089 
G01 X31.2230 Y24.5697 
G01 X31.2829 Y24.4521 
G01 X31.2971 Y24.4086 
G01 X31.1864 Y24.4086 
G01 X31.1575 Y24.4785 
G01 X31.0769 Y24.5990 
G01 X30.9744 Y24.7015 
G01 X30.8539 Y24.7821 
G01 X30.7200 Y24.8375 
G01 X30.5779 Y24.8658 
G01 X29.1121 Y24.8658 
G01 X28.9700 Y24.8375 
G01 X28.8361 Y24.7821 
G01 X28.7156 Y24.7015 
G01 X28.6131 Y24.5990 
G01 X28.5325 Y24.4785 
G01 X28.4771 Y24.3446 
G01 X28.4488 Y24.2025 
G01 X28.4488 Y24.0575 
G01 X28.4771 Y23.9154 
G01 X28.5325 Y23.7815 
G01 X28.6131 Y23.6610 
G01 X28.7156 Y23.5585 
G01 X28.8361 Y23.4779 
G01 X28.9700 Y23.4225 
G01 X29.1121 Y23.3942 
G01 X30.5779 Y23.3942 
G01 X30.7200 Y23.4225 
G01 X30.8539 Y23.4779 
G01 X30.9744 Y23.5585 
G01 X31.0769 Y23.6610 
G01 X31.1575 Y23.7815 
G01 X31.1864 Y23.8514 
G01 X31.2970 Y23.8514 
G01 X31.2829 Y23.8079 
G01 X31.2230 Y23.6903 
G01 X31.1454 Y23.5834 
G01 X31.0520 Y23.4900 
G01 X30.9451 Y23.4124 
G01 X30.8275 Y23.3525 
G01 X30.7916 Y23.3408 
G01 X30.7806 Y23.3394 
G01 X30.7569 Y23.3295 
G01 X30.7324 Y23.3216 
G01 X30.7231 Y23.3155 
G01 X30.7128 Y23.3113 
G01 X30.6924 Y23.2956 
G01 X30.6709 Y23.2816 
G01 X30.6634 Y23.2734 
G01 X30.6547 Y23.2666 
G01 X30.6390 Y23.2462 
G01 X30.6218 Y23.2271 
G01 X30.6167 Y23.2172 
G01 X30.6100 Y23.2084 
G01 X30.6002 Y23.1847 
G01 X30.5885 Y23.1618 
G01 X30.5862 Y23.1509 
G01 X30.5819 Y23.1407 
G01 X30.5786 Y23.1152 
G01 X30.5732 Y23.0900 
G01 X30.5738 Y23.0789 
G01 X30.5723 Y23.0679 
G01 X30.5757 Y23.0424 
G01 X30.5770 Y23.0167 
G01 X30.5805 Y23.0062 
G01 X30.5819 Y22.9952 
G01 X30.5918 Y22.9715 
G01 X30.5997 Y22.9470 
G01 X30.6058 Y22.9377 
G01 X30.6100 Y22.9274 
G01 X30.6257 Y22.9070 
G01 X30.6397 Y22.8855 
G01 X30.6479 Y22.8780 
G01 X30.6547 Y22.8692 
G01 X30.6751 Y22.8536 
G01 X30.6942 Y22.8364 
G01 X30.7041 Y22.8313 
G01 X30.7128 Y22.8246 
G01 X30.7366 Y22.8147 
G01 X30.7595 Y22.8031 
G01 X30.7704 Y22.8008 
G01 X31.1965 Y22.6243 
G01 X31.5397 Y22.2811 
G01 X31.7254 Y21.8327 
G01 X31.7254 Y21.3473 
G01 X31.5397 Y20.8989 
G01 X31.2327 Y20.5919 
G01 X31.1960 Y20.5284 
G01 X31.1770 Y20.4575 
G01 X31.1770 Y20.3842 
G01 X31.1960 Y20.3133 
G01 X31.2327 Y20.2498 
G01 X31.2845 Y20.1979 
G01 X31.3961 Y20.0864 
G01 X31.6746 Y19.4139 
G01 X31.6746 Y18.6861 
G01 X31.3961 Y18.0136 
G01 X30.8814 Y17.4989 
G01 X30.2089 Y17.2204 
G01 X29.4811 Y17.2204 
G01 X29.2893 Y17.2998 
G01 X29.2800 Y17.3059 
G01 X29.2555 Y17.3138 
G01 X29.2318 Y17.3237 
G01 X29.2208 Y17.3251 
G01 X29.2103 Y17.3285 
G01 X29.1846 Y17.3299 
G01 X29.1591 Y17.3332 
G01 X29.1481 Y17.3318 
G01 X29.1370 Y17.3324 
G01 X29.1118 Y17.3270 
G01 X29.0863 Y17.3237 
G01 X29.0761 Y17.3194 
G01 X29.0652 Y17.3171 
G01 X29.0423 Y17.3054 
G01 X29.0186 Y17.2956 
G01 X29.0098 Y17.2888 
G01 X28.9999 Y17.2838 
G01 X28.9808 Y17.2666 
G01 X28.9604 Y17.2509 
G01 X28.9536 Y17.2421 
G01 X28.9454 Y17.2347 
G01 X28.9314 Y17.2131 
G01 X28.9157 Y17.1927 
G01 X28.9115 Y17.1825 
G01 X28.9054 Y17.1732 
G01 X28.8975 Y17.1487 
G01 X28.8876 Y17.1250 
G01 X28.8862 Y17.1140 
G01 X28.8828 Y17.1034 
G01 X28.8814 Y17.0777 
G01 X28.8781 Y17.0522 
G01 X28.8795 Y17.0412 
G01 X28.8789 Y17.0302 
G01 X28.8843 Y17.0050 
G01 X28.8876 Y16.9795 
G01 X28.8919 Y16.9693 
G01 X28.8942 Y16.9584 
G01 X28.9059 Y16.9355 
G01 X28.9157 Y16.9117 
G01 X28.9224 Y16.9029 
G01 X28.9387 Y16.8711 
G01 X28.9490 Y16.8394 
G01 X28.8370 Y16.8394 
G01 X28.8091 Y16.9067 
G01 X28.7175 Y17.0438 
G01 X28.6008 Y17.1605 
G01 X28.4637 Y17.2521 
G01 X28.3113 Y17.3152 
G01 X28.1495 Y17.3474 
G01 X27.6344 Y17.3474 
G01 X27.6344 Y17.4506 
G01 X28.1367 Y17.4506 
G01 X28.1517 Y17.4466 
G01 X28.1665 Y17.4466 
G01 X28.1810 Y17.4443 
G01 X28.2030 Y17.4466 
G01 X28.2251 Y17.4466 
G01 X28.2393 Y17.4504 
G01 X28.2540 Y17.4519 
G01 X28.2746 Y17.4598 
G01 X28.2959 Y17.4656 
G01 X28.3087 Y17.4729 
G01 X28.3225 Y17.4782 
G01 X28.3403 Y17.4912 
G01 X28.3595 Y17.5022 
G01 X28.3699 Y17.5127 
G01 X28.3818 Y17.5213 
G01 X28.3957 Y17.5385 
G01 X28.4113 Y17.5541 
G01 X28.4187 Y17.5669 
G01 X28.4280 Y17.5783 
G01 X28.4370 Y17.5985 
G01 X28.4480 Y17.6176 
G01 X28.4518 Y17.6319 
G01 X28.4578 Y17.6454 
G01 X28.4613 Y17.6672 
G01 X28.4670 Y17.6885 
G01 X28.4670 Y17.7032 
G01 X28.4693 Y17.7178 
G01 X28.4670 Y17.7398 
G01 X28.4670 Y17.7619 
G01 X28.4632 Y17.7761 
G01 X28.4616 Y17.7908 
G01 X28.4537 Y17.8114 
G01 X28.4480 Y17.8327 
G01 X28.4406 Y17.8455 
G01 X28.4353 Y17.8593 
G01 X28.4224 Y17.8771 
G01 X28.4113 Y17.8962 
G01 X28.4009 Y17.9067 
G01 X28.3922 Y17.9186 
G01 X28.3751 Y17.9325 
G01 X28.2939 Y18.0136 
G01 X28.0154 Y18.6861 
G01 X28.0154 Y19.4139 
G01 X28.0984 Y19.6144 
G01 X28.1077 Y19.6304 
G01 X28.1124 Y19.6482 
G01 X28.1195 Y19.6652 
G01 X28.1219 Y19.6834 
G01 X28.1266 Y19.7012 
G01 X28.1266 Y19.7197 
G01 X28.1291 Y19.7379 
G01 X28.1266 Y19.7562 
G01 X28.1266 Y19.7746 
G01 X28.1219 Y19.7924 
G01 X28.1195 Y19.8107 
G01 X28.1124 Y19.8277 
G01 X28.1077 Y19.8455 
G01 X28.0984 Y19.8614 
G01 X28.0914 Y19.8784 
G01 X28.0802 Y19.8930 
G01 X28.0710 Y19.9090 
G01 X28.0580 Y19.9220 
G01 X28.0468 Y19.9366 
G01 X28.0321 Y19.9478 
G01 X28.0191 Y19.9609 
G01 X28.0032 Y19.9701 
G01 X27.9886 Y19.9813 
G01 X27.9716 Y19.9883 
G01 X27.9556 Y19.9975 
G01 X27.9378 Y20.0023 
G01 X27.9208 Y20.0094 
G01 X27.9025 Y20.0118 
G01 X27.8847 Y20.0165 
G01 X27.8663 Y20.0165 
G01 X27.8481 Y20.0189 
G01 X27.8298 Y20.0165 
G01 X27.8114 Y20.0165 
G01 X27.7936 Y20.0118 
G01 X27.7753 Y20.0094 
G01 X27.7583 Y20.0023 
G01 X27.7405 Y19.9975 
G01 X27.7245 Y19.9883 
G01 X27.7075 Y19.9813 
G01 X27.6929 Y19.9701 
G01 X27.6770 Y19.9609 
G01 X27.6640 Y19.9478 
G01 X27.6494 Y19.9366 
G01 X27.6381 Y19.9220 
G01 X24.5685 Y16.8524 
G01 X24.5167 Y16.8005 
G01 X24.4800 Y16.7370 
G01 X24.4610 Y16.6662 
G01 X24.4610 Y13.1788 
G01 X24.4800 Y13.1080 
G01 X24.5167 Y13.0445 
G01 X24.5685 Y12.9926 
G01 X25.1095 Y12.4517 
G01 X25.1730 Y12.4150 
G01 X25.2438 Y12.3960 
G01 X25.5613 Y12.3960 
G01 X25.6321 Y12.4150 
G01 X25.6956 Y12.4517 
G01 X25.7475 Y12.5035 
G01 X25.7729 Y12.5289 
G01 X25.8096 Y12.5925 
G01 X25.8286 Y12.6633 
G01 X25.8286 Y12.7367 
G01 X25.8096 Y12.8075 
G01 X25.7729 Y12.8711 
G01 X25.7210 Y12.9229 
G01 X25.4226 Y13.2214 
G01 X25.2214 Y13.7071 
G01 X25.2214 Y14.2329 
G01 X25.4226 Y14.7186 
G01 X25.7944 Y15.0904 
G01 X26.0328 Y15.1892 
G01 X26.0573 Y15.1971 
G01 X26.0666 Y15.2032 
G01 X26.0769 Y15.2074 
G01 X26.0973 Y15.2231 
G01 X26.1189 Y15.2371 
G01 X26.1263 Y15.2453 
G01 X26.1351 Y15.2521 
G01 X26.1507 Y15.2725 
G01 X26.1679 Y15.2916 
G01 X26.1730 Y15.3015 
G01 X26.1797 Y15.3103 
G01 X26.1896 Y15.3340 
G01 X26.2012 Y15.3570 
G01 X26.2035 Y15.3678 
G01 X26.2078 Y15.3780 
G01 X26.2111 Y15.4036 
G01 X26.2165 Y15.4287 
G01 X26.2159 Y15.4398 
G01 X26.2174 Y15.4508 
G01 X26.2140 Y15.4763 
G01 X26.2127 Y15.5020 
G01 X26.2092 Y15.5125 
G01 X26.2078 Y15.5235 
G01 X26.1979 Y15.5472 
G01 X26.1900 Y15.5718 
G01 X26.1839 Y15.5810 
G01 X26.1797 Y15.5913 
G01 X26.1640 Y15.6117 
G01 X26.1500 Y15.6333 
G01 X26.1418 Y15.6407 
G01 X26.1351 Y15.6495 
G01 X26.1146 Y15.6651 
G01 X26.0955 Y15.6824 
G01 X26.0856 Y15.6874 
G01 X26.0769 Y15.6941 
G01 X26.0531 Y15.7040 
G01 X26.0500 Y15.7055 
G01 X25.9302 Y15.7925 
G01 X25.8255 Y15.8972 
G01 X25.7385 Y16.0170 
G01 X25.6713 Y16.1489 
G01 X25.6610 Y16.1806 
G01 X25.7731 Y16.1806 
G01 X25.8009 Y16.1133 
G01 X25.8925 Y15.9762 
G01 X26.0092 Y15.8595 
G01 X26.1463 Y15.7679 
G01 X26.2987 Y15.7048 
G01 X26.4605 Y15.6726 
G01 X28.1495 Y15.6726 
G01 X28.3113 Y15.7048 
G01 X28.4637 Y15.7679 
G01 X28.6008 Y15.8595 
G01 X28.7175 Y15.9762 
G01 X28.8091 Y16.1133 
G01 X28.8369 Y16.1806 
G01 X28.9490 Y16.1806 
G01 X28.9387 Y16.1489 
G01 X28.8715 Y16.0170 
G01 X28.7844 Y15.8972 
G01 X28.6798 Y15.7925 
G01 X28.5600 Y15.7055 
G01 X28.5569 Y15.7040 
G01 X28.5331 Y15.6941 
G01 X28.5244 Y15.6874 
G01 X28.5145 Y15.6824 
G01 X28.4954 Y15.6651 
G01 X28.4749 Y15.6495 
G01 X28.4682 Y15.6407 
G01 X28.4600 Y15.6333 
G01 X28.4460 Y15.6117 
G01 X28.4303 Y15.5913 
G01 X28.4261 Y15.5810 
G01 X28.4200 Y15.5718 
G01 X28.4121 Y15.5473 
G01 X28.4022 Y15.5235 
G01 X28.4008 Y15.5125 
G01 X28.3973 Y15.5020 
G01 X28.3960 Y15.4763 
G01 X28.3926 Y15.4508 
G01 X28.3941 Y15.4398 
G01 X28.3935 Y15.4287 
G01 X28.3989 Y15.4036 
G01 X28.4022 Y15.3780 
G01 X28.4065 Y15.3678 
G01 X28.4088 Y15.3570 
G01 X28.4204 Y15.3340 
G01 X28.4303 Y15.3103 
G01 X28.4370 Y15.3015 
G01 X28.4421 Y15.2916 
G01 X28.4593 Y15.2725 
G01 X28.4749 Y15.2521 
G01 X28.4837 Y15.2453 
G01 X28.4911 Y15.2371 
G01 X28.5127 Y15.2231 
G01 X28.5331 Y15.2074 
G01 X28.5434 Y15.2032 
G01 X28.5526 Y15.1971 
G01 X28.5771 Y15.1892 
G01 X28.8156 Y15.0904 
G01 X29.1874 Y14.7186 
G01 X29.3886 Y14.2329 
G01 X29.3886 Y13.7071 
G01 X29.1874 Y13.2214 
G01 X28.8890 Y12.9229 
G01 X28.8371 Y12.8711 
G01 X28.8004 Y12.8075 
G01 X28.7816 Y12.7375 
G01 X28.7814 Y12.6633 
G01 X28.8004 Y12.5925 
G01 X28.8371 Y12.5289 
G01 X29.1874 Y12.1786 
G01 X29.3886 Y11.6929 
G01 X29.3886 Y11.1671 
G01 X29.1874 Y10.6814 
G01 X28.8890 Y10.3829 
G01 X28.8371 Y10.3311 
G01 X28.8004 Y10.2675 
G01 X28.7816 Y10.1975 
G01 X28.7814 Y10.1233 
G01 X28.8004 Y10.0525 
G01 X28.8371 Y9.9889 
G01 X29.1874 Y9.6386 
G01 X29.3886 Y9.1529 
G01 X29.3886 Y8.6271 
G01 X29.1874 Y8.1414 
G01 X28.8371 Y7.7911 
G01 X28.8004 Y7.7275 
G01 X28.7814 Y7.6567 
G01 X28.7814 Y7.5833 
G01 X28.8004 Y7.5125 
G01 X28.8371 Y7.4489 
G01 X28.8890 Y7.3971 
G01 X28.9144 Y7.3717 
G01 X28.9779 Y7.3350 
G01 X29.0487 Y7.3160 
G01 X29.5532 Y7.3160 
G01 X29.5715 Y7.3136 
G01 X29.5897 Y7.3160 
G01 X29.6082 Y7.3160 
G01 X29.6260 Y7.3208 
G01 X29.6442 Y7.3232 
G01 X29.6612 Y7.3302 
G01 X29.6790 Y7.3350 
G01 X29.6950 Y7.3442 
G01 X29.7120 Y7.3512 
G01 X29.7266 Y7.3624 
G01 X29.7425 Y7.3717 
G01 X29.7556 Y7.3847 
G01 X29.7702 Y7.3959 
G01 X29.7814 Y7.4105 
G01 X29.7944 Y7.4235 
G01 X29.8036 Y7.4395 
G01 X29.8148 Y7.4541 
G01 X29.8219 Y7.4711 
G01 X29.8311 Y7.4871 
G01 X29.8359 Y7.5049 
G01 X29.8906 Y7.6370 
G01 X30.0480 Y7.7944 
G01 X30.0629 Y7.8057 
G01 X30.0789 Y7.8149 
G01 X30.0919 Y7.8280 
G01 X30.1065 Y7.8392 
G01 X30.1177 Y7.8538 
G01 X30.1307 Y7.8668 
G01 X30.1399 Y7.8828 
G01 X30.1511 Y7.8974 
G01 X30.1582 Y7.9144 
G01 X30.1674 Y7.9303 
G01 X30.1722 Y7.9481 
G01 X30.1792 Y7.9651 
G01 X30.1816 Y7.9834 
G01 X30.1864 Y8.0012 
G01 X30.1864 Y8.0196 
G01 X30.1888 Y8.0379 
G01 X30.1864 Y8.0561 
G01 X30.1864 Y8.1696 
G01 X30.2896 Y8.1696 
G01 X30.2896 Y7.9050 
G01 X30.3011 Y7.8773 
G01 X30.3223 Y7.8561 
G01 X30.3500 Y7.8446 
G01 X31.8800 Y7.8446 
G01 X31.9077 Y7.8561 
G01 X31.9289 Y7.8773 
G01 X31.9404 Y7.9050 
G01 X31.9404 Y8.1696 
G01 X32.0436 Y8.1696 
G01 X32.0436 Y8.0561 
G01 X32.0412 Y8.0379 
G01 X32.0436 Y8.0196 
G01 X32.0436 Y8.0012 
G01 X32.0484 Y7.9834 
G01 X32.0508 Y7.9651 
G01 X32.0578 Y7.9481 
G01 X32.0626 Y7.9303 
G01 X32.0718 Y7.9144 
G01 X32.0788 Y7.8974 
G01 X32.0900 Y7.8828 
G01 X32.0993 Y7.8668 
G01 X32.1123 Y7.8538 
G01 X32.1235 Y7.8392 
G01 X32.1381 Y7.8280 
G01 X32.1511 Y7.8149 
G01 X32.1671 Y7.8057 
G01 X32.1817 Y7.7945 
G01 X32.3394 Y7.6370 
G01 X32.3941 Y7.5049 
G01 X32.3989 Y7.4871 
G01 X32.4081 Y7.4711 
G01 X32.4152 Y7.4541 
G01 X32.4264 Y7.4395 
G01 X32.4356 Y7.4235 
G01 X32.4486 Y7.4105 
G01 X32.4598 Y7.3959 
G01 X32.4744 Y7.3847 
G01 X32.4875 Y7.3717 
G01 X32.5034 Y7.3624 
G01 X32.5180 Y7.3512 
G01 X32.5350 Y7.3442 
G01 X32.5510 Y7.3350 
G01 X32.5688 Y7.3302 
G01 X32.5858 Y7.3232 
G01 X32.6040 Y7.3208 
G01 X32.6218 Y7.3160 
G01 X32.6403 Y7.3160 
G01 X32.6585 Y7.3136 
G01 X32.6768 Y7.3160 
G01 X37.0222 Y7.3160 
G01 X37.3772 Y7.1689 
G01 X37.7141 Y6.8321 
G01 X38.6339 Y5.9122 
G01 X38.9189 Y5.6272 
G01 X39.0660 Y5.2721 
G01 X39.0660 Y3.6295 
G01 X39.0850 Y3.5586 
G01 X39.1217 Y3.4951 
G01 X39.1735 Y3.4432 
G01 X39.4173 Y3.1995 
G01 X39.4683 Y3.1484 
G01 X39.5319 Y3.1118 
G01 X39.6019 Y3.0930 
G01 X39.6761 Y3.0928 
G01 X39.6904 Y3.0966 
G01 X39.7469 Y3.1118 
G01 X39.8105 Y3.1484 
G01 X39.8623 Y3.2003 
G01 X40.2188 Y3.5568 
G01 X40.3146 Y3.5568 
G01 X40.3146 Y3.4536 
G01 X40.2616 Y3.4536 
G01 X39.7264 Y2.9184 
G01 X39.7264 Y2.1616 
G01 X40.2616 Y1.6264 
G01 X40.3146 Y1.6264 
G01 X40.3146 Y1.5232 
G01 X40.2188 Y1.5232 
G01 X39.8623 Y1.8797 
G01 X39.8105 Y1.9316 
G01 X39.7469 Y1.9682 
G01 X39.6769 Y1.9870 
G01 X39.6027 Y1.9872 
G01 X39.5319 Y1.9682 
G01 X39.4683 Y1.9316 
G01 X38.9270 Y1.3903 
G01 X38.8904 Y1.3267 
G01 X38.8714 Y1.2559 
G01 X38.8714 Y1.1825 
G01 X38.8890 Y1.1168 
G01 X27.5046 Y1.1168 
G01 X26.5422 Y2.0792 
G01 X26.5422 Y3.1190 
G01 X27.3610 Y3.9378 
G01 X28.5190 Y3.9378 
G01 X29.0389 Y3.4178 
G01 X29.1025 Y3.3812 
G01 X29.1733 Y3.3622 
G01 X29.2467 Y3.3622 
G01 X29.3175 Y3.3812 
G01 X29.3811 Y3.4178 
G01 X29.4329 Y3.4697 
G01 X29.9010 Y3.9378 
G01 X31.0590 Y3.9378 
G01 X31.5789 Y3.4178 
G01 X31.6425 Y3.3812 
G01 X31.7133 Y3.3622 
G01 X31.7867 Y3.3622 
G01 X31.8575 Y3.3812 
G01 X31.9211 Y3.4178 
G01 X31.9729 Y3.4697 
G01 X32.4410 Y3.9378 
G01 X33.5990 Y3.9378 
G01 X34.1189 Y3.4178 
G01 X34.1825 Y3.3812 
G01 X34.2533 Y3.3622 
G01 X34.3267 Y3.3622 
G01 X34.3975 Y3.3812 
G01 X34.4611 Y3.4178 
G01 X34.5129 Y3.4697 
G01 X34.9810 Y3.9378 
G01 X36.1390 Y3.9378 
G01 X36.6589 Y3.4178 
G01 X36.6863 Y3.4021 
G01 X36.7225 Y3.3812 
G01 X36.7587 Y3.3714 
G01 X36.7933 Y3.3622 
G01 X36.8296 Y3.3622 
G01 X36.8667 Y3.3622 
G01 X36.8783 Y3.3653 
G01 X36.9375 Y3.3812 
G01 X37.0011 Y3.4178 
G01 X37.0529 Y3.4697 
G01 X37.0783 Y3.4951 
G01 X37.0840 Y3.5050 
G01 X37.1150 Y3.5586 
G01 X37.1189 Y3.5733 
G01 X37.1340 Y3.6295 
G01 X37.1340 Y3.6521 
G01 X37.1340 Y4.6011 
G01 X37.1150 Y4.6720 
G01 X37.0783 Y4.7355 
G01 X37.0265 Y4.7874 
G01 X36.4855 Y5.3283 
G01 X36.4220 Y5.3650 
G01 X36.3511 Y5.3840 
G01 X29.0487 Y5.3840 
G01 X29.0306 Y5.3791 
G01 X28.9779 Y5.3650 
G01 X28.9144 Y5.3283 
G01 X28.8625 Y5.2765 
G01 X28.8156 Y5.2296 
G01 X28.3299 Y5.0284 
G01 X26.2801 Y5.0284 
G01 X25.7944 Y5.2296 
G01 X25.7475 Y5.2765 
G01 X25.6969 Y5.3271 
G01 X25.6321 Y5.3650 
G01 X25.5811 Y5.3787 
G01 X25.5613 Y5.3840 
G01 X12.5387 Y5.3840 
G01 X12.4679 Y5.3650 
G01 X12.4044 Y5.3283 
G01 X12.3525 Y5.2765 
G01 X12.3056 Y5.2296 
G01 X11.8199 Y5.0284 
G01 X9.7701 Y5.0284 
G01 X9.2844 Y5.2296 
G01 X9.1856 Y5.3283 
G01 X9.1221 Y5.3650 
G01 X9.0513 Y5.3840 
G01 X8.6978 Y5.3840 
G01 X8.3428 Y5.5311 
G01 X7.0861 Y6.7878 
G01 X6.8011 Y7.0728 
G01 X6.6540 Y7.4278 
G01 X6.6540 Y10.3521 
G01 X6.8011 Y10.7072 
G01 X7.3009 Y11.2071 
G01 X7.3528 Y11.2589 
G01 X7.3895 Y11.3225 
G01 X7.4083 Y11.3925 
G01 X7.4085 Y11.4667 
G01 X7.3895 Y11.5375 
G01 X7.3528 Y11.6011 
G01 X7.0861 Y11.8678 
G01 X6.8011 Y12.1528 
G01 X6.6540 Y12.5078 
G01 X6.6540 Y15.4322 
G01 X6.8011 Y15.7872 
G01 X7.3009 Y16.2871 
G01 X7.3528 Y16.3389 
G01 X7.3895 Y16.4025 
G01 X7.4083 Y16.4725 
G01 X7.4085 Y16.5467 
G01 X7.3895 Y16.6175 
G01 X7.3528 Y16.6811 
G01 X7.0861 Y16.9478 
G01 X6.8011 Y17.2328 
G01 X6.6540 Y17.5878 
G01 X6.6540 Y20.5122 
G01 X6.8011 Y20.8672 
G01 X7.3009 Y21.3671 
G01 X7.3528 Y21.4189 
G01 X7.3895 Y21.4825 
G01 X7.4083 Y21.5525 
G01 X7.4085 Y21.6267 
G01 X7.3895 Y21.6975 
G01 X7.3528 Y21.7611 
G01 X7.0861 Y22.0278 
G01 X6.8011 Y22.3128 
G01 X6.6540 Y22.6678 
G01 X6.6540 Y28.1322 
G01 X6.8011 Y28.4872 
G01 X7.3528 Y29.0389 
G01 X7.3895 Y29.1025 
G01 X7.4085 Y29.1733 
G01 X7.4085 Y29.2467 
G01 X7.3895 Y29.3175 
G01 X7.3528 Y29.3811 
G01 X7.3009 Y29.4329 
G01 X7.0861 Y29.6478 
G01 X6.8011 Y29.9328 
G01 X6.6540 Y30.2878 
G01 X6.6540 Y33.2122 
G01 X6.8011 Y33.5672 
G01 X7.3009 Y34.0671 
G01 X7.3528 Y34.1189 
G01 X7.3895 Y34.1825 
G01 X7.4083 Y34.2525 
G01 X7.4085 Y34.3267 
G01 X7.3895 Y34.3975 
G01 X7.3528 Y34.4611 
G01 X7.0861 Y34.7278 
G01 X6.8011 Y35.0128 
G01 X6.6540 Y35.3678 
G01 X6.6540 Y38.2921 
G01 X6.8011 Y38.6472 
G01 X7.3009 Y39.1471 
G01 X7.3528 Y39.1989 
G01 X7.3895 Y39.2625 
G01 X7.4083 Y39.3325 
G01 X7.4085 Y39.4067 
G01 X7.3895 Y39.4775 
G01 X7.3528 Y39.5411 
G01 X7.0861 Y39.8078 
G01 X6.8011 Y40.0928 
G01 X6.6540 Y40.4478 
G01 X6.6540 Y43.3722 
G01 X6.8011 Y43.7272 
G01 X7.3009 Y44.2271 
G01 X7.3528 Y44.2789 
G01 X7.3895 Y44.3425 
G01 X7.4083 Y44.4125 
G01 X7.4085 Y44.4867 
G01 X7.3895 Y44.5575 
G01 X7.3528 Y44.6211 
G01 X7.0861 Y44.8878 
G01 X6.8011 Y45.1728 
G01 X6.6540 Y45.5278 
G01 X6.6540 Y48.4522 
G01 X6.8011 Y48.8072 
G01 X8.0578 Y50.0639 
G01 X8.3428 Y50.3489 
G01 X8.6978 Y50.4960 
G01 X12.2572 Y50.4960 
G01 X12.6122 Y50.3489 
G01 X14.0859 Y48.8753 
G01 X14.1494 Y48.8386 
G01 X14.2202 Y48.8196 
G01 X14.9689 Y48.8196 
G01 X15.6414 Y48.5411 
G01 X16.1561 Y48.0264 
G01 X16.4346 Y47.3539 
G01 X16.4346 Y46.6261 
G01 X16.1561 Y45.9536 
G01 X15.6414 Y45.4389 
G01 X14.9689 Y45.1604 
G01 X14.5429 Y45.1604 
G01 X14.4721 Y45.1414 
G01 X14.4085 Y45.1047 
G01 X14.3567 Y45.0529 
G01 X14.3200 Y44.9893 
G01 X14.3010 Y44.9185 
G01 X14.3010 Y44.2938 
G01 X14.3200 Y44.2230 
G01 X14.3567 Y44.1595 
G01 X14.4085 Y44.1076 
G01 X15.7739 Y42.7422 
G01 X16.0467 Y42.4695 
G01 X16.0977 Y42.4184 
G01 X16.1621 Y42.3809 
G01 X16.2131 Y42.3672 
G01 X16.2329 Y42.3619 
G01 X16.3063 Y42.3619 
G01 X16.3245 Y42.3668 
G01 X16.3771 Y42.3809 
G01 X16.4407 Y42.4176 
G01 X16.5730 Y42.5500 
G01 X16.6799 Y42.6276 
G01 X16.7975 Y42.6875 
G01 X16.9231 Y42.7283 
G01 X17.0536 Y42.7490 
G01 X17.5014 Y42.7490 
G01 X17.5014 Y42.6458 
G01 X17.0471 Y42.6458 
G01 X16.9050 Y42.6175 
G01 X16.7711 Y42.5621 
G01 X16.6506 Y42.4815 
G01 X16.5481 Y42.3790 
G01 X16.4675 Y42.2585 
G01 X16.4121 Y42.1246 
G01 X16.3838 Y41.9825 
G01 X16.3838 Y41.8375 
G01 X16.4121 Y41.6954 
G01 X16.4675 Y41.5615 
G01 X16.5481 Y41.4410 
G01 X16.6506 Y41.3385 
G01 X16.7711 Y41.2579 
G01 X16.9050 Y41.2025 
G01 X17.0471 Y41.1742 
G01 X18.5129 Y41.1742 
G01 X18.6550 Y41.2025 
G01 X18.7889 Y41.2579 
G01 X18.9094 Y41.3385 
G01 X19.0119 Y41.4410 
G01 X19.0925 Y41.5615 
G01 X19.1214 Y41.6314 
G01 X19.2321 Y41.6314 
G01 X19.2179 Y41.5879 
G01 X19.1580 Y41.4703 
G01 X19.0804 Y41.3634 
G01 X18.9870 Y41.2700 
G01 X18.8801 Y41.1924 
G01 X18.7625 Y41.1325 
G01 X18.7266 Y41.1208 
G01 X18.7156 Y41.1194 
G01 X18.6919 Y41.1095 
G01 X18.6674 Y41.1016 
G01 X18.6581 Y41.0955 
G01 X18.6478 Y41.0913 
G01 X18.6274 Y41.0756 
G01 X18.6059 Y41.0616 
G01 X18.5984 Y41.0534 
G01 X18.5897 Y41.0466 
G01 X18.5740 Y41.0262 
G01 X18.5568 Y41.0071 
G01 X18.5517 Y40.9972 
G01 X18.5450 Y40.9884 
G01 X18.5352 Y40.9647 
G01 X18.5235 Y40.9418 
G01 X18.5212 Y40.9309 
G01 X18.5169 Y40.9207 
G01 X18.5136 Y40.8952 
G01 X18.5082 Y40.8700 
G01 X18.5088 Y40.8589 
G01 X18.5073 Y40.8479 
G01 X18.5107 Y40.8224 
G01 X18.5121 Y40.7967 
G01 X18.5155 Y40.7862 
G01 X18.5169 Y40.7752 
G01 X18.5268 Y40.7515 
G01 X18.5347 Y40.7270 
G01 X18.5408 Y40.7177 
G01 X18.5450 Y40.7074 
G01 X18.5607 Y40.6870 
G01 X18.5747 Y40.6655 
G01 X18.5829 Y40.6580 
G01 X18.5897 Y40.6492 
G01 X18.6101 Y40.6336 
G01 X18.6292 Y40.6164 
G01 X18.6391 Y40.6113 
G01 X18.6478 Y40.6046 
G01 X18.6716 Y40.5947 
G01 X18.6945 Y40.5831 
G01 X18.7054 Y40.5808 
G01 X19.1315 Y40.4043 
G01 X19.1435 Y40.3923 
G01 X19.2076 Y40.3550 
G01 X19.2660 Y40.3393 
G01 X19.2784 Y40.3360 
G01 X19.3147 Y40.3360 
G01 X19.3518 Y40.3360 
G01 X20.6532 Y40.3360 
G01 X20.6895 Y40.3360 
G01 X20.7265 Y40.3360 
G01 X20.7382 Y40.3391 
G01 X20.7974 Y40.3550 
G01 X20.8609 Y40.3917 
G01 X20.8735 Y40.4043 
G01 X21.3219 Y40.5900 
G01 X23.1281 Y40.5900 
G01 X23.3969 Y40.4786 
G01 X23.4129 Y40.4694 
G00 Z2.5400 
G00 X22.1883 Y22.9100 
G01 Z-0.1000 F254.00 
G01 X22.1174 Y22.8910 F508.00 
G01 X22.0539 Y22.8543 
G01 X22.0020 Y22.8025 
G01 X21.9654 Y22.7389 
G01 X21.9464 Y22.6681 
G01 X21.9464 Y22.3258 
G01 X21.4921 Y22.3258 
G01 X21.3500 Y22.2975 
G01 X21.2161 Y22.2421 
G01 X21.0956 Y22.1615 
G01 X20.9931 Y22.0590 
G01 X20.9125 Y21.9385 
G01 X20.8836 Y21.8686 
G01 X20.7729 Y21.8686 
G01 X20.7871 Y21.9121 
G01 X20.8470 Y22.0297 
G01 X20.9246 Y22.1366 
G01 X21.0180 Y22.2300 
G01 X21.1249 Y22.3076 
G01 X21.2425 Y22.3675 
G01 X21.2784 Y22.3792 
G01 X21.2894 Y22.3806 
G01 X21.3131 Y22.3905 
G01 X21.3376 Y22.3984 
G01 X21.3469 Y22.4045 
G01 X21.3571 Y22.4087 
G01 X21.3775 Y22.4244 
G01 X21.3991 Y22.4384 
G01 X21.4066 Y22.4466 
G01 X21.4153 Y22.4534 
G01 X21.4310 Y22.4738 
G01 X21.4482 Y22.4929 
G01 X21.4533 Y22.5028 
G01 X21.4600 Y22.5115 
G01 X21.4698 Y22.5353 
G01 X21.4815 Y22.5582 
G01 X21.4838 Y22.5691 
G01 X21.4881 Y22.5793 
G01 X21.4914 Y22.6048 
G01 X21.4968 Y22.6300 
G01 X21.4962 Y22.6411 
G01 X21.4976 Y22.6521 
G01 X21.4943 Y22.6775 
G01 X21.4929 Y22.7033 
G01 X21.4895 Y22.7138 
G01 X21.4881 Y22.7248 
G01 X21.4782 Y22.7485 
G01 X21.4703 Y22.7730 
G01 X21.4642 Y22.7823 
G01 X21.4600 Y22.7926 
G01 X21.4443 Y22.8130 
G01 X21.4303 Y22.8345 
G01 X21.4221 Y22.8420 
G01 X21.4153 Y22.8508 
G01 X21.3949 Y22.8664 
G01 X21.3758 Y22.8836 
G01 X21.3659 Y22.8887 
G01 X21.3571 Y22.8954 
G01 X21.3334 Y22.9053 
G01 X21.3105 Y22.9169 
G01 X21.2996 Y22.9192 
G01 X20.8735 Y23.0957 
G01 X20.8609 Y23.1083 
G01 X20.7974 Y23.1450 
G01 X20.7265 Y23.1640 
G01 X19.2785 Y23.1640 
G01 X19.2076 Y23.1450 
G01 X19.1441 Y23.1083 
G01 X19.0922 Y23.0565 
G01 X19.0668 Y23.0311 
G01 X19.0301 Y22.9675 
G01 X19.0111 Y22.8967 
G01 X19.0111 Y22.8233 
G01 X19.0301 Y22.7525 
G01 X19.0668 Y22.6889 
G01 X19.1187 Y22.6371 
G01 X19.4747 Y22.2811 
G01 X19.6604 Y21.8327 
G01 X19.6604 Y21.3473 
G01 X19.4747 Y20.8989 
G01 X19.2195 Y20.6438 
G01 X19.1685 Y20.5927 
G01 X19.1310 Y20.5284 
G01 X19.1173 Y20.4773 
G01 X19.1120 Y20.4575 
G01 X19.1120 Y20.3842 
G01 X19.1169 Y20.3660 
G01 X19.1310 Y20.3133 
G01 X19.1677 Y20.2498 
G01 X19.3311 Y20.0864 
G01 X19.6096 Y19.4139 
G01 X19.6096 Y18.6861 
G01 X19.3311 Y18.0136 
G01 X18.8017 Y17.4842 
G01 X18.7650 Y17.4207 
G01 X18.7460 Y17.3498 
G01 X18.7460 Y9.9678 
G01 X18.5989 Y9.6128 
G01 X18.2621 Y9.2759 
G01 X17.0572 Y8.0711 
G01 X16.7021 Y7.9240 
G01 X12.5750 Y7.9240 
G01 X12.5388 Y7.9240 
G01 X12.5042 Y7.9147 
G01 X12.4679 Y7.9050 
G01 X12.4317 Y7.8841 
G01 X12.4044 Y7.8683 
G01 X12.3790 Y7.8429 
G01 X12.3277 Y7.7917 
G01 X12.2904 Y7.7275 
G01 X12.2748 Y7.6691 
G01 X12.2714 Y7.6567 
G01 X12.2714 Y7.6204 
G01 X12.2714 Y7.5833 
G01 X12.2803 Y7.5500 
G01 X12.2904 Y7.5125 
G01 X12.3107 Y7.4773 
G01 X12.3271 Y7.4489 
G01 X12.3781 Y7.3979 
G01 X12.4044 Y7.3717 
G01 X12.4679 Y7.3350 
G01 X12.5387 Y7.3160 
G01 X25.5613 Y7.3160 
G01 X25.6321 Y7.3350 
G01 X25.6956 Y7.3717 
G01 X25.7475 Y7.4235 
G01 X25.7729 Y7.4489 
G01 X25.8096 Y7.5125 
G01 X25.8286 Y7.5833 
G01 X25.8286 Y7.6567 
G01 X25.8096 Y7.7275 
G01 X25.7729 Y7.7911 
G01 X25.7210 Y7.8429 
G01 X25.6956 Y7.8683 
G01 X25.6321 Y7.9050 
G01 X25.5613 Y7.9240 
G01 X23.9378 Y7.9240 
G01 X23.5828 Y8.0711 
G01 X21.0561 Y10.5978 
G01 X20.7711 Y10.8828 
G01 X20.6240 Y11.2378 
G01 X20.6240 Y17.9721 
G01 X20.7711 Y18.3272 
G01 X22.6933 Y20.2495 
G01 X22.7134 Y20.2696 
G01 X22.7452 Y20.3013 
G01 X22.7819 Y20.3649 
G01 X22.8007 Y20.4349 
G01 X22.8009 Y20.5091 
G01 X22.7819 Y20.5799 
G01 X22.7452 Y20.6435 
G01 X22.6933 Y20.6953 
G01 X22.6298 Y20.7320 
G01 X22.5598 Y20.7508 
G01 X22.5036 Y20.7510 
G01 X22.5036 Y20.8542 
G01 X22.9579 Y20.8542 
