(.../Documents/elec/Eagle/ulp/pcb-gcode.ulp)
(Copyright 2005 - 2009 by John Johnson)
(See readme.txt for licensing terms.)
(This file generated from the board:)
(.../GitHub/Bleuette/pcb/sensor.brd)
(Current profile is .../elec/Eagle/ulp/profiles/emc.pp  )
(This file generated 2/17/13 2:38 PM)
(Settings from pcb-machine.h)
(  Tool Size)
(0.1778 )
(Z Axis Settings)
(  High     Up        Down     Drill)
(12.7000 	2.5400 	-0.1000 	-0.8128 )
(spindle on time = 3.0000)
(milling depth = -0.2540)
(text depth = -0.1270)
(tool change at 0.0000 0.0000 0.0000 )
(feed rate xy = F508.00 )
(feed rate z  = F254.00 )
(Settings from pcb-defaults.h)
(Default isolate = 0.0254)
(isolate max = 0.5080)
(isolate step = 0.1270)
(Generated top outlines, top drill, )
(Unit of measure: mm)
( Tool|       Size       |  Min Sub |  Max Sub |   Count )
( T01 | 3.302mm 0.1300in | 0.0000in | 0.0000in |       0 )
( T02 | 0.600mm 0.0236in | 0.0000in | 0.0000in |       0 )
( T03 | 0.813mm 0.0320in | 0.0000in | 0.0000in |       0 )
( T04 | 1.000mm 0.0394in | 0.0000in | 0.0000in |       0 )
( T05 | 1.016mm 0.0400in | 0.0000in | 0.0000in |       0 )
( T06 | 1.118mm 0.0440in | 0.0000in | 0.0000in |       0 )
( T07 | 1.194mm 0.0470in | 0.0000in | 0.0000in |       0 )
(Metric Mode)
G21
(Absolute Coordinates)
G90
M05
G00 Z0.0000 
G00 X0.0000 Y0.0000 
M06 T01 (3.3020 )
G00 Z2.5400 
M03
G04 P3.000000
G00 X35.8140 Y13.9700 
G01 Z-0.8128 F254.00 
G00 Z2.5400 
M05
G00 Z0.0000 
G00 X0.0000 Y0.0000 
M06 T02 (0.6000 )
G00 Z2.5400 
M03
G04 P3.000000
G00 X44.4500 Y35.5600 
G01 Z-0.8128 F254.00 
G00 Z2.5400 
G00 X44.4500 Y22.8600 
G01 Z-0.8128 F254.00 
G00 Z2.5400 
G00 X14.6050 Y46.9900 
G01 Z-0.8128 F254.00 
G00 Z2.5400 
G00 X17.7800 Y19.0500 
G01 Z-0.8128 F254.00 
G00 Z2.5400 
G00 X20.3200 Y3.8100 
G01 Z-0.8128 F254.00 
G00 Z2.5400 
G00 X20.3200 Y8.8900 
G01 Z-0.8128 F254.00 
G00 Z2.5400 
G00 X29.8450 Y46.9900 
G01 Z-0.8128 F254.00 
G00 Z2.5400 
G00 X29.8450 Y19.0500 
G01 Z-0.8128 F254.00 
G00 Z2.5400 
G01 Z-0.8128 F254.00 
G00 Z2.5400 
M05
G00 Z0.0000 
G00 X0.0000 Y0.0000 
M06 T03 (0.8128 )
G00 Z2.5400 
M03
G04 P3.000000
G00 X17.7800 Y31.7500 
G01 Z-0.8128 F254.00 
G00 Z2.5400 
G00 X17.7800 Y34.2900 
G01 Z-0.8128 F254.00 
G00 Z2.5400 
G00 X17.7800 Y36.8300 
G01 Z-0.8128 F254.00 
G00 Z2.5400 
G00 X17.7800 Y39.3700 
G01 Z-0.8128 F254.00 
G00 Z2.5400 
G00 X17.7800 Y41.9100 
G01 Z-0.8128 F254.00 
G00 Z2.5400 
G00 X17.7800 Y21.5900 
G01 Z-0.8128 F254.00 
G00 Z2.5400 
G00 X17.7800 Y24.1300 
G01 Z-0.8128 F254.00 
G00 Z2.5400 
G00 X17.7800 Y26.6700 
G01 Z-0.8128 F254.00 
G00 Z2.5400 
G00 X17.7800 Y29.2100 
G01 Z-0.8128 F254.00 
G00 Z2.5400 
G00 X22.2250 Y31.7500 
G01 Z-0.8128 F254.00 
G00 Z2.5400 
G00 X22.2250 Y34.2900 
G01 Z-0.8128 F254.00 
G00 Z2.5400 
G00 X22.2250 Y36.8300 
G01 Z-0.8128 F254.00 
G00 Z2.5400 
G00 X22.2250 Y39.3700 
G01 Z-0.8128 F254.00 
G00 Z2.5400 
G00 X22.2250 Y21.5900 
G01 Z-0.8128 F254.00 
G00 Z2.5400 
G00 X22.2250 Y24.1300 
G01 Z-0.8128 F254.00 
G00 Z2.5400 
G00 X22.2250 Y26.6700 
G01 Z-0.8128 F254.00 
G00 Z2.5400 
G00 X22.2250 Y29.2100 
G01 Z-0.8128 F254.00 
G00 Z2.5400 
G00 X29.8450 Y31.7500 
G01 Z-0.8128 F254.00 
G00 Z2.5400 
G00 X29.8450 Y34.2900 
G01 Z-0.8128 F254.00 
G00 Z2.5400 
G00 X29.8450 Y36.8300 
G01 Z-0.8128 F254.00 
G00 Z2.5400 
G00 X29.8450 Y39.3700 
G01 Z-0.8128 F254.00 
G00 Z2.5400 
G00 X29.8450 Y21.5900 
G01 Z-0.8128 F254.00 
G00 Z2.5400 
G00 X29.8450 Y24.1300 
G01 Z-0.8128 F254.00 
G00 Z2.5400 
G00 X29.8450 Y26.6700 
G01 Z-0.8128 F254.00 
G00 Z2.5400 
G00 X29.8450 Y29.2100 
G01 Z-0.8128 F254.00 
G00 Z2.5400 
M05
G00 Z0.0000 
G00 X0.0000 Y0.0000 
M06 T04 (1.0000 )
G00 Z2.5400 
M03
G04 P3.000000
G00 X31.4960 Y50.8000 
G01 Z-0.8128 F254.00 
G00 Z2.5400 
G00 X33.0200 Y2.5400 
G01 Z-0.8128 F254.00 
G00 Z2.5400 
G00 X34.0360 Y50.8000 
G01 Z-0.8128 F254.00 
G00 Z2.5400 
G00 X35.5600 Y2.5400 
G01 Z-0.8128 F254.00 
G00 Z2.5400 
G00 X36.5760 Y50.8000 
G01 Z-0.8128 F254.00 
G00 Z2.5400 
G00 X38.1000 Y2.5400 
G01 Z-0.8128 F254.00 
G00 Z2.5400 
G00 X39.1160 Y50.8000 
G01 Z-0.8128 F254.00 
G00 Z2.5400 
G00 X40.6400 Y2.5400 
G01 Z-0.8128 F254.00 
G00 Z2.5400 
G00 X41.6560 Y50.8000 
G01 Z-0.8128 F254.00 
G00 Z2.5400 
G00 X43.1800 Y2.5400 
G01 Z-0.8128 F254.00 
G00 Z2.5400 
G00 X45.7200 Y50.8000 
G01 Z-0.8128 F254.00 
G00 Z2.5400 
G00 X45.7200 Y2.5400 
G01 Z-0.8128 F254.00 
G00 Z2.5400 
G00 X48.2600 Y50.8000 
G01 Z-0.8128 F254.00 
G00 Z2.5400 
G00 X50.8000 Y50.8000 
G01 Z-0.8128 F254.00 
G00 Z2.5400 
G00 X50.8000 Y2.5400 
G01 Z-0.8128 F254.00 
G00 Z2.5400 
G00 X53.3400 Y50.8000 
G01 Z-0.8128 F254.00 
G00 Z2.5400 
G00 X53.3400 Y2.5400 
G01 Z-0.8128 F254.00 
G00 Z2.5400 
G00 X55.8800 Y50.8000 
G01 Z-0.8128 F254.00 
G00 Z2.5400 
G00 X55.8800 Y2.5400 
G01 Z-0.8128 F254.00 
G00 Z2.5400 
G00 X58.4200 Y50.8000 
G01 Z-0.8128 F254.00 
G00 Z2.5400 
G00 X58.4200 Y2.5400 
G01 Z-0.8128 F254.00 
G00 Z2.5400 
G00 X60.9600 Y50.8000 
G01 Z-0.8128 F254.00 
G00 Z2.5400 
G00 X60.9600 Y2.5400 
G01 Z-0.8128 F254.00 
G00 Z2.5400 
G00 X63.5000 Y50.8000 
G01 Z-0.8128 F254.00 
G00 Z2.5400 
G00 X63.5000 Y2.5400 
G01 Z-0.8128 F254.00 
G00 Z2.5400 
G00 X18.7960 Y50.8000 
G01 Z-0.8128 F254.00 
G00 Z2.5400 
G00 X21.3360 Y50.8000 
G01 Z-0.8128 F254.00 
G00 Z2.5400 
G00 X23.8760 Y50.8000 
G01 Z-0.8128 F254.00 
G00 Z2.5400 
G00 X26.4160 Y50.8000 
G01 Z-0.8128 F254.00 
G00 Z2.5400 
G00 X27.9400 Y2.5400 
G01 Z-0.8128 F254.00 
G00 Z2.5400 
G00 X28.9560 Y50.8000 
G01 Z-0.8128 F254.00 
G00 Z2.5400 
G00 X30.4800 Y2.5400 
G01 Z-0.8128 F254.00 
G00 Z2.5400 
M05
G00 Z0.0000 
G00 X0.0000 Y0.0000 
M06 T05 (1.0160 )
G00 Z2.5400 
M03
G04 P3.000000
G00 X34.9250 Y35.5600 
G01 Z-0.8128 F254.00 
G00 Z2.5400 
G00 X34.9250 Y38.1000 
G01 Z-0.8128 F254.00 
G00 Z2.5400 
G00 X34.9250 Y40.6400 
G01 Z-0.8128 F254.00 
G00 Z2.5400 
G00 X34.9250 Y43.1800 
G01 Z-0.8128 F254.00 
G00 Z2.5400 
G00 X10.7950 Y31.7500 
G01 Z-0.8128 F254.00 
G00 Z2.5400 
G00 X10.7950 Y34.2900 
G01 Z-0.8128 F254.00 
G00 Z2.5400 
G00 X10.7950 Y36.8300 
G01 Z-0.8128 F254.00 
G00 Z2.5400 
G00 X10.7950 Y39.3700 
G01 Z-0.8128 F254.00 
G00 Z2.5400 
G00 X10.7950 Y41.9100 
G01 Z-0.8128 F254.00 
G00 Z2.5400 
G00 X10.7950 Y44.4500 
G01 Z-0.8128 F254.00 
G00 Z2.5400 
G00 X10.7950 Y46.9900 
G01 Z-0.8128 F254.00 
G00 Z2.5400 
G00 X10.7950 Y6.3500 
G01 Z-0.8128 F254.00 
G00 Z2.5400 
G00 X10.7950 Y8.8900 
G01 Z-0.8128 F254.00 
G00 Z2.5400 
G00 X10.7950 Y11.4300 
G01 Z-0.8128 F254.00 
G00 Z2.5400 
G00 X10.7950 Y13.9700 
G01 Z-0.8128 F254.00 
G00 Z2.5400 
G00 X10.7950 Y16.5100 
G01 Z-0.8128 F254.00 
G00 Z2.5400 
G00 X10.7950 Y19.0500 
G01 Z-0.8128 F254.00 
G00 Z2.5400 
G00 X10.7950 Y21.5900 
G01 Z-0.8128 F254.00 
G00 Z2.5400 
G00 X10.7950 Y24.1300 
G01 Z-0.8128 F254.00 
G00 Z2.5400 
G00 X10.7950 Y29.2100 
G01 Z-0.8128 F254.00 
G00 Z2.5400 
G00 X27.3050 Y6.3500 
G01 Z-0.8128 F254.00 
G00 Z2.5400 
G00 X27.3050 Y8.8900 
G01 Z-0.8128 F254.00 
G00 Z2.5400 
G00 X27.3050 Y11.4300 
G01 Z-0.8128 F254.00 
G00 Z2.5400 
G00 X27.3050 Y13.9700 
G01 Z-0.8128 F254.00 
G00 Z2.5400 
G00 X27.3050 Y16.5100 
G01 Z-0.8128 F254.00 
G00 Z2.5400 
M05
G00 Z0.0000 
G00 X0.0000 Y0.0000 
M06 T06 (1.1176 )
G00 Z2.5400 
M03
G04 P3.000000
G00 X53.3400 Y11.4300 
G01 Z-0.8128 F254.00 
G00 Z2.5400 
G00 X53.3400 Y13.9700 
G01 Z-0.8128 F254.00 
G00 Z2.5400 
G00 X53.3400 Y16.5100 
G01 Z-0.8128 F254.00 
G00 Z2.5400 
M05
G00 Z0.0000 
G00 X0.0000 Y0.0000 
M06 T07 (1.1938 )
G00 Z2.5400 
M03
G04 P3.000000
G00 X62.8650 Y10.8350 
G01 Z-0.8128 F254.00 
G00 Z2.5400 
G00 X62.8650 Y15.8350 
G01 Z-0.8128 F254.00 
G00 Z2.5400 
G00 X62.8650 Y22.2650 
G01 Z-0.8128 F254.00 
G00 Z2.5400 
G00 X62.8650 Y27.2650 
G01 Z-0.8128 F254.00 
G00 Z2.5400 
T01 
G00 Z12.7000 
M05
M02
